;FLAVOR:Marlin
;TIME:1504
;Filament used: 0.993043m
;Layer height: 0.15
;MINX:37.278
;MINY:52.84
;MINZ:0.2
;MAXX:214.683
;MAXY:163.295
;MAXZ:3.65
;Generated with Cura_SteamEngine 4.5.0
M82 ;absolute extrusion mode
G21 ; set units to millimeters
G90 ; use absolute positioning
M82 ; absolute extrusion mode
M104 S200 ; set extruder temp
M140 S60 ; set bed temp
M190 S60 ; wait for bed temp
M109 S200 ; wait for extruder temp
G28 W ; home all without mesh bed level
G80 ; mesh bed leveling
G92 E0.0 ; reset extruder distance position
G1 Y-3.0 F1000.0 ; go outside print area
G1 X60.0 E9.0 F1000.0 ; intro line
G1 X100.0 E21.5 F1000.0 ; intro line
G92 E0.0 ; reset extruder distance position
G92 E0
G92 E0
G1 F2100 E-0.8
;LAYER_COUNT:24
;LAYER:0
M107
G0 F3600 X41.321 Y54.375 Z0.2
;TYPE:SKIRT
G1 F2100 E0
G1 F1800 X41.978 Y53.937 E0.02626
G1 X42.676 Y53.567 E0.05254
G1 X43.408 Y53.27 E0.07881
G1 X44.166 Y53.048 E0.10508
G1 X44.942 Y52.904 E0.13133
G1 X45.729 Y52.84 E0.1576
G1 X46.519 Y52.855 E0.18388
G1 X47.303 Y52.95 E0.21014
G1 X48.073 Y53.124 E0.2364
G1 X48.822 Y53.375 E0.26267
G1 X49.541 Y53.7 E0.28892
G1 X50.224 Y54.096 E0.31517
G1 X50.566 Y54.335 E0.32905
G1 X63.377 Y61.735 E0.82112
G1 X64.04 Y62.164 E0.84739
G1 X64.776 Y61.666 E0.87695
G1 X65.473 Y61.295 E0.90321
G1 X66.203 Y60.995 E0.92946
G1 X66.768 Y60.82 E0.94913
G1 X67.7 Y60.611 E0.9809
G1 X68.484 Y60.524 E1.00713
G1 X69.274 Y60.517 E1.03341
G1 X70.06 Y60.589 E1.05966
G1 X70.835 Y60.741 E1.08593
G1 X71.591 Y60.97 E1.1122
G1 X72.32 Y61.275 E1.13849
G1 X72.845 Y61.551 E1.15821
G1 X73.293 Y61.809 E1.17541
G1 X73.956 Y62.237 E1.20166
G1 X74.573 Y62.73 E1.22792
G1 X75.137 Y63.283 E1.2542
G1 X75.642 Y63.89 E1.28046
G1 X76.083 Y64.545 E1.30672
G1 X76.455 Y65.242 E1.333
G1 X76.755 Y65.972 E1.35925
G1 X76.933 Y66.544 E1.37917
G1 X77.142 Y67.476 E1.41094
G1 X77.229 Y68.26 E1.43718
G1 X77.23 Y68.413 E1.44227
G1 X87.259 Y74.204 E1.82745
G1 X88.286 Y73.745 E1.86486
G1 X88.852 Y73.57 E1.88457
G1 X89.784 Y73.361 E1.91633
G1 X90.568 Y73.274 E1.94257
G1 X91.358 Y73.267 E1.96885
G1 X92.144 Y73.339 E1.9951
G1 X92.919 Y73.491 E2.02137
G1 X93.675 Y73.72 E2.04764
G1 X94.404 Y74.025 E2.07392
G1 X94.935 Y74.305 E2.09389
G1 X95.382 Y74.563 E2.11106
G1 X96.045 Y74.991 E2.1373
G1 X96.662 Y75.485 E2.16359
G1 X97.225 Y76.039 E2.18986
G1 X97.729 Y76.646 E2.2161
G1 X98.17 Y77.302 E2.24239
G1 X98.541 Y77.998 E2.26863
G1 X98.841 Y78.729 E2.29491
G1 X99.016 Y79.294 E2.31458
G1 X99.225 Y80.226 E2.34635
G1 X99.312 Y81.01 E2.37258
G1 X99.313 Y81.163 E2.37767
G1 X109.343 Y86.954 E2.76288
G1 X110.37 Y86.495 E2.8003
G1 X110.936 Y86.32 E2.82
G1 X111.868 Y86.111 E2.85177
G1 X112.652 Y86.024 E2.87801
G1 X113.442 Y86.017 E2.90428
G1 X114.228 Y86.089 E2.93053
G1 X115.003 Y86.241 E2.9568
G1 X115.759 Y86.47 E2.98308
G1 X116.488 Y86.775 E3.00936
G1 X117.019 Y87.055 E3.02932
G1 X117.466 Y87.313 E3.04649
G1 X118.129 Y87.741 E3.07274
G1 X118.746 Y88.235 E3.09903
G1 X119.309 Y88.789 E3.1253
G1 X119.813 Y89.396 E3.15154
G1 X120.254 Y90.052 E3.17783
G1 X120.625 Y90.748 E3.20406
G1 X120.925 Y91.479 E3.23034
G1 X121.1 Y92.044 E3.25002
G1 X121.309 Y92.976 E3.28178
G1 X121.396 Y93.76 E3.30802
G1 X121.397 Y93.913 E3.31311
G1 X131.426 Y99.704 E3.69829
G1 X132.453 Y99.245 E3.7357
G1 X133.019 Y99.07 E3.75541
G1 X133.951 Y98.861 E3.78718
G1 X134.735 Y98.774 E3.81341
G1 X135.525 Y98.767 E3.83969
G1 X136.311 Y98.839 E3.86594
G1 X137.086 Y98.991 E3.89221
G1 X137.842 Y99.22 E3.91848
G1 X138.571 Y99.525 E3.94477
G1 X139.096 Y99.801 E3.96449
G1 X139.544 Y100.059 E3.98169
G1 X140.207 Y100.487 E4.00794
G1 X140.824 Y100.98 E4.0342
G1 X141.388 Y101.533 E4.06047
G1 X141.893 Y102.14 E4.08674
G1 X142.334 Y102.795 E4.113
G1 X142.706 Y103.492 E4.13928
G1 X143.006 Y104.222 E4.16553
G1 X143.184 Y104.794 E4.18545
G1 X143.393 Y105.726 E4.21722
G1 X143.48 Y106.51 E4.24346
G1 X143.481 Y106.663 E4.24855
G1 X153.51 Y112.454 E4.63373
G1 X154.537 Y111.995 E4.67114
G1 X155.103 Y111.82 E4.69085
G1 X156.035 Y111.611 E4.72261
G1 X156.819 Y111.524 E4.74885
G1 X157.609 Y111.517 E4.77513
G1 X158.395 Y111.589 E4.80138
G1 X159.17 Y111.741 E4.82765
G1 X159.926 Y111.97 E4.85392
G1 X160.655 Y112.275 E4.8802
G1 X161.186 Y112.555 E4.90017
G1 X161.633 Y112.813 E4.91733
G1 X162.296 Y113.241 E4.94358
G1 X162.913 Y113.735 E4.96987
G1 X163.476 Y114.289 E4.99614
G1 X163.98 Y114.896 E5.02238
G1 X164.421 Y115.552 E5.04867
G1 X164.792 Y116.248 E5.07491
G1 X165.092 Y116.979 E5.10119
G1 X165.267 Y117.544 E5.12086
G1 X165.476 Y118.476 E5.15263
G1 X165.563 Y119.26 E5.17886
G1 X165.564 Y119.413 E5.18395
G1 X175.594 Y125.204 E5.56916
G1 X176.621 Y124.745 E5.60658
G1 X177.187 Y124.57 E5.62628
G1 X178.119 Y124.361 E5.65805
G1 X178.903 Y124.274 E5.68429
G1 X179.693 Y124.267 E5.71056
G1 X180.479 Y124.339 E5.73681
G1 X181.254 Y124.491 E5.76308
G1 X182.01 Y124.72 E5.78935
G1 X182.739 Y125.025 E5.81564
G1 X183.27 Y125.305 E5.8356
G1 X183.717 Y125.563 E5.85277
G1 X184.38 Y125.991 E5.87902
G1 X184.997 Y126.485 E5.90531
G1 X185.56 Y127.039 E5.93158
G1 X186.064 Y127.646 E5.95782
G1 X186.505 Y128.302 E5.98411
G1 X186.876 Y128.998 E6.01034
G1 X187.176 Y129.729 E6.03662
G1 X187.351 Y130.294 E6.05629
G1 X187.56 Y131.226 E6.08806
G1 X187.647 Y132.01 E6.1143
G1 X187.648 Y132.163 E6.11939
G1 X197.677 Y137.954 E6.50457
G1 X198.704 Y137.495 E6.54198
G1 X199.27 Y137.32 E6.56169
G1 X200.202 Y137.111 E6.59346
G1 X200.986 Y137.024 E6.61969
G1 X201.776 Y137.017 E6.64597
G1 X202.562 Y137.089 E6.67222
G1 X203.337 Y137.241 E6.69849
G1 X204.093 Y137.47 E6.72476
G1 X204.822 Y137.775 E6.75104
G1 X205.347 Y138.051 E6.77077
G1 X205.795 Y138.309 E6.78797
G1 X206.458 Y138.737 E6.81421
G1 X207.075 Y139.23 E6.84048
G1 X207.639 Y139.783 E6.86675
G1 X208.144 Y140.39 E6.89302
G1 X208.585 Y141.045 E6.91928
G1 X208.957 Y141.742 E6.94556
G1 X209.257 Y142.472 E6.97181
G1 X209.435 Y143.044 E6.99173
G1 X209.644 Y143.976 E7.0235
G1 X209.731 Y144.76 E7.04974
G1 X209.732 Y144.912 E7.05479
G1 X210.746 Y145.497 E7.09373
G1 X211.409 Y145.926 E7.11999
G1 X212.025 Y146.42 E7.14625
G1 X212.589 Y146.974 E7.17255
G1 X213.093 Y147.581 E7.19879
G1 X213.533 Y148.237 E7.22506
G1 X213.905 Y148.933 E7.25131
G1 X214.205 Y149.664 E7.27759
G1 X214.38 Y150.229 E7.29726
G1 X214.589 Y151.161 E7.32903
G1 X214.676 Y151.945 E7.35527
G1 X214.683 Y152.735 E7.38155
G1 X214.611 Y153.521 E7.4078
G1 X214.459 Y154.296 E7.43406
G1 X214.23 Y155.052 E7.46034
G1 X213.925 Y155.781 E7.48662
G1 X213.646 Y156.312 E7.50657
G1 X211.888 Y159.358 E7.62354
G1 X211.459 Y160.021 E7.64981
G1 X210.965 Y160.637 E7.67607
G1 X210.412 Y161.201 E7.70234
G1 X209.804 Y161.705 E7.72861
G1 X209.148 Y162.145 E7.75488
G1 X208.452 Y162.517 E7.78113
G1 X207.721 Y162.817 E7.80741
G1 X207.156 Y162.992 E7.82708
G1 X206.224 Y163.201 E7.85885
G1 X205.44 Y163.288 E7.88509
G1 X204.65 Y163.295 E7.91137
G1 X203.864 Y163.223 E7.93762
G1 X203.089 Y163.071 E7.96389
G1 X202.333 Y162.842 E7.99016
G1 X201.604 Y162.537 E8.01644
G1 X201.072 Y162.257 E8.03644
G1 X64.935 Y83.659 E13.26483
G1 X61.302 Y81.562 E13.40435
G1 X60.639 Y81.133 E13.43062
G1 X60.023 Y80.639 E13.45688
G1 X59.46 Y80.086 E13.48313
G1 X58.955 Y79.478 E13.50942
G1 X58.515 Y78.822 E13.53569
G1 X58.143 Y78.126 E13.56194
G1 X57.887 Y77.501 E13.5844
G1 X57.441 Y77.448 E13.59934
G1 X56.67 Y77.277 E13.6256
G1 X55.92 Y77.029 E13.65188
G1 X55.2 Y76.706 E13.67812
G1 X43.075 Y69.717 E14.1436
G1 X42.283 Y69.463 E14.17127
G1 X41.561 Y69.143 E14.19753
G1 X40.875 Y68.752 E14.2238
G1 X40.232 Y68.293 E14.25007
G1 X39.639 Y67.772 E14.27633
G1 X39.102 Y67.193 E14.30259
G1 X38.626 Y66.563 E14.32885
G1 X38.215 Y65.889 E14.35511
G1 X37.876 Y65.176 E14.38137
G1 X37.61 Y64.432 E14.40765
G1 X37.421 Y63.665 E14.43392
G1 X37.31 Y62.884 E14.46016
G1 X37.278 Y62.095 E14.48642
G1 X37.327 Y61.306 E14.51271
G1 X37.455 Y60.527 E14.53897
G1 X37.662 Y59.765 E14.56523
G1 X37.944 Y59.027 E14.59151
G1 X38.303 Y58.316 E14.618
G1 X39.23 Y56.715 E14.67953
G1 X39.661 Y56.054 E14.70578
G1 X40.157 Y55.439 E14.73206
G1 X40.712 Y54.877 E14.75833
G1 X41.321 Y54.375 E14.78458
G0 F3600 X41.624 Y54.649
G1 F1800 X42.269 Y54.23 E14.81016
G1 X42.954 Y53.88 E14.83575
G1 X43.672 Y53.603 E14.86134
G1 X44.414 Y53.402 E14.88691
G1 X45.174 Y53.279 E14.91252
G1 X45.941 Y53.236 E14.93807
G1 X46.71 Y53.273 E14.96367
G1 X47.47 Y53.389 E14.98925
G1 X48.214 Y53.584 E15.01483
G1 X48.934 Y53.854 E15.0404
G1 X49.622 Y54.198 E15.06599
G1 X50.327 Y54.659 E15.094
G1 X63.177 Y62.081 E15.58756
G1 X63.822 Y62.5 E15.61315
G1 X64.05 Y62.684 E15.62289
G1 X64.424 Y62.379 E15.63894
G1 X65.068 Y61.958 E15.66453
G1 X65.752 Y61.606 E15.69012
G1 X66.468 Y61.327 E15.71568
G1 X67.031 Y61.164 E15.73517
G1 X67.784 Y61.003 E15.76078
G1 X68.548 Y60.921 E15.78634
G1 X69.318 Y60.919 E15.81195
G1 X70.083 Y60.997 E15.83752
G1 X70.836 Y61.154 E15.86311
G1 X71.568 Y61.388 E15.88867
G1 X72.273 Y61.697 E15.91427
G1 X73.093 Y62.155 E15.94551
G1 X73.739 Y62.573 E15.9711
G1 X74.337 Y63.056 E15.99667
G1 X74.883 Y63.598 E16.02226
G1 X75.369 Y64.194 E16.04783
G1 X75.791 Y64.838 E16.07344
G1 X76.144 Y65.521 E16.09901
G1 X76.423 Y66.238 E16.1246
G1 X76.589 Y66.807 E16.14432
G1 X76.75 Y67.56 E16.16993
G1 X76.832 Y68.324 E16.19549
G1 X76.833 Y68.645 E16.20616
G1 X87.248 Y74.659 E16.60617
G1 X87.835 Y74.357 E16.62813
G1 X88.552 Y74.078 E16.65372
G1 X89.115 Y73.914 E16.67322
G1 X89.868 Y73.753 E16.69883
G1 X90.632 Y73.671 E16.72439
G1 X91.402 Y73.669 E16.75
G1 X92.167 Y73.747 E16.77557
G1 X92.92 Y73.904 E16.80116
G1 X93.652 Y74.138 E16.82672
G1 X94.357 Y74.447 E16.85232
G1 X95.182 Y74.909 E16.88377
G1 X95.827 Y75.328 E16.90935
G1 X96.426 Y75.811 E16.93494
G1 X96.971 Y76.354 E16.96053
G1 X97.456 Y76.95 E16.98609
G1 X97.878 Y77.594 E17.0117
G1 X98.23 Y78.278 E17.03728
G1 X98.509 Y78.994 E17.06284
G1 X98.672 Y79.557 E17.08233
G1 X98.833 Y80.31 E17.10795
G1 X98.915 Y81.074 E17.1335
G1 X98.916 Y81.395 E17.14418
G1 X109.332 Y87.409 E17.54422
G1 X109.919 Y87.107 E17.56617
G1 X110.636 Y86.828 E17.59176
G1 X111.199 Y86.664 E17.61127
G1 X111.952 Y86.503 E17.63688
G1 X112.716 Y86.421 E17.66243
G1 X113.486 Y86.419 E17.68804
G1 X114.251 Y86.497 E17.71362
G1 X115.004 Y86.654 E17.7392
G1 X115.736 Y86.888 E17.76476
G1 X116.441 Y87.197 E17.79036
G1 X117.266 Y87.659 E17.82181
G1 X117.911 Y88.078 E17.8474
G1 X118.51 Y88.561 E17.87299
G1 X119.055 Y89.104 E17.89858
G1 X119.54 Y89.7 E17.92413
G1 X119.962 Y90.344 E17.94974
G1 X120.314 Y91.028 E17.97533
G1 X120.593 Y91.744 E18.00089
G1 X120.756 Y92.307 E18.02038
G1 X120.917 Y93.06 E18.04599
G1 X120.999 Y93.824 E18.07155
G1 X121 Y94.145 E18.08222
G1 X131.415 Y100.159 E18.48223
G1 X132.002 Y99.857 E18.50419
G1 X132.719 Y99.578 E18.52978
G1 X133.282 Y99.414 E18.54928
G1 X134.035 Y99.253 E18.57489
G1 X134.799 Y99.171 E18.60045
G1 X135.569 Y99.169 E18.62606
G1 X136.334 Y99.247 E18.65164
G1 X137.087 Y99.404 E18.67722
G1 X137.819 Y99.638 E18.70278
G1 X138.524 Y99.947 E18.72838
G1 X139.344 Y100.405 E18.75962
G1 X139.99 Y100.823 E18.78521
G1 X140.588 Y101.306 E18.81078
G1 X141.134 Y101.848 E18.83637
G1 X141.62 Y102.444 E18.86195
G1 X142.042 Y103.088 E18.88755
G1 X142.395 Y103.771 E18.91313
G1 X142.674 Y104.488 E18.93871
G1 X142.84 Y105.057 E18.95843
G1 X143.001 Y105.81 E18.98404
G1 X143.083 Y106.574 E19.0096
G1 X143.084 Y106.895 E19.02027
G1 X153.499 Y112.909 E19.42028
G1 X154.086 Y112.607 E19.44224
G1 X154.803 Y112.328 E19.46783
G1 X155.366 Y112.164 E19.48733
G1 X156.119 Y112.003 E19.51294
G1 X156.883 Y111.921 E19.5385
G1 X157.653 Y111.919 E19.56411
G1 X158.418 Y111.997 E19.58968
G1 X159.171 Y112.154 E19.61527
G1 X159.903 Y112.388 E19.64083
G1 X160.608 Y112.697 E19.66643
G1 X161.433 Y113.159 E19.69788
G1 X162.078 Y113.578 E19.72346
G1 X162.677 Y114.061 E19.74905
G1 X163.222 Y114.604 E19.77464
G1 X163.707 Y115.2 E19.8002
G1 X164.129 Y115.844 E19.82581
G1 X164.481 Y116.528 E19.85139
G1 X164.76 Y117.244 E19.87695
G1 X164.923 Y117.807 E19.89645
G1 X165.084 Y118.56 E19.92206
G1 X165.166 Y119.324 E19.94761
G1 X165.167 Y119.645 E19.95829
G1 X175.583 Y125.659 E20.35833
G1 X176.17 Y125.357 E20.38028
G1 X176.887 Y125.078 E20.40587
G1 X177.45 Y124.914 E20.42538
G1 X178.203 Y124.753 E20.45099
G1 X178.967 Y124.671 E20.47654
G1 X179.737 Y124.669 E20.50215
G1 X180.502 Y124.747 E20.52773
G1 X181.255 Y124.904 E20.55331
G1 X181.987 Y125.138 E20.57887
G1 X182.692 Y125.447 E20.60448
G1 X183.517 Y125.909 E20.63592
G1 X184.162 Y126.328 E20.66151
G1 X184.761 Y126.811 E20.6871
G1 X185.306 Y127.354 E20.71269
G1 X185.791 Y127.95 E20.73824
G1 X186.213 Y128.594 E20.76385
G1 X186.565 Y129.278 E20.78944
G1 X186.844 Y129.994 E20.815
G1 X187.007 Y130.557 E20.83449
G1 X187.168 Y131.31 E20.8601
G1 X187.25 Y132.074 E20.88566
G1 X187.251 Y132.395 E20.89634
G1 X197.666 Y138.409 E21.29634
G1 X198.253 Y138.107 E21.3183
G1 X198.97 Y137.828 E21.34389
G1 X199.533 Y137.664 E21.36339
G1 X200.286 Y137.503 E21.389
G1 X201.05 Y137.421 E21.41456
G1 X201.82 Y137.419 E21.44017
G1 X202.585 Y137.497 E21.46575
G1 X203.338 Y137.654 E21.49133
G1 X204.07 Y137.888 E21.51689
G1 X204.775 Y138.197 E21.54249
G1 X205.595 Y138.655 E21.57373
G1 X206.241 Y139.073 E21.59932
G1 X206.839 Y139.556 E21.62489
G1 X207.385 Y140.098 E21.65048
G1 X207.871 Y140.694 E21.67606
G1 X208.293 Y141.338 E21.70167
G1 X208.646 Y142.021 E21.72724
G1 X208.925 Y142.738 E21.75283
G1 X209.091 Y143.307 E21.77254
G1 X209.252 Y144.06 E21.79815
G1 X209.334 Y144.824 E21.82371
G1 X209.335 Y145.145 E21.83438
G1 X210.546 Y145.844 E21.88089
G1 X211.191 Y146.262 E21.90645
G1 X211.79 Y146.746 E21.93207
G1 X212.335 Y147.289 E21.95766
G1 X212.82 Y147.885 E21.98321
G1 X213.241 Y148.529 E22.0088
G1 X213.594 Y149.213 E22.0344
G1 X213.873 Y149.929 E22.05996
G1 X214.036 Y150.492 E22.07946
G1 X214.197 Y151.245 E22.10507
G1 X214.279 Y152.009 E22.13063
G1 X214.281 Y152.779 E22.15624
G1 X214.203 Y153.544 E22.18181
G1 X214.046 Y154.297 E22.20739
G1 X213.812 Y155.029 E22.23295
G1 X213.503 Y155.734 E22.25856
G1 X211.541 Y159.158 E22.38981
G1 X211.123 Y159.803 E22.41537
G1 X210.639 Y160.402 E22.44099
G1 X210.096 Y160.947 E22.46658
G1 X209.5 Y161.432 E22.49213
G1 X208.856 Y161.853 E22.51772
G1 X208.173 Y162.205 E22.54328
G1 X207.456 Y162.485 E22.56888
G1 X206.893 Y162.648 E22.58838
G1 X206.14 Y162.809 E22.61399
G1 X205.376 Y162.891 E22.63954
G1 X204.606 Y162.893 E22.66515
G1 X203.841 Y162.815 E22.69073
G1 X203.088 Y162.658 E22.71631
G1 X202.356 Y162.424 E22.74187
G1 X201.651 Y162.115 E22.76748
G1 X65.135 Y83.313 E28.01018
G1 X61.502 Y81.216 E28.1497
G1 X60.857 Y80.797 E28.17528
G1 X60.259 Y80.314 E28.20085
G1 X59.714 Y79.771 E28.22644
G1 X59.228 Y79.174 E28.25204
G1 X58.807 Y78.53 E28.27763
G1 X58.455 Y77.847 E28.30319
G1 X58.176 Y77.13 E28.32878
G1 X57.272 Y77.01 E28.35911
G1 X56.527 Y76.818 E28.3847
G1 X55.806 Y76.55 E28.41028
G1 X55.039 Y76.164 E28.43884
G1 X46.91 Y71.463 E28.75117
G1 X43.21 Y69.334 E28.89315
G1 X42.315 Y69.046 E28.92442
G1 X41.617 Y68.722 E28.95001
G1 X40.957 Y68.327 E28.97559
G1 X40.341 Y67.866 E29.00119
G1 X39.777 Y67.344 E29.02675
G1 X39.269 Y66.766 E29.05234
G1 X38.825 Y66.138 E29.07792
G1 X38.448 Y65.468 E29.10349
G1 X38.143 Y64.762 E29.12907
G1 X37.912 Y64.028 E29.15466
G1 X37.759 Y63.274 E29.18025
G1 X37.685 Y62.508 E29.20585
G1 X37.691 Y61.739 E29.23143
G1 X37.777 Y60.975 E29.257
G1 X37.942 Y60.224 E29.28257
G1 X38.183 Y59.493 E29.30817
G1 X38.65 Y58.514 E29.34425
G1 X39.576 Y56.916 E29.40568
G1 X39.996 Y56.272 E29.43125
G1 X40.482 Y55.676 E29.45683
G1 X41.026 Y55.132 E29.48241
G1 X41.624 Y54.649 E29.50798
G0 F3600 X41.926 Y54.924
G1 F1800 X42.559 Y54.525 E29.53287
G1 X43.23 Y54.196 E29.55772
G1 X43.933 Y53.94 E29.58261
G1 X44.659 Y53.76 E29.60749
G1 X45.401 Y53.659 E29.63239
G1 X46.148 Y53.638 E29.65725
G1 X46.894 Y53.697 E29.68214
G1 X47.629 Y53.835 E29.70701
G1 X48.346 Y54.05 E29.73191
G1 X49.035 Y54.341 E29.75678
G1 X49.689 Y54.704 E29.78166
G1 X50.151 Y55.02 E29.80028
G1 X62.977 Y62.428 E30.29292
G1 X63.604 Y62.836 E30.3178
G1 X64.057 Y63.205 E30.33723
G1 X64.727 Y62.654 E30.36608
G1 X65.358 Y62.253 E30.39095
G1 X66.029 Y61.921 E30.41585
G1 X66.975 Y61.593 E30.44915
G1 X67.867 Y61.395 E30.47954
G1 X68.611 Y61.318 E30.50442
G1 X69.359 Y61.322 E30.5293
G1 X70.103 Y61.405 E30.5542
