;FLAVOR:Marlin
;TIME:7109
;Filament used: 4.81558m
;Layer height: 0.15
;MINX:38.568
;MINY:85.575
;MINZ:0.2
;MAXX:209.701
;MAXY:165
;MAXZ:5.15
;Generated with Cura_SteamEngine 4.5.0
M82 ;absolute extrusion mode
G21 ; set units to millimeters
G90 ; use absolute positioning
M82 ; absolute extrusion mode
M104 S200 ; set extruder temp
M140 S60 ; set bed temp
M190 S60 ; wait for bed temp
M109 S200 ; wait for extruder temp
G28 W ; home all without mesh bed level
G80 ; mesh bed leveling
G92 E0.0 ; reset extruder distance position
G1 Y-3.0 F1000.0 ; go outside print area
G1 X60.0 E9.0 F1000.0 ; intro line
G1 X100.0 E21.5 F1000.0 ; intro line
G92 E0.0 ; reset extruder distance position
G92 E0
G92 E0
G1 F2100 E-0.8
;LAYER_COUNT:34
;LAYER:0
M107
G0 F3600 X144.208 Y124.409 Z0.2
;TYPE:SKIRT
G1 F2100 E0
G1 F1800 X145.319 Y124.545 E0.03723
G1 X146.084 Y124.743 E0.06351
G1 X146.824 Y125.017 E0.08976
G1 X147.533 Y125.365 E0.11602
G1 X148.204 Y125.783 E0.14232
G1 X148.828 Y126.266 E0.16856
G1 X149.401 Y126.809 E0.19482
G1 X149.916 Y127.408 E0.22109
G1 X150.154 Y127.75 E0.23495
G1 X150.599 Y127.389 E0.25401
G1 X151.09 Y126.569 E0.2858
G1 X151.573 Y125.945 E0.31204
G1 X152.116 Y125.372 E0.3383
G1 X152.715 Y124.857 E0.36457
G1 X153.363 Y124.406 E0.39083
G1 X154.054 Y124.022 E0.41713
G1 X154.779 Y123.71 E0.44338
G1 X155.308 Y123.544 E0.46182
G1 X154.577 Y123.273 E0.48775
G1 X153.868 Y122.925 E0.51402
G1 X153.197 Y122.507 E0.54031
G1 X152.573 Y122.024 E0.56656
G1 X152 Y121.481 E0.59281
G1 X151.485 Y120.882 E0.61909
G1 X151.034 Y120.234 E0.64535
G1 X150.833 Y119.873 E0.65909
G1 X150.571 Y120.408 E0.6789
G1 X150.153 Y121.079 E0.7052
G1 X149.67 Y121.703 E0.73144
G1 X149.127 Y122.276 E0.7577
G1 X148.528 Y122.791 E0.78397
G1 X147.88 Y123.242 E0.81023
G1 X147.189 Y123.626 E0.83652
G1 X146.464 Y123.938 E0.86277
G1 X145.711 Y124.175 E0.88903
G1 X144.937 Y124.334 E0.91531
G1 X144.208 Y124.409 E0.93969
G0 F3600 X144.518 Y124.826
G1 F1800 X145.278 Y124.945 E0.96527
G1 X146.021 Y125.143 E0.99085
G1 X146.74 Y125.417 E1.01644
G1 X147.426 Y125.764 E1.04201
G1 X148.073 Y126.18 E1.06759
G1 X148.673 Y126.661 E1.09317
G1 X149.22 Y127.202 E1.11876
G1 X149.708 Y127.797 E1.14435
G1 X150.079 Y128.36 E1.16678
G1 X150.854 Y127.69 E1.20085
G1 X150.919 Y127.647 E1.20344
G1 X151.487 Y126.7 E1.24017
G1 X151.968 Y126.1 E1.26575
G1 X152.509 Y125.553 E1.29134
G1 X153.104 Y125.065 E1.31693
G1 X153.746 Y124.642 E1.3425
G1 X154.429 Y124.287 E1.3681
G1 X155.144 Y124.006 E1.39366
G1 X155.886 Y123.8 E1.41927
G1 X156.644 Y123.672 E1.44484
G1 X157.493 Y123.623 E1.47312
G1 X159.514 Y123.623 E1.54034
G1 X159.714 Y123.523 E1.54778
G1 X157.651 Y123.504 E1.6164
G1 X156.883 Y123.464 E1.64197
G1 X156.123 Y123.345 E1.66756
G1 X155.38 Y123.147 E1.69313
G1 X154.661 Y122.873 E1.71873
G1 X153.975 Y122.526 E1.7443
G1 X153.328 Y122.11 E1.76988
G1 X152.728 Y121.629 E1.79546
G1 X152.181 Y121.088 E1.82104
G1 X151.693 Y120.493 E1.84664
G1 X151.27 Y119.851 E1.87221
G1 X150.915 Y119.168 E1.89781
G1 X150.793 Y118.896 E1.90773
G1 X150.519 Y119.615 E1.93332
G1 X150.172 Y120.301 E1.95889
G1 X149.756 Y120.948 E1.98447
G1 X149.275 Y121.548 E2.01005
G1 X148.734 Y122.095 E2.03564
G1 X148.139 Y122.583 E2.06123
G1 X147.497 Y123.006 E2.0868
G1 X146.814 Y123.361 E2.11241
G1 X146.099 Y123.642 E2.13796
G1 X145.357 Y123.848 E2.16357
G1 X144.599 Y123.976 E2.18914
G1 X143.75 Y124.025 E2.21742
G1 X109.25 Y124.025 E3.3649
G1 X108.482 Y123.985 E3.39048
G1 X107.722 Y123.866 E3.41606
G1 X106.979 Y123.668 E3.44164
G1 X106.26 Y123.394 E3.46723
G1 X106.025 Y123.275 E3.47599
G1 X104 Y123.275 E3.54334
G1 X103.232 Y123.235 E3.56892
G1 X102.472 Y123.116 E3.5945
G1 X101.729 Y122.918 E3.62008
G1 X101.01 Y122.644 E3.64567
G1 X100.324 Y122.297 E3.67124
G1 X99.677 Y121.881 E3.69682
G1 X99.077 Y121.4 E3.7224
G1 X98.53 Y120.859 E3.74799
G1 X98.042 Y120.264 E3.77358
G1 X97.619 Y119.622 E3.79915
G1 X97.427 Y119.256 E3.8129
G1 X96.827 Y118.775 E3.83848
G1 X96.28 Y118.234 E3.86407
G1 X95.792 Y117.639 E3.88966
G1 X95.709 Y117.513 E3.89468
G1 X95.609 Y118.153 E3.91622
G1 X95.411 Y118.896 E3.9418
G1 X95.137 Y119.615 E3.96739
G1 X94.79 Y120.301 E3.99296
G1 X94.374 Y120.948 E4.01854
G1 X93.893 Y121.548 E4.04412
G1 X93.352 Y122.095 E4.06971
G1 X92.757 Y122.583 E4.0953
G1 X92.115 Y123.006 E4.12088
G1 X91.432 Y123.361 E4.14648
G1 X90.717 Y123.642 E4.17203
G1 X89.975 Y123.848 E4.19764
G1 X89.217 Y123.976 E4.22321
G1 X88.368 Y124.025 E4.25149
G1 X53.868 Y124.025 E5.39897
G1 X53.1 Y123.985 E5.42455
G1 X52.34 Y123.866 E5.45013
G1 X51.597 Y123.668 E5.47571
G1 X50.878 Y123.394 E5.5013
G1 X50.643 Y123.275 E5.51006
G1 X48.618 Y123.275 E5.57741
G1 X47.85 Y123.235 E5.60299
G1 X47.09 Y123.116 E5.62858
G1 X46.347 Y122.918 E5.65415
G1 X45.628 Y122.644 E5.67974
G1 X44.942 Y122.297 E5.70531
G1 X44.295 Y121.881 E5.7309
G1 X43.695 Y121.4 E5.75647
G1 X43.148 Y120.859 E5.78206
G1 X42.66 Y120.264 E5.80766
G1 X42.237 Y119.622 E5.83323
G1 X42.045 Y119.256 E5.84697
G1 X41.445 Y118.775 E5.87255
G1 X40.898 Y118.234 E5.89814
G1 X40.41 Y117.639 E5.92373
G1 X39.987 Y116.997 E5.9493
G1 X39.632 Y116.314 E5.97491
G1 X39.351 Y115.599 E6.00046
G1 X39.145 Y114.857 E6.02607
G1 X39.017 Y114.099 E6.05164
G1 X38.968 Y113.25 E6.07992
G1 X38.968 Y96.75 E6.62872
G1 X39.008 Y95.982 E6.65429
G1 X39.127 Y95.222 E6.67988
G1 X39.325 Y94.479 E6.70545
G1 X39.599 Y93.76 E6.73105
G1 X39.946 Y93.074 E6.75662
G1 X40.362 Y92.427 E6.7822
G1 X40.843 Y91.827 E6.80778
G1 X41.384 Y91.28 E6.83336
G1 X41.979 Y90.792 E6.85896
G1 X42.044 Y90.749 E6.86155
G1 X42.612 Y89.802 E6.89828
G1 X43.093 Y89.202 E6.92386
G1 X43.634 Y88.655 E6.94945
G1 X44.229 Y88.167 E6.97504
G1 X44.871 Y87.744 E7.00061
G1 X45.554 Y87.389 E7.02621
G1 X46.269 Y87.108 E7.05177
G1 X47.011 Y86.902 E7.07738
G1 X47.769 Y86.774 E7.10295
G1 X48.618 Y86.725 E7.13123
G1 X50.639 Y86.725 E7.19845
G1 X51.519 Y86.358 E7.23016
G1 X52.261 Y86.152 E7.25577
G1 X53.019 Y86.024 E7.28134
G1 X53.868 Y85.975 E7.30963
G1 X88.368 Y85.975 E8.4571
G1 X89.136 Y86.015 E8.48268
G1 X89.896 Y86.134 E8.50827
G1 X90.639 Y86.332 E8.53384
G1 X91.358 Y86.606 E8.55943
G1 X92.044 Y86.953 E8.585
G1 X92.691 Y87.369 E8.61058
G1 X93.291 Y87.85 E8.63616
G1 X93.838 Y88.391 E8.66175
G1 X94.326 Y88.986 E8.68734
G1 X94.749 Y89.628 E8.71292
G1 X95.104 Y90.311 E8.73852
G1 X95.385 Y91.026 E8.76407
G1 X95.591 Y91.768 E8.78968
G1 X95.711 Y92.478 E8.81363
G1 X96.225 Y91.827 E8.84122
G1 X96.766 Y91.28 E8.86681
G1 X97.361 Y90.792 E8.8924
G1 X97.426 Y90.749 E8.89499
G1 X97.994 Y89.802 E8.93172
G1 X98.475 Y89.202 E8.9573
G1 X99.016 Y88.655 E8.98289
G1 X99.611 Y88.167 E9.00848
G1 X100.253 Y87.744 E9.03405
G1 X100.936 Y87.389 E9.05966
G1 X101.651 Y87.108 E9.08521
G1 X102.393 Y86.902 E9.11082
G1 X103.151 Y86.774 E9.13639
G1 X104 Y86.725 E9.16467
G1 X106.021 Y86.725 E9.23189
G1 X106.901 Y86.358 E9.2636
G1 X107.643 Y86.152 E9.28922
G1 X108.401 Y86.024 E9.31479
G1 X109.25 Y85.975 E9.34307
G1 X143.75 Y85.975 E10.49054
G1 X144.518 Y86.015 E10.51612
G1 X145.278 Y86.134 E10.54171
G1 X146.021 Y86.332 E10.56728
G1 X146.74 Y86.606 E10.59288
G1 X147.426 Y86.953 E10.61844
G1 X148.073 Y87.369 E10.64403
G1 X148.673 Y87.85 E10.66961
G1 X149.22 Y88.391 E10.69519
G1 X149.708 Y88.986 E10.72079
G1 X150.131 Y89.628 E10.74636
G1 X150.486 Y90.311 E10.77196
G1 X150.767 Y91.026 E10.79751
G1 X150.882 Y91.364 E10.80939
G1 X151.229 Y90.678 E10.83496
G1 X151.645 Y90.031 E10.86054
G1 X152.126 Y89.431 E10.88612
G1 X152.667 Y88.884 E10.91171
G1 X153.262 Y88.396 E10.9373
G1 X153.904 Y87.973 E10.96287
G1 X154.587 Y87.618 E10.98847
G1 X155.302 Y87.337 E11.01403
G1 X156.044 Y87.131 E11.03964
G1 X156.802 Y87.003 E11.06521
G1 X157.651 Y86.954 E11.09349
G1 X159.672 Y86.954 E11.16071
G1 X160.552 Y86.587 E11.19242
G1 X161.294 Y86.381 E11.21803
G1 X162.052 Y86.253 E11.2436
G1 X162.901 Y86.204 E11.27189
G1 X197.401 Y86.204 E12.41936
G1 X198.169 Y86.244 E12.44494
G1 X198.929 Y86.363 E12.47053
G1 X199.672 Y86.561 E12.4961
G1 X200.391 Y86.835 E12.52169
G1 X201.077 Y87.182 E12.54726
G1 X201.724 Y87.598 E12.57285
G1 X202.324 Y88.079 E12.59842
G1 X202.871 Y88.62 E12.62401
G1 X203.359 Y89.215 E12.64961
G1 X203.782 Y89.857 E12.67518
G1 X204.137 Y90.54 E12.70078
G1 X204.418 Y91.255 E12.72633
G1 X204.624 Y91.997 E12.75194
G1 X204.752 Y92.755 E12.77751
G1 X204.801 Y93.59 E12.80533
G1 X204.805 Y95.556 E12.87072
G1 X205.456 Y96.103 E12.899
G1 X206.143 Y96.789 E12.93129
G1 X206.531 Y97.231 E12.95085
G1 X207.125 Y98.005 E12.9833
G1 X207.452 Y98.495 E13.0029
G1 X207.928 Y99.319 E13.03455
G1 X208.189 Y99.846 E13.05411
G1 X208.567 Y100.756 E13.08688
G1 X208.756 Y101.314 E13.10648
G1 X209.005 Y102.246 E13.13856
G1 X209.12 Y102.825 E13.1582
G1 X209.246 Y103.776 E13.1901
G1 X209.285 Y104.362 E13.20964
G1 X209.301 Y105.604 E13.25095
G1 X209.246 Y106.681 E13.28682
G1 X209.12 Y107.632 E13.31872
G1 X209.005 Y108.211 E13.33836
G1 X208.757 Y109.139 E13.37031
G1 X208.569 Y109.695 E13.38983
G1 X208.193 Y110.604 E13.42255
G1 X207.932 Y111.132 E13.44214
G1 X207.451 Y111.964 E13.4741
G1 X207.123 Y112.455 E13.49374
G1 X206.538 Y113.218 E13.52572
G1 X206.152 Y113.659 E13.54521
G1 X205.46 Y114.352 E13.57778
G1 X205.017 Y114.74 E13.59737
G1 X204.801 Y114.905 E13.60641
G1 X204.801 Y116.854 E13.67123
G1 X204.761 Y117.622 E13.69681
G1 X204.642 Y118.382 E13.7224
G1 X204.444 Y119.125 E13.74797
G1 X204.17 Y119.844 E13.77356
G1 X203.823 Y120.53 E13.79913
G1 X203.407 Y121.177 E13.82472
G1 X202.926 Y121.777 E13.85029
G1 X202.385 Y122.324 E13.87588
G1 X201.79 Y122.812 E13.90148
G1 X201.148 Y123.235 E13.92705
G1 X200.465 Y123.59 E13.95265
G1 X200.43 Y123.604 E13.9539
G1 X200.919 Y123.851 E13.97213
G1 X201.566 Y124.267 E13.99771
G1 X202.166 Y124.748 E14.02329
G1 X202.713 Y125.289 E14.04887
G1 X203.201 Y125.884 E14.07447
G1 X203.624 Y126.526 E14.10004
G1 X203.979 Y127.209 E14.12564
G1 X204.26 Y127.924 E14.15119
G1 X204.466 Y128.666 E14.17681
G1 X204.594 Y129.424 E14.20237
G1 X204.643 Y130.259 E14.23019
G1 X204.647 Y132.225 E14.29558
G1 X205.287 Y132.763 E14.32339
G1 X205.956 Y133.429 E14.35479
G1 X206.346 Y133.87 E14.37437
G1 X206.945 Y134.644 E14.40692
G1 X207.273 Y135.132 E14.42648
G1 X207.75 Y135.951 E14.458
G1 X208.013 Y136.477 E14.47756
G1 X208.399 Y137.401 E14.51087
G1 X208.589 Y137.959 E14.53047
G1 X208.835 Y138.866 E14.56173
G1 X208.953 Y139.445 E14.58138
G1 X209.085 Y140.418 E14.61404
G1 X209.126 Y141.017 E14.63401
G1 X209.143 Y141.522 E14.65082
G1 X209.143 Y142.273 E14.6758
G1 X209.092 Y143.31 E14.71033
G1 X208.968 Y144.276 E14.74272
G1 X208.854 Y144.855 E14.76235
G1 X208.616 Y145.758 E14.79341
G1 X208.431 Y146.315 E14.81293
G1 X208.039 Y147.266 E14.84714
G1 X207.778 Y147.793 E14.8667
G1 X207.32 Y148.591 E14.8973
G1 X206.994 Y149.084 E14.91696
G1 X206.396 Y149.869 E14.94978
G1 X206.011 Y150.31 E14.96926
G1 X205.345 Y150.98 E15.00068
G1 X204.904 Y151.371 E15.02028
G1 X204.643 Y151.573 E15.03126
G1 X204.643 Y153.523 E15.09611
G1 X204.603 Y154.291 E15.12169
G1 X204.484 Y155.051 E15.14728
G1 X204.286 Y155.794 E15.17285
G1 X204.012 Y156.513 E15.19844
G1 X203.665 Y157.199 E15.22401
G1 X203.249 Y157.846 E15.2496
G1 X202.768 Y158.446 E15.27517
G1 X202.227 Y158.993 E15.30076
G1 X201.632 Y159.481 E15.32636
G1 X200.99 Y159.904 E15.35193
G1 X200.307 Y160.259 E15.37753
G1 X199.592 Y160.54 E15.40308
G1 X198.85 Y160.746 E15.42869
G1 X198.092 Y160.874 E15.45426
G1 X197.243 Y160.923 E15.48255
G1 X162.743 Y160.923 E16.63002
G1 X161.975 Y160.883 E16.6556
G1 X161.215 Y160.764 E16.68119
G1 X160.472 Y160.566 E16.70676
G1 X159.753 Y160.292 E16.73235
G1 X159.518 Y160.173 E16.74111
G1 X157.493 Y160.173 E16.80846
G1 X156.725 Y160.133 E16.83404
G1 X155.965 Y160.014 E16.85963
G1 X155.222 Y159.816 E16.8852
G1 X154.503 Y159.542 E16.9108
G1 X153.817 Y159.195 E16.93636
G1 X153.17 Y158.779 E16.96195
G1 X152.57 Y158.298 E16.98753
G1 X152.023 Y157.757 E17.01311
G1 X151.535 Y157.162 E17.03871
G1 X151.112 Y156.52 E17.06428
G1 X151.072 Y156.444 E17.06714
G1 X150.991 Y156.964 E17.08464
G1 X150.793 Y157.707 E17.11021
G1 X150.519 Y158.426 E17.13581
G1 X150.172 Y159.112 E17.16138
G1 X149.756 Y159.759 E17.18696
G1 X149.275 Y160.359 E17.21254
G1 X148.734 Y160.906 E17.23812
G1 X148.139 Y161.394 E17.26372
G1 X147.497 Y161.817 E17.28929
G1 X146.814 Y162.172 E17.31489
G1 X146.099 Y162.453 E17.34044
G1 X145.357 Y162.659 E17.36606
G1 X144.599 Y162.787 E17.39162
G1 X143.75 Y162.836 E17.41991
G1 X109.25 Y162.836 E18.56738
G1 X108.482 Y162.796 E18.59296
G1 X107.722 Y162.677 E18.61855
G1 X106.979 Y162.479 E18.64412
G1 X106.26 Y162.205 E18.66971
G1 X106.025 Y162.086 E18.67848
G1 X104 Y162.086 E18.74583
G1 X103.232 Y162.046 E18.77141
G1 X102.472 Y161.927 E18.79699
G1 X101.729 Y161.729 E18.82257
G1 X101.01 Y161.455 E18.84816
G1 X100.324 Y161.108 E18.87373
G1 X99.677 Y160.692 E18.89931
G1 X99.077 Y160.211 E18.92489
G1 X98.53 Y159.67 E18.95048
G1 X98.042 Y159.075 E18.97607
G1 X97.824 Y158.745 E18.98923
G1 X97.631 Y159.471 E19.01421
G1 X97.357 Y160.19 E19.0398
G1 X97.01 Y160.876 E19.06537
G1 X96.594 Y161.523 E19.09096
G1 X96.113 Y162.123 E19.11653
G1 X95.572 Y162.67 E19.14212
G1 X94.977 Y163.158 E19.16772
G1 X94.335 Y163.581 E19.19329
G1 X93.652 Y163.936 E19.21889
G1 X92.937 Y164.217 E19.24444
G1 X92.195 Y164.423 E19.27005
G1 X91.437 Y164.551 E19.29562
G1 X90.588 Y164.6 E19.32391
G1 X56.088 Y164.6 E20.47138
G1 X55.32 Y164.56 E20.49696
G1 X54.56 Y164.441 E20.52254
G1 X53.817 Y164.243 E20.54812
G1 X53.098 Y163.969 E20.57371
G1 X52.863 Y163.85 E20.58247
G1 X50.838 Y163.85 E20.64982
G1 X50.07 Y163.81 E20.6754
G1 X49.31 Y163.691 E20.70099
G1 X48.567 Y163.493 E20.72656
G1 X47.848 Y163.219 E20.75215
G1 X47.162 Y162.872 E20.77772
G1 X46.515 Y162.456 E20.80331
G1 X45.915 Y161.975 E20.82888
G1 X45.368 Y161.434 E20.85447
G1 X44.88 Y160.839 E20.88007
G1 X44.457 Y160.197 E20.90564
G1 X44.265 Y159.831 E20.91939
G1 X43.665 Y159.35 E20.94496
G1 X43.118 Y158.809 E20.97055
G1 X42.63 Y158.214 E20.99615
G1 X42.207 Y157.572 E21.02172
G1 X41.852 Y156.889 E21.04732
G1 X41.571 Y156.174 E21.07287
G1 X41.365 Y155.432 E21.09848
G1 X41.237 Y154.674 E21.12405
G1 X41.188 Y153.825 E21.15234
G1 X41.188 Y137.325 E21.70113
G1 X41.228 Y136.557 E21.72671
G1 X41.347 Y135.797 E21.75229
G1 X41.545 Y135.054 E21.77787
G1 X41.819 Y134.335 E21.80346
G1 X42.166 Y133.649 E21.82903
G1 X42.582 Y133.002 E21.85461
G1 X43.063 Y132.402 E21.88019
G1 X43.604 Y131.855 E21.90578
G1 X44.199 Y131.367 E21.93137
G1 X44.264 Y131.324 E21.93396
G1 X44.832 Y130.377 E21.97069
G1 X45.313 Y129.777 E21.99627
G1 X45.854 Y129.23 E22.02186
G1 X46.449 Y128.742 E22.04745
G1 X47.091 Y128.319 E22.07302
G1 X47.774 Y127.964 E22.09863
G1 X48.489 Y127.683 E22.12418
G1 X49.231 Y127.477 E22.14979
G1 X49.989 Y127.349 E22.17536
G1 X50.838 Y127.3 E22.20364
G1 X52.859 Y127.3 E22.27086
G1 X53.739 Y126.933 E22.30257
G1 X54.481 Y126.727 E22.32819
G1 X55.239 Y126.599 E22.35375
G1 X56.088 Y126.55 E22.38204
G1 X90.588 Y126.55 E23.52951
G1 X91.356 Y126.59 E23.55509
G1 X92.116 Y126.709 E23.58068
G1 X92.859 Y126.907 E23.60625
G1 X93.578 Y127.181 E23.63184
G1 X94.264 Y127.528 E23.65741
G1 X94.911 Y127.944 E23.683
G1 X95.511 Y128.425 E23.70857
G1 X96.058 Y128.966 E23.73416
G1 X96.546 Y129.561 E23.75976
G1 X96.85 Y130.022 E23.77812
G1 X97.361 Y129.603 E23.8001
G1 X97.426 Y129.56 E23.80269
G1 X97.994 Y128.613 E23.83942
G1 X98.475 Y128.013 E23.865
G1 X99.016 Y127.466 E23.89059
G1 X99.611 Y126.978 E23.91618
G1 X100.253 Y126.555 E23.94175
G1 X100.936 Y126.2 E23.96736
G1 X101.651 Y125.919 E23.99291
G1 X102.393 Y125.713 E24.01852
G1 X103.151 Y125.585 E24.04409
G1 X104 Y125.536 E24.07237
G1 X106.021 Y125.536 E24.13959
G1 X106.901 Y125.169 E24.1713
G1 X107.643 Y124.963 E24.19692
G1 X108.401 Y124.835 E24.22248
G1 X109.25 Y124.786 E24.25077
G1 X143.75 Y124.786 E25.39824
G1 X144.518 Y124.826 E25.42382
G0 F3600 X144.475 Y125.626
G1 F1800 X145.192 Y125.745 E25.448
G1 X145.891 Y125.943 E25.47216
G1 X146.564 Y126.216 E25.49632
G1 X147.203 Y126.561 E25.52047
G1 X147.8 Y126.975 E25.54463
G1 X148.348 Y127.451 E25.56877
G1 X148.841 Y127.985 E25.59295
G1 X149.271 Y128.57 E25.6171
G1 X149.635 Y129.199 E25.64127
G1 X149.897 Y129.793 E25.66286
G1 X150.508 Y129.05 E25.69485
G1 X151.042 Y128.557 E25.71903
