;FLAVOR:Marlin
;TIME:2473
;Filament used: 1.92118m
;Layer height: 0.15
;MINX:101.449
;MINY:86.325
;MINZ:0.2
;MAXX:150.055
;MAXY:123.675
;MAXZ:20.15
;Generated with Cura_SteamEngine 4.5.0
M82 ;absolute extrusion mode
G21 ; set units to millimeters
G90 ; use absolute positioning
M82 ; absolute extrusion mode
M104 S200 ; set extruder temp
M140 S60 ; set bed temp
M190 S60 ; wait for bed temp
M109 S200 ; wait for extruder temp
G28 W ; home all without mesh bed level
G80 ; mesh bed leveling
G92 E0.0 ; reset extruder distance position
G1 Y-3.0 F1000.0 ; go outside print area
G1 X60.0 E9.0 F1000.0 ; intro line
G1 X100.0 E21.5 F1000.0 ; intro line
G92 E0.0 ; reset extruder distance position
G92 E0
G92 E0
G1 F2100 E-0.8
;LAYER_COUNT:134
;LAYER:0
M107
G0 F3600 X103.329 Y89.164 Z0.2
;TYPE:SKIRT
G1 F2100 E0
G1 F1800 X103.734 Y88.727 E0.01982
G1 X104.437 Y88.08 E0.05159
G1 X105.073 Y87.613 E0.07784
G1 X105.753 Y87.212 E0.10409
G1 X106.471 Y86.882 E0.13038
G1 X107.218 Y86.627 E0.15663
G1 X107.987 Y86.448 E0.18289
G1 X108.771 Y86.348 E0.20918
G1 X109.366 Y86.325 E0.22898
G1 X129.795 Y86.325 E0.90845
G1 X130.584 Y86.365 E0.93473
G1 X131.364 Y86.484 E0.96097
G1 X132.129 Y86.682 E0.98725
G1 X132.869 Y86.956 E1.0135
G1 X133.578 Y87.304 E1.03977
G1 X133.794 Y87.438 E1.04822
G1 X134.321 Y87.142 E1.06833
G1 X135.045 Y86.826 E1.0946
G1 X135.797 Y86.586 E1.12086
G1 X136.569 Y86.422 E1.14711
G1 X137.354 Y86.338 E1.17336
G1 X141.031 Y86.325 E1.29566
G1 X141.82 Y86.365 E1.32194
G1 X142.6 Y86.484 E1.34818
G1 X143.365 Y86.682 E1.37446
G1 X144.105 Y86.956 E1.40071
G1 X144.814 Y87.304 E1.42698
G1 X145.485 Y87.722 E1.45327
G1 X146.109 Y88.205 E1.47952
G1 X146.546 Y88.61 E1.49933
G1 X147.205 Y89.325 E1.53168
G1 X147.672 Y89.961 E1.55792
G1 X148.073 Y90.641 E1.58418
G1 X148.403 Y91.359 E1.61046
G1 X148.658 Y92.106 E1.63671
G1 X148.8 Y92.717 E1.65757
G1 X149.35 Y93.701 E1.69507
G1 X149.641 Y94.435 E1.72133
G1 X149.857 Y95.195 E1.74761
G1 X149.995 Y95.972 E1.77386
G1 X150.055 Y96.941 E1.80615
G1 X150.055 Y99.941 E1.90593
G1 X150.015 Y100.73 E1.9322
G1 X149.896 Y101.51 E1.95845
G1 X149.698 Y102.275 E1.98473
G1 X149.484 Y102.964 E2.00872
G1 X149.21 Y103.704 E2.03497
G1 X148.862 Y104.413 E2.06124
G1 X148.604 Y105.323 E2.0927
G1 X148.287 Y106.471 E2.13231
G1 X148.05 Y107.11 E2.15498
G1 X147.738 Y108.165 E2.19157
G1 X147.666 Y108.638 E2.20748
G1 X147.468 Y109.403 E2.23377
G1 X147.375 Y109.653 E2.24264
G1 X147.278 Y110.291 E2.2641
G1 X147.08 Y111.056 E2.29038
G1 X146.983 Y111.333 E2.30015
G1 X146.864 Y112.113 E2.32639
G1 X146.666 Y112.878 E2.35267
G1 X146.488 Y113.382 E2.37045
G1 X146.229 Y114.352 E2.40384
G1 X146.114 Y115.107 E2.42924
G1 X145.916 Y115.872 E2.45552
G1 X145.751 Y116.31 E2.47109
G1 X145.62 Y117.326 E2.50516
G1 X145.422 Y118.091 E2.53145
G1 X145.148 Y118.831 E2.55769
G1 X144.8 Y119.54 E2.58396
G1 X144.382 Y120.211 E2.61025
G1 X143.899 Y120.835 E2.6365
G1 X143.532 Y121.234 E2.65453
G1 X142.878 Y121.841 E2.68421
G1 X142.245 Y122.313 E2.71047
G1 X141.567 Y122.718 E2.73674
G1 X140.852 Y123.053 E2.763
G1 X140.107 Y123.313 E2.78924
G1 X139.339 Y123.497 E2.81551
G1 X138.556 Y123.603 E2.84179
G1 X137.767 Y123.629 E2.86805
G1 X136.979 Y123.575 E2.89432
G1 X136.201 Y123.441 E2.92058
G1 X135.44 Y123.23 E2.94684
G1 X134.704 Y122.942 E2.97313
G1 X134.002 Y122.582 E2.99937
G1 X133.885 Y122.506 E3.00401
G1 X133.408 Y122.788 E3.02244
G1 X132.69 Y123.118 E3.04872
G1 X131.943 Y123.373 E3.07497
G1 X131.174 Y123.552 E3.10123
G1 X130.39 Y123.652 E3.12752
G1 X129.795 Y123.675 E3.14733
G1 X109.366 Y123.675 E3.8268
G1 X108.577 Y123.635 E3.85307
G1 X107.797 Y123.516 E3.87932
G1 X107.032 Y123.318 E3.9056
G1 X106.292 Y123.044 E3.93184
G1 X105.583 Y122.696 E3.95811
G1 X104.912 Y122.278 E3.98441
G1 X104.288 Y121.795 E4.01065
G1 X103.851 Y121.39 E4.03047
G1 X103.204 Y120.687 E4.06225
G1 X102.737 Y120.051 E4.08849
G1 X102.336 Y119.371 E4.11475
G1 X102.006 Y118.653 E4.14103
G1 X101.751 Y117.906 E4.16728
G1 X101.572 Y117.137 E4.19354
G1 X101.472 Y116.353 E4.21983
G1 X101.449 Y115.758 E4.23963
G1 X101.449 Y94.242 E4.95526
G1 X101.489 Y93.453 E4.98154
G1 X101.608 Y92.673 E5.00778
G1 X101.806 Y91.908 E5.03406
G1 X102.08 Y91.168 E5.06031
G1 X102.428 Y90.459 E5.08658
G1 X102.846 Y89.788 E5.11287
G1 X103.329 Y89.164 E5.13911
G0 F3600 X103.724 Y89.319
G1 F1800 X104.133 Y88.892 E5.15878
G1 X104.705 Y88.378 E5.18436
G1 X105.327 Y87.925 E5.20995
G1 X105.992 Y87.539 E5.23552
G1 X106.694 Y87.224 E5.26112
G1 X107.425 Y86.984 E5.28671
G1 X108.176 Y86.821 E5.31227
G1 X108.941 Y86.737 E5.33786
G1 X129.795 Y86.725 E6.03147
G1 X130.563 Y86.765 E6.05705
G1 X131.323 Y86.884 E6.08263
G1 X132.066 Y87.082 E6.10821
G1 X132.785 Y87.356 E6.1338
G1 X133.471 Y87.703 E6.15937
G1 X133.795 Y87.911 E6.17218
G1 X134.697 Y87.405 E6.20657
G1 X135.412 Y87.12 E6.23217
G1 X136.152 Y86.91 E6.25776
G1 X136.909 Y86.778 E6.28332
G1 X137.796 Y86.725 E6.31287
G1 X141.031 Y86.725 E6.42047
G1 X141.799 Y86.765 E6.44605
G1 X142.559 Y86.884 E6.47163
G1 X143.302 Y87.082 E6.49721
G1 X144.021 Y87.356 E6.5228
G1 X144.707 Y87.703 E6.54837
G1 X145.354 Y88.119 E6.57395
G1 X145.954 Y88.6 E6.59953
G1 X146.393 Y89.021 E6.61976
G1 X146.907 Y89.593 E6.64534
G1 X147.36 Y90.215 E6.67093
G1 X147.746 Y90.88 E6.6965
G1 X148.061 Y91.582 E6.72209
G1 X148.301 Y92.313 E6.74768
G1 X148.421 Y92.864 E6.76644
G1 X148.711 Y93.324 E6.78453
G1 X149.051 Y94.013 E6.81008
G1 X149.318 Y94.734 E6.83565
G1 X149.509 Y95.48 E6.86127
G1 X149.622 Y96.24 E6.88682
G1 X149.655 Y96.941 E6.91016
G1 X149.655 Y99.941 E7.00994
G1 X149.615 Y100.709 E7.03552
G1 X149.496 Y101.469 E7.06111
G1 X149.298 Y102.212 E7.08668
G1 X149.084 Y102.901 E7.11068
G1 X148.81 Y103.62 E7.13627
G1 X148.463 Y104.306 E7.16184
G1 X148.204 Y105.26 E7.19472
G1 X147.887 Y106.408 E7.23433
G1 X147.681 Y106.948 E7.25355
G1 X147.348 Y108.07 E7.29248
G1 X147.266 Y108.597 E7.31022
G1 X147.068 Y109.34 E7.33579
G1 X146.987 Y109.552 E7.34334
G1 X146.878 Y110.25 E7.36684
G1 X146.68 Y110.993 E7.39241
G1 X146.583 Y111.312 E7.4035
G1 X146.464 Y112.072 E7.42909
G1 X146.266 Y112.815 E7.45466
G1 X146.046 Y113.415 E7.47592
G1 X145.835 Y114.267 E7.50511
G1 X145.714 Y115.066 E7.53199
G1 X145.516 Y115.809 E7.55756
G1 X145.354 Y116.234 E7.57269
G1 X145.22 Y117.285 E7.60793
G1 X145.022 Y118.028 E7.63351
G1 X144.748 Y118.747 E7.6591
G1 X144.401 Y119.433 E7.68467
G1 X143.985 Y120.08 E7.71025
G1 X143.248 Y120.953 E7.74825
G1 X142.608 Y121.545 E7.77725
G1 X141.989 Y122.002 E7.80284
G1 X141.326 Y122.393 E7.82844
G1 X140.627 Y122.712 E7.85399
G1 X139.898 Y122.957 E7.87957
G1 X139.147 Y123.125 E7.90517
G1 X138.383 Y123.215 E7.93076
G1 X137.614 Y123.224 E7.95633
G1 X136.848 Y123.154 E7.98192
G1 X136.094 Y123.004 E8.00749
G1 X135.359 Y122.777 E8.03307
G1 X134.651 Y122.475 E8.05867
G1 X133.979 Y122.102 E8.08424
G1 X133.886 Y122.037 E8.08801
G1 X133.169 Y122.461 E8.11572
G1 X132.467 Y122.776 E8.14131
G1 X131.736 Y123.016 E8.1669
G1 X130.985 Y123.179 E8.19246
G1 X130.22 Y123.263 E8.21805
G1 X109.366 Y123.275 E8.91166
G1 X108.598 Y123.235 E8.93724
G1 X107.838 Y123.116 E8.96283
G1 X107.095 Y122.918 E8.9884
G1 X106.376 Y122.644 E9.01399
G1 X105.69 Y122.297 E9.03956
G1 X105.043 Y121.881 E9.06514
G1 X104.443 Y121.4 E9.09072
G1 X104.016 Y120.991 E9.11039
G1 X103.502 Y120.419 E9.13597
G1 X103.049 Y119.797 E9.16156
G1 X102.663 Y119.132 E9.18713
G1 X102.348 Y118.43 E9.21272
G1 X102.108 Y117.699 E9.23831
G1 X101.945 Y116.948 E9.26387
G1 X101.861 Y116.183 E9.28947
G1 X101.849 Y94.242 E10.01923
G1 X101.889 Y93.474 E10.04481
G1 X102.008 Y92.714 E10.0704
G1 X102.206 Y91.971 E10.09597
G1 X102.48 Y91.252 E10.12156
G1 X102.827 Y90.566 E10.14713
G1 X103.243 Y89.919 E10.17271
G1 X103.724 Y89.319 E10.19829
G0 F3600 X103.641 Y90.053
G1 F1800 X104.299 Y89.292 E10.23175
G1 X104.973 Y88.675 E10.26214
G1 X105.579 Y88.238 E10.28699
G1 X106.229 Y87.867 E10.31189
G1 X106.915 Y87.568 E10.33678
G1 X107.629 Y87.344 E10.36167
G1 X108.362 Y87.197 E10.38653
G1 X109.366 Y87.125 E10.42001
G1 X129.795 Y87.125 E11.09948
G1 X130.542 Y87.165 E11.12436
G1 X131.28 Y87.284 E11.14922
G1 X132.002 Y87.482 E11.17412
G1 X132.698 Y87.755 E11.19899
G1 X133.361 Y88.102 E11.22388
G1 X133.789 Y88.387 E11.24098
G1 X134.399 Y88.005 E11.26492
G1 X135.071 Y87.677 E11.28979
G1 X135.775 Y87.423 E11.31468
G1 X136.502 Y87.246 E11.33957
G1 X137.243 Y87.147 E11.36444
G1 X137.796 Y87.125 E11.38284
G1 X141.031 Y87.125 E11.49044
G1 X141.778 Y87.165 E11.51532
G1 X142.516 Y87.284 E11.54018
G1 X143.238 Y87.482 E11.56508
G1 X143.934 Y87.755 E11.58995
G1 X144.597 Y88.102 E11.61484
G1 X145.22 Y88.517 E11.63974
G1 X145.981 Y89.175 E11.6732
G1 X146.61 Y89.861 E11.70415
G1 X147.047 Y90.467 E11.729
G1 X147.418 Y91.117 E11.7539
G1 X147.717 Y91.803 E11.77879
G1 X147.941 Y92.517 E11.80367
G1 X148.044 Y93.005 E11.82026
G1 X148.431 Y93.645 E11.84514
G1 X148.747 Y94.323 E11.87002
G1 X148.989 Y95.031 E11.8949
G1 X149.155 Y95.76 E11.91977
G1 X149.241 Y96.503 E11.94465
G1 X149.255 Y99.941 E12.059
G1 X149.215 Y100.688 E12.08388
G1 X149.096 Y101.426 E12.10874
G1 X148.898 Y102.148 E12.13364
G1 X148.684 Y102.837 E12.15764
G1 X148.411 Y103.533 E12.1825
G1 X148.047 Y104.197 E12.20769
G1 X147.804 Y105.196 E12.24189
G1 X147.487 Y106.344 E12.2815
G1 X147.31 Y106.796 E12.29764
G1 X147.175 Y107.299 E12.31496
G1 X146.96 Y107.972 E12.33846
G1 X146.866 Y108.554 E12.35807
G1 X146.668 Y109.276 E12.38297
G1 X146.597 Y109.469 E12.38981
G1 X146.478 Y110.207 E12.41467
G1 X146.28 Y110.929 E12.43957
G1 X146.19 Y111.158 E12.44776
G1 X146.064 Y112.029 E12.47703
G1 X145.743 Y113.091 E12.51393
G1 X145.438 Y114.194 E12.55199
G1 X145.314 Y115.023 E12.57987
G1 X145.116 Y115.745 E12.60477
G1 X144.958 Y116.156 E12.61942
G1 X144.939 Y116.504 E12.63101
G1 X144.82 Y117.242 E12.65587
G1 X144.622 Y117.964 E12.68077
G1 X144.349 Y118.66 E12.70564
G1 X144.002 Y119.323 E12.73053
G1 X143.587 Y119.946 E12.75543
G1 X142.963 Y120.672 E12.78727
G1 X142.338 Y121.249 E12.81556
G1 X141.734 Y121.691 E12.84045
G1 X141.087 Y122.066 E12.86532
G1 X140.403 Y122.37 E12.89022
G1 X139.691 Y122.599 E12.9151
G1 X138.959 Y122.751 E12.93996
G1 X138.214 Y122.823 E12.96486
G1 X137.466 Y122.816 E12.98974
G1 X136.723 Y122.729 E13.01462
G1 X135.994 Y122.563 E13.03948
G1 X135.286 Y122.321 E13.06437
G1 X134.608 Y122.004 E13.08926
G1 X133.968 Y121.617 E13.11414
G1 X133.878 Y121.548 E13.11791
G1 X133.582 Y121.762 E13.13006
G1 X132.932 Y122.133 E13.15495
G1 X132.246 Y122.432 E13.17984
G1 X131.532 Y122.656 E13.20473
G1 X130.799 Y122.803 E13.2296
G1 X129.795 Y122.875 E13.26307
G1 X109.366 Y122.875 E13.94255
G1 X108.619 Y122.835 E13.96743
G1 X107.881 Y122.716 E13.99229
G1 X107.159 Y122.518 E14.01719
G1 X106.463 Y122.245 E14.04206
G1 X105.8 Y121.898 E14.06695
G1 X105.177 Y121.483 E14.09184
G1 X104.416 Y120.825 E14.1253
G1 X103.799 Y120.151 E14.1557
G1 X103.362 Y119.545 E14.18054
G1 X102.991 Y118.895 E14.20544
G1 X102.692 Y118.209 E14.23033
G1 X102.468 Y117.495 E14.25522
G1 X102.321 Y116.762 E14.28008
G1 X102.249 Y115.758 E14.31356
G1 X102.249 Y94.242 E15.02919
G1 X102.289 Y93.495 E15.05407
G1 X102.408 Y92.757 E15.07893
G1 X102.606 Y92.035 E15.10383
G1 X102.879 Y91.339 E15.1287
G1 X103.226 Y90.676 E15.15358
G1 X103.641 Y90.053 E15.17848
G0 F3600 X104.038 Y90.192
G1 F1800 X104.582 Y89.575 E15.20584
G1 X105.24 Y88.974 E15.23548
G1 X105.831 Y88.551 E15.25965
G1 X106.465 Y88.197 E15.28381
G1 X107.134 Y87.914 E15.30797
G1 X107.83 Y87.706 E15.33213
G1 X108.545 Y87.576 E15.3563
G1 X109.366 Y87.525 E15.38366
G1 X129.795 Y87.525 E16.06313
G1 X130.52 Y87.565 E16.08728
G1 X131.237 Y87.684 E16.11145
G1 X131.936 Y87.882 E16.13562
G1 X132.609 Y88.155 E16.15977
G1 X133.248 Y88.5 E16.18392
G1 X133.801 Y88.883 E16.2063
G1 X134.152 Y88.622 E16.22085
G1 X134.779 Y88.255 E16.24501
G1 X135.442 Y87.959 E16.26916
G1 X136.134 Y87.738 E16.29332
G1 X136.846 Y87.594 E16.31748
G1 X137.796 Y87.525 E16.34916
G1 X141.031 Y87.525 E16.45676
G1 X141.756 Y87.565 E16.48091
G1 X142.473 Y87.684 E16.50508
G1 X143.172 Y87.882 E16.52924
G1 X143.845 Y88.155 E16.5534
G1 X144.484 Y88.5 E16.57755
G1 X145.081 Y88.914 E16.60172
G1 X145.698 Y89.458 E16.62908
G1 X146.311 Y90.128 E16.65928
G1 X146.734 Y90.719 E16.68345
G1 X147.088 Y91.353 E16.7076
G1 X147.371 Y92.022 E16.73176
G1 X147.579 Y92.718 E16.75592
G1 X147.661 Y93.169 E16.77117
G1 X148.146 Y93.964 E16.80214
G1 X148.437 Y94.63 E16.82632
G1 X148.654 Y95.323 E16.85047
G1 X148.793 Y96.036 E16.87463
G1 X148.855 Y96.941 E16.9048
G1 X148.855 Y99.941 E17.00458
G1 X148.815 Y100.666 E17.02873
G1 X148.696 Y101.383 E17.05291
G1 X148.498 Y102.082 E17.07707
G1 X148.284 Y102.771 E17.10107
G1 X148.011 Y103.444 E17.12522
G1 X147.662 Y104.072 E17.14912
G1 X147.602 Y104.431 E17.16122
G1 X147.404 Y105.13 E17.18539
G1 X147.087 Y106.278 E17.225
G1 X146.939 Y106.642 E17.23807
G1 X146.794 Y107.177 E17.25651
G1 X146.572 Y107.871 E17.28074
G1 X146.466 Y108.511 E17.30232
G1 X146.268 Y109.21 E17.32648
G1 X146.197 Y109.447 E17.33471
G1 X146.078 Y110.164 E17.35888
G1 X145.88 Y110.863 E17.38305
G1 X145.794 Y111.076 E17.39069
G1 X145.664 Y111.986 E17.42126
G1 X145.371 Y112.945 E17.45461
G1 X145.267 Y113.212 E17.46414
G1 X145.041 Y114.119 E17.49523
G1 X144.914 Y114.98 E17.52418
G1 X144.716 Y115.679 E17.54834
G1 X144.562 Y116.074 E17.56244
G1 X144.539 Y116.482 E17.57603
G1 X144.42 Y117.199 E17.60021
G1 X144.222 Y117.898 E17.62437
G1 X143.949 Y118.571 E17.64853
G1 X143.604 Y119.21 E17.67268
G1 X143.19 Y119.807 E17.69684
G1 X142.678 Y120.392 E17.7227
G1 X142.068 Y120.953 E17.75027
G1 X141.48 Y121.379 E17.77442
G1 X140.849 Y121.738 E17.79856
G1 X140.182 Y122.026 E17.82273
G1 X139.487 Y122.238 E17.84689
G1 X138.773 Y122.373 E17.87106
G1 X138.049 Y122.428 E17.89521
G1 X137.323 Y122.404 E17.91937
G1 X136.604 Y122.3 E17.94353
G1 X135.901 Y122.118 E17.96769
G1 X135.222 Y121.859 E17.99186
G1 X134.576 Y121.528 E18.016
G1 X133.97 Y121.127 E18.04017
G1 X133.882 Y121.054 E18.04397
G1 X133.33 Y121.449 E18.06655
G1 X132.696 Y121.803 E18.0907
G1 X132.027 Y122.086 E18.11486
G1 X131.331 Y122.294 E18.13902
G1 X130.616 Y122.424 E18.16319
G1 X129.795 Y122.475 E18.19055
G1 X109.366 Y122.475 E18.87002
G1 X108.641 Y122.435 E18.89417
G1 X107.924 Y122.316 E18.91835
G1 X107.225 Y122.118 E18.94251
G1 X106.552 Y121.845 E18.96666
G1 X105.913 Y121.5 E18.99082
G1 X105.316 Y121.086 E19.01498
G1 X104.699 Y120.542 E19.04234
G1 X104.098 Y119.884 E19.07198
G1 X103.675 Y119.293 E19.09615
G1 X103.321 Y118.659 E19.1203
G1 X103.038 Y117.99 E19.14446
G1 X102.83 Y117.294 E19.16862
G1 X102.7 Y116.579 E19.1928
G1 X102.649 Y115.758 E19.22015
G1 X102.649 Y94.242 E19.93578
G1 X102.689 Y93.517 E19.95993
G1 X102.808 Y92.8 E19.9841
G1 X103.006 Y92.101 E20.00827
G1 X103.279 Y91.428 E20.03242
G1 X103.624 Y90.789 E20.05658
G1 X104.038 Y90.192 E20.08074
G0 F3600 X104.434 Y90.336
G1 F1800 X104.865 Y89.858 E20.10215
G1 X105.507 Y89.272 E20.13106
G1 X106.082 Y88.866 E20.15447
G1 X106.7 Y88.528 E20.1779
G1 X107.351 Y88.261 E20.2013
G1 X108.029 Y88.071 E20.22472
G1 X108.724 Y87.958 E20.24814
G1 X109.366 Y87.925 E20.26952
G1 X129.795 Y87.925 E20.94899
G1 X130.498 Y87.965 E20.97241
G1 X131.192 Y88.084 E20.99583
G1 X131.867 Y88.282 E21.01923
G1 X132.516 Y88.554 E21.04263
G1 X133.13 Y88.899 E21.06606
G1 X133.701 Y89.31 E21.08946
G1 X133.797 Y89.398 E21.09379
G1 X134.537 Y88.851 E21.12439
G1 X135.156 Y88.515 E21.14782
G1 X135.809 Y88.252 E21.17123
G1 X136.488 Y88.065 E21.19466
G1 X137.183 Y87.955 E21.21806
G1 X137.796 Y87.925 E21.23847
G1 X141.031 Y87.925 E21.34607
G1 X141.734 Y87.965 E21.36949
G1 X142.428 Y88.084 E21.39291
G1 X143.103 Y88.282 E21.41631
G1 X143.752 Y88.554 E21.43971
G1 X144.366 Y88.899 E21.46314
G1 X144.937 Y89.31 E21.48654
G1 X145.415 Y89.741 E21.50794
G1 X146.013 Y90.395 E21.53742
G1 X146.419 Y90.97 E21.56083
G1 X146.757 Y91.588 E21.58426
G1 X147.024 Y92.239 E21.60766
G1 X147.214 Y92.917 E21.63108
G1 X147.281 Y93.327 E21.6449
G1 X147.518 Y93.663 E21.65857
G1 X147.855 Y94.281 E21.68198
G1 X148.121 Y94.933 E21.70541
G1 X148.311 Y95.611 E21.72882
G1 X148.422 Y96.306 E21.75223
G1 X148.455 Y96.941 E21.77338
G1 X148.455 Y99.941 E21.87316
G1 X148.415 Y100.644 E21.89658
G1 X148.296 Y101.338 E21.92
G1 X148.098 Y102.013 E21.9434
