;FLAVOR:Marlin
;TIME:107
;Filament used: 0.0594435m
;Layer height: 0.15
;MINX:117.151
;MINY:96.817
;MINZ:0.2
;MAXX:153.912
;MAXY:118.72
;MAXZ:2.15
;Generated with Cura_SteamEngine 4.5.0
M82 ;absolute extrusion mode
G21 ; set units to millimeters
G90 ; use absolute positioning
M82 ; absolute extrusion mode
M104 S200 ; set extruder temp
M140 S60 ; set bed temp
M190 S60 ; wait for bed temp
M109 S200 ; wait for extruder temp
G28 W ; home all without mesh bed level
G80 ; mesh bed leveling
G92 E0.0 ; reset extruder distance position
G1 Y-3.0 F1000.0 ; go outside print area
G1 X60.0 E9.0 F1000.0 ; intro line
G1 X100.0 E21.5 F1000.0 ; intro line
G92 E0.0 ; reset extruder distance position
G92 E0
G92 E0
G1 F2100 E-0.8
;LAYER_COUNT:14
;LAYER:0
M107
G0 F3600 X118.966 Y99.892 Z0.2
;TYPE:SKIRT
G1 F2100 E0
G1 F1800 X119.483 Y99.296 E0.02624
G1 X120.059 Y98.755 E0.05252
G1 X120.686 Y98.275 E0.07879
G1 X121.353 Y97.864 E0.10485
G1 X122.217 Y97.435 E0.13693
G1 X122.959 Y97.164 E0.1632
G1 X123.724 Y96.97 E0.18945
G1 X124.505 Y96.854 E0.21571
G1 X125.294 Y96.817 E0.24199
G1 X126.082 Y96.86 E0.26823
G1 X126.862 Y96.983 E0.2945
G1 X127.69 Y97.205 E0.32301
G1 X128.181 Y97.366 E0.3402
G1 X128.918 Y97.65 E0.36647
G1 X129.623 Y98.007 E0.39275
G1 X130.288 Y98.433 E0.41902
G1 X130.906 Y98.924 E0.44527
G1 X131.398 Y99.404 E0.46813
G1 X131.768 Y99.296 E0.48095
G1 X132.544 Y99.151 E0.50721
G1 X133.331 Y99.086 E0.53347
G1 X134.121 Y99.101 E0.55975
G1 X134.905 Y99.195 E0.58601
G1 X135.834 Y99.415 E0.61777
G1 X136.357 Y99.561 E0.63583
G1 X137.138 Y99.681 E0.66211
G1 X137.71 Y99.822 E0.6817
G1 X139.012 Y100.195 E0.72675
G1 X141.028 Y100.802 E0.79678
G1 X141.84 Y100.922 E0.82408
G1 X142.433 Y101.066 E0.84437
G1 X143.697 Y101.428 E0.8881
G1 X145.704 Y102.033 E0.95782
G1 X146.57 Y102.163 E0.98695
G1 X147.094 Y102.293 E1.00491
G1 X148.18 Y102.604 E1.04248
G1 X148.928 Y102.86 E1.06877
G1 X149.645 Y103.19 E1.09503
G1 X150.326 Y103.59 E1.12129
G1 X150.962 Y104.058 E1.14756
G1 X151.548 Y104.587 E1.17381
G1 X152.078 Y105.173 E1.20009
G1 X152.545 Y105.81 E1.22636
G1 X152.826 Y106.27 E1.24429
G1 X153.258 Y107.116 E1.27589
G1 X153.537 Y107.855 E1.30216
G1 X153.741 Y108.618 E1.32843
G1 X153.866 Y109.398 E1.3547
G1 X153.912 Y110.186 E1.38096
G1 X153.878 Y110.975 E1.40722
G1 X153.701 Y112.046 E1.44333
G1 X153.572 Y112.558 E1.46089
G1 X153.208 Y113.704 E1.50088
G1 X152.882 Y114.423 E1.52714
G1 X152.484 Y115.106 E1.55343
G1 X152.02 Y115.744 E1.57967
G1 X151.493 Y116.333 E1.60596
G1 X150.91 Y116.865 E1.63221
G1 X149.994 Y117.514 E1.66955
G1 X149.161 Y117.972 E1.70116
G1 X148.432 Y118.274 E1.72741
G1 X147.676 Y118.501 E1.75366
G1 X146.9 Y118.65 E1.77994
G1 X146.113 Y118.72 E1.80622
G1 X145.324 Y118.711 E1.83247
G1 X144.539 Y118.621 E1.85875
G1 X144.048 Y118.523 E1.8754
G1 X142.665 Y118.193 E1.92269
G1 X141.907 Y117.969 E1.94898
G1 X141.359 Y117.744 E1.96868
G1 X139.083 Y117.219 E2.04637
G1 X138.166 Y116.999 E2.07773
G1 X137.408 Y116.775 E2.10402
G1 X136.863 Y116.553 E2.1236
G1 X134.153 Y115.927 E2.2161
G1 X133.536 Y115.778 E2.23722
G1 X132.778 Y115.555 E2.2635
G1 X132.231 Y115.33 E2.28317
G1 X131.643 Y115.195 E2.30323
G1 X130.883 Y114.979 E2.32951
G1 X130.149 Y114.687 E2.35579
G1 X129.448 Y114.323 E2.38206
G1 X128.788 Y113.89 E2.40831
G1 X128.175 Y113.392 E2.43458
G1 X127.797 Y113.016 E2.45231
G1 X126.779 Y113.259 E2.48712
G1 X125.994 Y113.343 E2.51338
G1 X125.204 Y113.348 E2.53966
G1 X124.122 Y113.224 E2.57588
G1 X123.612 Y113.129 E2.59314
G1 X122.844 Y112.945 E2.6194
G1 X122.098 Y112.685 E2.64568
G1 X121.383 Y112.35 E2.67194
G1 X120.705 Y111.945 E2.69821
G1 X120.071 Y111.474 E2.72448
G1 X119.489 Y110.941 E2.75072
G1 X118.963 Y110.351 E2.77701
G1 X118.463 Y109.654 E2.80554
G1 X117.978 Y108.819 E2.83766
G1 X117.659 Y108.096 E2.86395
G1 X117.415 Y107.345 E2.89021
G1 X117.248 Y106.574 E2.91645
G1 X117.16 Y105.789 E2.94272
G1 X117.151 Y104.999 E2.969
G1 X117.223 Y104.213 E2.99525
G1 X117.406 Y103.313 E3.0258
G1 X117.568 Y102.702 E3.04682
G1 X117.808 Y101.95 E3.07307
G1 X118.124 Y101.226 E3.09935
G1 X118.511 Y100.538 E3.1256
G1 X118.966 Y99.892 E3.15188
G0 F3600 X119.33 Y100.076
G1 F1800 X119.842 Y99.501 E3.17749
G1 X120.41 Y98.983 E3.20306
G1 X121.029 Y98.526 E3.22865
G1 X121.546 Y98.214 E3.24873
G1 X122.391 Y97.796 E3.28009
G1 X123.115 Y97.535 E3.30569
G1 X123.862 Y97.35 E3.33128
G1 X124.623 Y97.244 E3.35684
G1 X125.392 Y97.218 E3.38243
G1 X126.159 Y97.272 E3.408
G1 X126.917 Y97.405 E3.4336
G1 X127.566 Y97.585 E3.456
G1 X128.057 Y97.746 E3.47319
G1 X128.774 Y98.024 E3.49876
G1 X129.459 Y98.374 E3.52435
G1 X130.104 Y98.793 E3.54993
G1 X130.701 Y99.278 E3.57551
G1 X131.245 Y99.821 E3.60108
G1 X131.272 Y99.855 E3.60252
G1 X132.076 Y99.637 E3.63023
G1 X132.836 Y99.52 E3.6558
G1 X133.604 Y99.482 E3.68138
G1 X134.372 Y99.524 E3.70696
G1 X135.131 Y99.646 E3.73253
G1 X135.719 Y99.798 E3.75273
G1 X136.245 Y99.957 E3.77101
G1 X137.116 Y100.085 E3.80029
G1 X138.902 Y100.579 E3.86192
G1 X140.963 Y101.201 E3.93352
G1 X141.819 Y101.326 E3.9623
G1 X142.322 Y101.451 E3.97953
G1 X143.586 Y101.813 E4.02327
G1 X145.637 Y102.431 E4.09451
G1 X146.545 Y102.567 E4.12505
G1 X148.07 Y102.989 E4.17768
G1 X148.798 Y103.239 E4.20328
G1 X149.495 Y103.563 E4.22884
G1 X150.155 Y103.958 E4.25443
G1 X150.771 Y104.419 E4.28002
G1 X151.335 Y104.941 E4.30558
G1 X151.843 Y105.519 E4.33117
G1 X152.478 Y106.466 E4.36909
G1 X152.899 Y107.295 E4.40002
G1 X153.169 Y108.015 E4.42559
G1 X153.362 Y108.76 E4.45119
G1 X153.477 Y109.52 E4.47676
G1 X153.512 Y110.289 E4.50236
G1 X153.467 Y111.057 E4.52795
G1 X153.312 Y111.954 E4.55822
G1 X153.187 Y112.45 E4.57524
G1 X152.829 Y113.576 E4.61453
G1 X152.508 Y114.275 E4.64012
G1 X152.116 Y114.937 E4.66571
G1 X151.658 Y115.555 E4.69129
G1 X151.138 Y116.122 E4.71688
G1 X150.562 Y116.631 E4.74244
G1 X149.786 Y117.172 E4.77391
G1 X148.972 Y117.619 E4.80479
G1 X148.26 Y117.91 E4.83038
G1 X147.522 Y118.126 E4.85595
G1 X146.765 Y118.265 E4.88155
G1 X145.998 Y118.324 E4.90714
G1 X145.229 Y118.303 E4.93272
G1 X144.138 Y118.134 E4.96944
G1 X142.758 Y117.804 E5.01664
G1 X142.021 Y117.585 E5.04221
G1 X141.484 Y117.362 E5.06155
G1 X139.173 Y116.829 E5.14043
G1 X138.259 Y116.61 E5.17169
G1 X137.522 Y116.391 E5.19726
G1 X136.992 Y116.172 E5.21634
G1 X134.243 Y115.537 E5.31018
G1 X133.63 Y115.39 E5.33114
G1 X132.892 Y115.171 E5.35675
G1 X132.357 Y114.949 E5.37601
G1 X131.732 Y114.805 E5.39734
G1 X130.993 Y114.594 E5.42291
G1 X130.279 Y114.307 E5.4485
G1 X129.599 Y113.947 E5.47409
G1 X128.96 Y113.52 E5.49965
G1 X128.368 Y113.028 E5.52525
G1 X127.912 Y112.56 E5.54699
G1 X127.391 Y112.723 E5.56514
G1 X126.637 Y112.876 E5.59073
G1 X125.871 Y112.949 E5.61633
G1 X125.102 Y112.942 E5.6419
G1 X124.195 Y112.831 E5.6723
G1 X123.685 Y112.736 E5.68955
G1 X122.937 Y112.556 E5.71514
G1 X122.212 Y112.299 E5.74072
G1 X121.517 Y111.969 E5.76631
G1 X120.861 Y111.568 E5.79189
G1 X120.25 Y111.101 E5.81746
G1 X119.69 Y110.574 E5.84304
G1 X119.188 Y109.991 E5.86863
G1 X118.8 Y109.439 E5.89107
G1 X118.326 Y108.621 E5.92251
G1 X118.018 Y107.916 E5.9481
G1 X117.785 Y107.183 E5.97368
G1 X117.63 Y106.43 E5.99925
G1 X117.553 Y105.665 E6.02483
G1 X117.557 Y104.895 E6.05044
G1 X117.64 Y104.131 E6.076
G1 X117.792 Y103.415 E6.10034
G1 X117.954 Y102.804 E6.12137
G1 X118.19 Y102.072 E6.14695
G1 X118.5 Y101.368 E6.17253
G1 X118.881 Y100.701 E6.19808
G1 X119.33 Y100.076 E6.22368
G0 F3600 X119.694 Y100.262
G1 F1800 X120.199 Y99.71 E6.24856
G1 X120.759 Y99.215 E6.27342
G1 X121.37 Y98.782 E6.29833
G1 X121.891 Y98.481 E6.31834
G1 X122.565 Y98.156 E6.34323
G1 X123.27 Y97.906 E6.36811
G1 X123.998 Y97.732 E6.393
G1 X124.74 Y97.636 E6.41789
G1 X125.487 Y97.621 E6.44274
G1 X126.233 Y97.685 E6.46764
G1 X126.967 Y97.828 E6.49251
G1 X127.932 Y98.126 E6.5261
G1 X128.629 Y98.397 E6.55098
G1 X129.294 Y98.741 E6.57588
G1 X129.918 Y99.153 E6.60075
G1 X130.494 Y99.63 E6.62562
G1 X131.017 Y100.166 E6.65053
G1 X131.145 Y100.328 E6.6574
G1 X131.65 Y100.154 E6.67516
G1 X132.379 Y99.986 E6.70004
G1 X133.121 Y99.897 E6.7249
G1 X133.869 Y99.888 E6.74978
G1 X134.614 Y99.959 E6.77467
G1 X135.603 Y100.18 E6.80838
G1 X136.182 Y100.355 E6.8285
G1 X137.092 Y100.489 E6.85909
G1 X138.792 Y100.964 E6.9178
G1 X140.897 Y101.599 E6.99093
G1 X141.796 Y101.73 E7.02114
G1 X143.476 Y102.198 E7.07915
G1 X145.57 Y102.828 E7.15188
G1 X146.874 Y103.063 E7.19595
G1 X147.96 Y103.374 E7.23352
G1 X148.667 Y103.618 E7.2584
G1 X149.344 Y103.936 E7.28327
G1 X149.984 Y104.324 E7.30817
G1 X150.578 Y104.779 E7.33305
G1 X151.12 Y105.294 E7.35792
G1 X151.604 Y105.865 E7.38282
G1 X152.129 Y106.663 E7.41459
G1 X152.541 Y107.473 E7.44481
G1 X152.8 Y108.175 E7.4697
G1 X152.982 Y108.9 E7.49456
G1 X153.086 Y109.641 E7.51945
G1 X153.11 Y110.389 E7.54434
G1 X153.055 Y111.135 E7.56922
G1 X152.922 Y111.861 E7.59377
G1 X152.69 Y112.739 E7.62397
G1 X152.449 Y113.447 E7.64885
G1 X152.134 Y114.126 E7.67374
G1 X151.749 Y114.767 E7.69861
G1 X151.297 Y115.363 E7.72349
G1 X150.784 Y115.908 E7.74838
G1 X150.216 Y116.394 E7.77325
G1 X149.579 Y116.83 E7.79892
G1 X148.783 Y117.266 E7.82911
G1 X148.089 Y117.546 E7.854
G1 X147.37 Y117.751 E7.87887
G1 X146.632 Y117.878 E7.90377
G1 X145.886 Y117.926 E7.92864
G1 X145.138 Y117.893 E7.95354
G1 X144.229 Y117.744 E7.98418
G1 X142.852 Y117.416 E8.03126
G1 X142.136 Y117.201 E8.05612
G1 X141.616 Y116.983 E8.07488
G1 X139.263 Y116.44 E8.15519
G1 X138.353 Y116.221 E8.18632
G1 X137.636 Y116.007 E8.21121
G1 X137.124 Y115.792 E8.22968
G1 X134.333 Y115.148 E8.32495
G1 X133.723 Y115.001 E8.34582
G1 X133.007 Y114.787 E8.37067
G1 X132.484 Y114.567 E8.38954
G1 X131.822 Y114.415 E8.41214
G1 X131.103 Y114.208 E8.43702
G1 X130.41 Y113.926 E8.46191
G1 X129.751 Y113.572 E8.48679
G1 X129.134 Y113.15 E8.51165
G1 X128.565 Y112.664 E8.53654
G1 X128.052 Y112.12 E8.56141
G1 X128.034 Y112.096 E8.56241
G1 X127.231 Y112.351 E8.59043
G1 X126.497 Y112.492 E8.61529
G1 X125.751 Y112.553 E8.64018
G1 X125.003 Y112.535 E8.66507
G1 X124.268 Y112.438 E8.68973
G1 X123.758 Y112.343 E8.70698
G1 X123.031 Y112.167 E8.73186
G1 X122.327 Y111.914 E8.75674
G1 X121.654 Y111.588 E8.78161
G1 X121.019 Y111.191 E8.80652
G1 X120.431 Y110.729 E8.83139
G1 X119.895 Y110.207 E8.85628
G1 X119.418 Y109.631 E8.88115
G1 X119.043 Y109.075 E8.90346
G1 X118.675 Y108.424 E8.92833
G1 X118.378 Y107.737 E8.95322
G1 X118.157 Y107.022 E8.97811
G1 X118.013 Y106.288 E9.00299
G1 X117.949 Y105.543 E9.02786
G1 X117.964 Y104.795 E9.05274
G1 X118.059 Y104.053 E9.07763
G1 X118.179 Y103.518 E9.09586
G1 X118.341 Y102.907 E9.11689
G1 X118.571 Y102.195 E9.14177
G1 X118.876 Y101.512 E9.16665
G1 X119.251 Y100.865 E9.19152
G1 X119.694 Y100.262 E9.21641
G0 F3600 X120.057 Y100.451
G1 F1800 X120.555 Y99.922 E9.24057
G1 X121.108 Y99.451 E9.26473
G1 X121.931 Y98.916 E9.29738
G1 X122.739 Y98.518 E9.32734
G1 X123.424 Y98.277 E9.35149
G1 X124.132 Y98.114 E9.37566
G1 X124.853 Y98.03 E9.3998
G1 X125.58 Y98.025 E9.42398
G1 X126.302 Y98.1 E9.44812
G1 X127.316 Y98.346 E9.48283
G1 X127.807 Y98.507 E9.50001
G1 X128.484 Y98.771 E9.52418
G1 X129.128 Y99.107 E9.54834
G1 X129.73 Y99.513 E9.57249
G1 X130.285 Y99.982 E9.59666
G1 X130.785 Y100.509 E9.62082
G1 X131.014 Y100.812 E9.63345
G1 X131.963 Y100.483 E9.66686
G1 X132.676 Y100.344 E9.69102
G1 X133.4 Y100.284 E9.71518
G1 X134.126 Y100.305 E9.73934
G1 X134.846 Y100.404 E9.76351
G1 X135.488 Y100.563 E9.78551
G1 X136.113 Y100.752 E9.80723
G1 X136.351 Y100.767 E9.81516
G1 X137.38 Y100.975 E9.85008
G1 X138.682 Y101.348 E9.89512
G1 X140.828 Y101.996 E9.96968
G1 X141.056 Y102.01 E9.97728
G1 X142.102 Y102.22 E10.01277
G1 X143.366 Y102.582 E10.0565
G1 X145.5 Y103.225 E10.13063
G1 X145.776 Y103.244 E10.13983
G1 X146.764 Y103.447 E10.17337
G1 X147.85 Y103.758 E10.21095
G1 X148.536 Y103.996 E10.2351
G1 X149.192 Y104.308 E10.25926
G1 X149.81 Y104.69 E10.28342
G1 X150.382 Y105.138 E10.30759
G1 X150.901 Y105.646 E10.33174
G1 X151.361 Y106.208 E10.3559
G1 X151.781 Y106.859 E10.38167
G1 X152.182 Y107.651 E10.41119
G1 X152.43 Y108.333 E10.43533
G1 X152.601 Y109.039 E10.45949
G1 X152.694 Y109.76 E10.48367
G1 X152.708 Y110.486 E10.50782
G1 X152.641 Y111.209 E10.53197
G1 X152.533 Y111.769 E10.55094
G1 X152.305 Y112.631 E10.5806
G1 X152.07 Y113.318 E10.60474
G1 X151.761 Y113.975 E10.62889
G1 X151.382 Y114.595 E10.65306
G1 X150.937 Y115.169 E10.67722
G1 X150.431 Y115.69 E10.70137
G1 X149.871 Y116.153 E10.72554
G1 X149.372 Y116.488 E10.74553
G1 X148.594 Y116.912 E10.775
G1 X147.919 Y117.182 E10.79918
G1 X147.219 Y117.375 E10.82333
G1 X146.502 Y117.49 E10.84748
G1 X145.776 Y117.526 E10.87166
G1 X145.051 Y117.482 E10.89582
G1 X144.32 Y117.354 E10.9205
G1 X142.946 Y117.027 E10.96748
G1 X142.251 Y116.818 E10.99162
G1 X141.744 Y116.602 E11.00995
G1 X139.353 Y116.05 E11.09156
G1 X138.446 Y115.832 E11.12259
G1 X137.751 Y115.623 E11.14673
G1 X137.249 Y115.41 E11.16486
G1 X134.423 Y114.758 E11.26133
G1 X133.817 Y114.612 E11.28206
G1 X133.121 Y114.403 E11.30623
G1 X132.609 Y114.185 E11.32474
G1 X131.912 Y114.025 E11.34852
G1 X131.214 Y113.824 E11.37268
G1 X130.542 Y113.547 E11.39686
G1 X129.905 Y113.197 E11.42103
G1 X129.31 Y112.78 E11.4452
G1 X128.765 Y112.301 E11.46933
G1 X128.276 Y111.764 E11.49349
G1 X128.162 Y111.607 E11.49994
G1 X127.77 Y111.771 E11.51407
G1 X127.074 Y111.978 E11.53822
G1 X126.359 Y112.106 E11.56238
G1 X125.634 Y112.155 E11.58655
G1 X124.909 Y112.125 E11.61069
G1 X124.341 Y112.044 E11.62977
G1 X123.831 Y111.949 E11.64702
G1 X123.126 Y111.777 E11.67116
G1 X122.443 Y111.529 E11.69533
G1 X121.792 Y111.207 E11.71948
G1 X121.18 Y110.815 E11.74366
G1 X120.616 Y110.358 E11.7678
G1 X120.104 Y109.842 E11.79198
G1 X119.475 Y109.009 E11.82669
G1 X119.024 Y108.227 E11.85672
G1 X118.739 Y107.559 E11.88087
G1 X118.53 Y106.863 E11.90505
G1 X118.398 Y106.149 E11.9292
G1 X118.346 Y105.424 E11.95337
G1 X118.374 Y104.699 E11.9775
G1 X118.481 Y103.98 E12.00168
G1 X118.727 Y103.01 E12.03496
G1 X118.952 Y102.319 E12.05913
G1 X119.251 Y101.657 E12.08329
G1 X119.621 Y101.032 E12.10745
G1 X120.057 Y100.451 E12.13161
G0 F3600 X120.42 Y100.643
G1 F1800 X120.91 Y100.138 E12.15501
G1 X121.454 Y99.691 E12.17843
G1 X122.123 Y99.266 E12.20479
G1 X122.912 Y98.879 E12.23402
G1 X123.577 Y98.65 E12.25742
G1 X124.264 Y98.497 E12.28083
G1 X124.965 Y98.424 E12.30427
G1 X125.669 Y98.43 E12.32768
G1 X126.367 Y98.517 E12.35108
G1 X127.192 Y98.726 E12.37938
G1 X127.683 Y98.887 E12.39657
G1 X128.338 Y99.144 E12.41997
G1 X128.96 Y99.473 E12.44338
G1 X129.541 Y99.871 E12.4668
G1 X130.073 Y100.333 E12.49024
G1 X130.549 Y100.851 E12.51363
G1 X130.88 Y101.305 E12.53232
G1 X131.594 Y101.009 E12.55803
G1 X132.273 Y100.822 E12.58145
G1 X132.968 Y100.712 E12.60486
G1 X133.671 Y100.683 E12.62826
G1 X134.374 Y100.733 E12.6517
G1 X135.372 Y100.946 E12.68564
G1 X136.045 Y101.149 E12.70902
G1 X136.346 Y101.17 E12.71906
G1 X137.27 Y101.36 E12.75043
G1 X138.572 Y101.733 E12.79548
G1 X140.763 Y102.393 E12.87159
G1 X141.052 Y102.413 E12.88122
G1 X141.992 Y102.605 E12.91313
G1 X143.256 Y102.967 E12.95686
G1 X145.427 Y103.621 E13.03227
G1 X145.769 Y103.647 E13.04368
G1 X146.654 Y103.832 E13.07375
G1 X147.74 Y104.143 E13.11133
G1 X148.405 Y104.375 E13.13475
G1 X149.039 Y104.68 E13.15815
G1 X149.634 Y105.056 E13.18156
G1 X150.183 Y105.497 E13.20498
G1 X150.678 Y105.997 E13.22838
G1 X151.114 Y106.55 E13.25181
G1 X151.433 Y107.056 E13.2717
G1 X151.822 Y107.828 E13.30045
G1 X152.059 Y108.491 E13.32387
G1 X152.22 Y109.176 E13.34728
G1 X152.301 Y109.875 E13.37068
G1 X152.303 Y110.579 E13.3941
G1 X152.225 Y111.279 E13.41752
G1 X152.096 Y111.878 E13.4379
G1 X151.92 Y112.522 E13.46011
G1 X151.691 Y113.188 E13.48353
G1 X151.388 Y113.824 E13.50696
G1 X151.016 Y114.421 E13.53036
G1 X150.577 Y114.972 E13.55379
G1 X150.079 Y115.47 E13.57721
G1 X149.528 Y115.908 E13.60062
G1 X149.028 Y116.229 E13.62039
G1 X148.406 Y116.559 E13.64381
G1 X147.751 Y116.816 E13.66721
G1 X147.07 Y116.998 E13.69065
G1 X146.374 Y117.101 E13.71405
G1 X145.67 Y117.124 E13.73748
G1 X144.969 Y117.068 E13.76087
G1 X144.41 Y116.965 E13.77978
G1 X143.04 Y116.638 E13.82662
G1 X142.366 Y116.434 E13.85005
G1 X141.873 Y116.221 E13.86791
G1 X139.443 Y115.66 E13.95086
G1 X138.54 Y115.443 E13.98174
