;FLAVOR:Marlin
;TIME:1166
;Filament used: 0.810485m
;Layer height: 0.15
;MINX:93.95
;MINY:85.575
;MINZ:0.2
;MAXX:156.05
;MAXY:124.425
;MAXZ:5.15
;Generated with Cura_SteamEngine 4.5.0
M82 ;absolute extrusion mode
G21 ; set units to millimeters
G90 ; use absolute positioning
M82 ; absolute extrusion mode
M104 S200 ; set extruder temp
M140 S60 ; set bed temp
M190 S60 ; wait for bed temp
M109 S200 ; wait for extruder temp
G28 W ; home all without mesh bed level
G80 ; mesh bed leveling
G92 E0.0 ; reset extruder distance position
G1 Y-3.0 F1000.0 ; go outside print area
G1 X60.0 E9.0 F1000.0 ; intro line
G1 X100.0 E21.5 F1000.0 ; intro line
G92 E0.0 ; reset extruder distance position
G92 E0
G92 E0
G1 F2100 E-0.8
;LAYER_COUNT:34
;LAYER:0
M107
G0 F3600 X98.08 Y89.047 Z0.2
;TYPE:SKIRT
G1 F2100 E0
G1 F1800 X98.623 Y88.474 E0.02626
G1 X99.222 Y87.959 E0.05253
G1 X99.87 Y87.508 E0.07879
G1 X100.561 Y87.124 E0.10508
G1 X101.286 Y86.812 E0.13133
G1 X102.039 Y86.575 E0.15759
G1 X102.813 Y86.416 E0.18387
G1 X103.598 Y86.335 E0.21012
G1 X105.925 Y86.325 E0.28752
G1 X106.536 Y86.062 E0.30964
G1 X107.289 Y85.825 E0.3359
G1 X108.063 Y85.666 E0.36218
G1 X108.848 Y85.585 E0.38842
G1 X143.75 Y85.575 E1.54927
G1 X144.539 Y85.615 E1.57555
G1 X145.319 Y85.734 E1.60179
G1 X146.084 Y85.932 E1.62807
G1 X146.824 Y86.206 E1.65432
G1 X147.533 Y86.554 E1.68059
G1 X148.204 Y86.972 E1.70688
G1 X148.828 Y87.455 E1.73313
G1 X149.401 Y87.998 E1.75938
G1 X149.916 Y88.597 E1.78566
G1 X150.367 Y89.245 E1.81191
G1 X150.751 Y89.936 E1.83821
G1 X151.063 Y90.661 E1.86446
G1 X151.3 Y91.414 E1.89071
G1 X151.459 Y92.188 E1.917
G1 X151.55 Y93.36 E1.95609
G1 X151.553 Y95.129 E2.01493
G1 X152.043 Y95.55 E2.03642
G1 X152.769 Y96.271 E2.07045
G1 X153.159 Y96.713 E2.09005
G1 X153.784 Y97.523 E2.12408
G1 X154.112 Y98.011 E2.14364
G1 X154.62 Y98.884 E2.17723
G1 X154.882 Y99.41 E2.19678
G1 X155.28 Y100.362 E2.2311
G1 X155.471 Y100.92 E2.25071
G1 X155.734 Y101.888 E2.28408
G1 X155.852 Y102.467 E2.30373
G1 X155.991 Y103.492 E2.33813
G1 X156.032 Y104.091 E2.3581
G1 X156.05 Y104.624 E2.37584
G1 X156.05 Y105.375 E2.40082
G1 X155.999 Y106.437 E2.43618
G1 X155.868 Y107.451 E2.47019
G1 X155.754 Y108.031 E2.48985
G1 X155.497 Y109.002 E2.52326
G1 X155.311 Y109.558 E2.54276
G1 X154.912 Y110.529 E2.57767
G1 X154.652 Y111.057 E2.59725
G1 X154.156 Y111.919 E2.63033
G1 X153.83 Y112.411 E2.64996
G1 X153.21 Y113.226 E2.68401
G1 X152.825 Y113.668 E2.70351
G1 X152.104 Y114.394 E2.73754
G1 X151.662 Y114.784 E2.75715
G1 X151.55 Y114.87 E2.76184
G1 X151.55 Y116.625 E2.82022
G1 X151.51 Y117.414 E2.84649
G1 X151.391 Y118.194 E2.87273
G1 X151.193 Y118.959 E2.89902
G1 X150.919 Y119.699 E2.92526
G1 X150.571 Y120.408 E2.95153
G1 X150.153 Y121.079 E2.97783
G1 X149.67 Y121.703 E3.00407
G1 X149.127 Y122.276 E3.03033
G1 X148.528 Y122.791 E3.0566
G1 X147.88 Y123.242 E3.08286
G1 X147.189 Y123.626 E3.10915
G1 X146.464 Y123.938 E3.1354
G1 X145.711 Y124.175 E3.16166
G1 X144.937 Y124.334 E3.18794
G1 X144.152 Y124.415 E3.21419
G1 X109.25 Y124.425 E4.37503
G1 X108.461 Y124.385 E4.40131
G1 X107.681 Y124.266 E4.42755
G1 X106.916 Y124.068 E4.45384
G1 X106.176 Y123.794 E4.48008
G1 X105.934 Y123.675 E4.48905
G1 X104 Y123.675 E4.55338
G1 X103.211 Y123.635 E4.57965
G1 X102.431 Y123.516 E4.6059
G1 X101.666 Y123.318 E4.63218
G1 X100.926 Y123.044 E4.65842
G1 X100.217 Y122.696 E4.68469
G1 X99.546 Y122.278 E4.71099
G1 X98.922 Y121.795 E4.73723
G1 X98.349 Y121.252 E4.76349
G1 X97.834 Y120.653 E4.78976
G1 X97.383 Y120.005 E4.81602
G1 X97.105 Y119.505 E4.83505
G1 X96.672 Y119.17 E4.85326
G1 X96.099 Y118.627 E4.87951
G1 X95.584 Y118.028 E4.90579
G1 X95.133 Y117.38 E4.93204
G1 X94.749 Y116.689 E4.95834
G1 X94.437 Y115.964 E4.98459
G1 X94.2 Y115.211 E5.01085
G1 X94.041 Y114.437 E5.03713
G1 X93.96 Y113.652 E5.06337
G1 X93.95 Y106.5 E5.30125
G1 X93.95 Y96.75 E5.62554
G1 X93.99 Y95.961 E5.65181
G1 X94.109 Y95.181 E5.67806
G1 X94.307 Y94.416 E5.70434
G1 X94.581 Y93.676 E5.73058
G1 X94.929 Y92.967 E5.75685
G1 X95.347 Y92.296 E5.78315
G1 X95.83 Y91.672 E5.80939
G1 X96.373 Y91.099 E5.83565
G1 X96.972 Y90.584 E5.86192
G1 X97.106 Y90.491 E5.86735
G1 X97.597 Y89.671 E5.89914
G1 X98.08 Y89.047 E5.92538
G0 F3600 X98.475 Y89.202
G1 F1800 X99.016 Y88.655 E5.95097
G1 X99.611 Y88.167 E5.97656
G1 X100.253 Y87.744 E6.00214
G1 X100.936 Y87.389 E6.02774
G1 X101.651 Y87.108 E6.05329
G1 X102.393 Y86.902 E6.0789
G1 X103.151 Y86.774 E6.10447
G1 X104 Y86.725 E6.13275
G1 X106.021 Y86.725 E6.19997
G1 X106.901 Y86.358 E6.23169
G1 X107.643 Y86.152 E6.2573
G1 X108.401 Y86.024 E6.28287
G1 X109.25 Y85.975 E6.31115
G1 X143.75 Y85.975 E7.45863
G1 X144.518 Y86.015 E7.4842
G1 X145.278 Y86.134 E7.50979
G1 X146.021 Y86.332 E7.53536
G1 X146.74 Y86.606 E7.56096
G1 X147.426 Y86.953 E7.58653
G1 X148.073 Y87.369 E7.61211
G1 X148.673 Y87.85 E7.63769
G1 X149.22 Y88.391 E7.66327
G1 X149.708 Y88.986 E7.68887
G1 X150.131 Y89.628 E7.71444
G1 X150.486 Y90.311 E7.74004
G1 X150.767 Y91.026 E7.76559
G1 X150.973 Y91.768 E7.79121
G1 X151.101 Y92.526 E7.81677
G1 X151.15 Y93.361 E7.84459
G1 X151.154 Y95.327 E7.90998
G1 X151.78 Y95.852 E7.93716
G1 X152.469 Y96.536 E7.96945
G1 X152.859 Y96.978 E7.98905
G1 X153.452 Y97.746 E8.02133
G1 X153.78 Y98.234 E8.04088
G1 X154.262 Y99.063 E8.07278
G1 X154.524 Y99.589 E8.09232
G1 X154.901 Y100.492 E8.12487
G1 X155.092 Y101.05 E8.14449
G1 X155.342 Y101.968 E8.17613
G1 X155.46 Y102.547 E8.19578
G1 X155.592 Y103.52 E8.22844
G1 X155.633 Y104.119 E8.24841
G1 X155.65 Y104.624 E8.26522
G1 X155.65 Y105.375 E8.2902
G1 X155.599 Y106.412 E8.32473
G1 X155.475 Y107.374 E8.35699
G1 X155.361 Y107.954 E8.37665
G1 X155.118 Y108.875 E8.40833
G1 X154.932 Y109.431 E8.42783
G1 X154.553 Y110.352 E8.46095
G1 X154.293 Y110.88 E8.48053
G1 X153.823 Y111.698 E8.51191
G1 X153.497 Y112.19 E8.53154
G1 X152.908 Y112.963 E8.56386
G1 X152.523 Y113.405 E8.58336
G1 X151.839 Y114.094 E8.61565
G1 X151.397 Y114.484 E8.63525
G1 X151.15 Y114.675 E8.64564
G1 X151.15 Y116.625 E8.7105
G1 X151.11 Y117.393 E8.73607
G1 X150.991 Y118.153 E8.76166
G1 X150.793 Y118.896 E8.78723
G1 X150.519 Y119.615 E8.81283
G1 X150.172 Y120.301 E8.8384
G1 X149.756 Y120.948 E8.86398
G1 X149.275 Y121.548 E8.88956
G1 X148.734 Y122.095 E8.91515
G1 X148.139 Y122.583 E8.94074
G1 X147.497 Y123.006 E8.96631
G1 X146.814 Y123.361 E8.99191
G1 X146.099 Y123.642 E9.01746
G1 X145.357 Y123.848 E9.04308
G1 X144.599 Y123.976 E9.06864
G1 X143.75 Y124.025 E9.09693
G1 X109.25 Y124.025 E10.2444
G1 X108.482 Y123.985 E10.26998
G1 X107.722 Y123.866 E10.29557
G1 X106.979 Y123.668 E10.32114
G1 X106.26 Y123.394 E10.34673
G1 X106.025 Y123.275 E10.3555
G1 X104 Y123.275 E10.42285
G1 X103.232 Y123.235 E10.44843
G1 X102.472 Y123.116 E10.47401
G1 X101.729 Y122.918 E10.49959
G1 X101.01 Y122.644 E10.52518
G1 X100.324 Y122.297 E10.55075
G1 X99.677 Y121.881 E10.57633
G1 X99.077 Y121.4 E10.60191
G1 X98.53 Y120.859 E10.6275
G1 X98.042 Y120.264 E10.65309
G1 X97.619 Y119.622 E10.67866
G1 X97.427 Y119.256 E10.69241
G1 X96.827 Y118.775 E10.71799
G1 X96.28 Y118.234 E10.74357
G1 X95.792 Y117.639 E10.76917
G1 X95.369 Y116.997 E10.79474
G1 X95.014 Y116.314 E10.82034
G1 X94.733 Y115.599 E10.84589
G1 X94.527 Y114.857 E10.87151
G1 X94.399 Y114.099 E10.89707
G1 X94.35 Y113.25 E10.92536
G1 X94.35 Y96.75 E11.47415
G1 X94.39 Y95.982 E11.49973
G1 X94.509 Y95.222 E11.52532
G1 X94.707 Y94.479 E11.55089
G1 X94.981 Y93.76 E11.57648
G1 X95.328 Y93.074 E11.60205
G1 X95.744 Y92.427 E11.62764
G1 X96.225 Y91.827 E11.65321
G1 X96.766 Y91.28 E11.6788
G1 X97.361 Y90.792 E11.7044
G1 X97.426 Y90.749 E11.70699
G1 X97.994 Y89.802 E11.74372
G1 X98.475 Y89.202 E11.76929
G0 F3600 X98.871 Y89.362
G1 F1800 X99.408 Y88.841 E11.79418
G1 X99.998 Y88.382 E11.81904
G1 X100.634 Y87.987 E11.84394
G1 X101.308 Y87.663 E11.86881
G1 X102.013 Y87.413 E11.89369
G1 X102.741 Y87.239 E11.91859
G1 X103.483 Y87.144 E11.94347
G1 X104 Y87.125 E11.96068
G1 X106.117 Y87.125 E12.03109
G1 X106.558 Y86.913 E12.04736
G1 X107.263 Y86.663 E12.07224
G1 X107.991 Y86.489 E12.09714
G1 X108.733 Y86.394 E12.12202
G1 X109.25 Y86.375 E12.13923
G1 X143.75 Y86.375 E13.2867
G1 X144.497 Y86.415 E13.31158
G1 X145.235 Y86.534 E13.33644
G1 X145.957 Y86.732 E13.36134
G1 X146.653 Y87.005 E13.38621
G1 X147.316 Y87.352 E13.4111
G1 X147.939 Y87.767 E13.436
G1 X148.513 Y88.246 E13.46086
G1 X149.034 Y88.783 E13.48575
G1 X149.493 Y89.373 E13.51061
G1 X149.888 Y90.009 E13.53551
G1 X150.212 Y90.683 E13.56038
G1 X150.462 Y91.388 E13.58526
G1 X150.636 Y92.116 E13.61016
G1 X150.731 Y92.858 E13.63504
G1 X150.75 Y93.362 E13.65181
G1 X150.754 Y95.524 E13.72372
G1 X151.518 Y96.154 E13.75666
G1 X152.169 Y96.801 E13.78719
G1 X152.559 Y97.243 E13.80679
G1 X153.12 Y97.969 E13.83731
G1 X153.448 Y98.457 E13.85686
G1 X153.904 Y99.241 E13.88703
G1 X154.166 Y99.767 E13.90657
G1 X154.523 Y100.621 E13.93736
G1 X154.714 Y101.179 E13.95698
G1 X154.95 Y102.048 E13.98693
G1 X155.068 Y102.627 E14.00658
G1 X155.193 Y103.547 E14.03746
G1 X155.234 Y104.146 E14.05743
G1 X155.25 Y105.375 E14.09831
G1 X155.2 Y106.387 E14.13201
G1 X155.083 Y107.297 E14.16253
G1 X154.969 Y107.877 E14.18219
G1 X154.738 Y108.748 E14.21216
G1 X154.552 Y109.304 E14.23166
G1 X154.194 Y110.175 E14.26298
G1 X153.934 Y110.703 E14.28255
G1 X153.489 Y111.477 E14.31225
G1 X153.163 Y111.969 E14.33188
G1 X152.606 Y112.701 E14.36247
G1 X152.221 Y113.143 E14.38197
G1 X151.574 Y113.794 E14.4125
G1 X151.132 Y114.184 E14.4321
G1 X150.75 Y114.479 E14.44815
G1 X150.75 Y116.625 E14.51953
G1 X150.71 Y117.372 E14.54441
G1 X150.591 Y118.11 E14.56927
G1 X150.393 Y118.832 E14.59417
G1 X150.12 Y119.528 E14.61904
G1 X149.773 Y120.191 E14.64393
G1 X149.358 Y120.814 E14.66883
G1 X148.879 Y121.388 E14.69369
G1 X148.342 Y121.909 E14.71858
G1 X147.752 Y122.368 E14.74344
G1 X147.116 Y122.763 E14.76834
G1 X146.442 Y123.087 E14.79322
G1 X145.737 Y123.337 E14.81809
G1 X145.009 Y123.511 E14.84299
G1 X144.267 Y123.606 E14.86787
G1 X143.75 Y123.625 E14.88508
G1 X109.25 Y123.625 E16.03255
G1 X108.503 Y123.585 E16.05743
G1 X107.765 Y123.466 E16.0823
G1 X107.043 Y123.268 E16.1072
G1 X106.347 Y122.995 E16.13206
G1 X106.118 Y122.875 E16.14066
G1 X104 Y122.875 E16.21111
G1 X103.253 Y122.835 E16.23599
G1 X102.515 Y122.716 E16.26085
G1 X101.793 Y122.518 E16.28575
G1 X101.097 Y122.245 E16.31062
G1 X100.434 Y121.898 E16.33551
G1 X99.811 Y121.483 E16.3604
G1 X99.237 Y121.004 E16.38527
G1 X98.716 Y120.467 E16.41015
G1 X98.257 Y119.877 E16.43502
G1 X97.862 Y119.241 E16.45992
G1 X97.733 Y118.973 E16.46981
G1 X96.987 Y118.379 E16.50153
G1 X96.466 Y117.842 E16.52641
G1 X96.007 Y117.252 E16.55128
G1 X95.612 Y116.616 E16.57618
G1 X95.288 Y115.942 E16.60105
G1 X95.038 Y115.237 E16.62593
G1 X94.864 Y114.509 E16.65082
G1 X94.769 Y113.767 E16.6757
G1 X94.75 Y113.25 E16.69291
G1 X94.75 Y96.75 E17.2417
G1 X94.79 Y96.003 E17.26658
G1 X94.909 Y95.265 E17.29145
G1 X95.107 Y94.543 E17.31635
G1 X95.38 Y93.847 E17.34121
G1 X95.727 Y93.184 E17.3661
G1 X96.142 Y92.561 E17.391
G1 X96.621 Y91.987 E17.41587
G1 X97.158 Y91.466 E17.44075
G1 X97.739 Y91.014 E17.46523
G1 X97.977 Y90.559 E17.48231
G1 X98.392 Y89.936 E17.50721
G1 X98.871 Y89.362 E17.53208
G0 F3600 X98.789 Y90.075
G1 F1800 X99.265 Y89.527 E17.55622
G1 X99.799 Y89.034 E17.58039
G1 X100.384 Y88.604 E17.60454
G1 X101.013 Y88.24 E17.62871
G1 X101.678 Y87.947 E17.65288
G1 X102.371 Y87.729 E17.67704
G1 X103.083 Y87.589 E17.70118
G1 X104 Y87.525 E17.73175
G1 X106.203 Y87.525 E17.80502
G1 X106.928 Y87.197 E17.83149
G1 X107.621 Y86.979 E17.85565
G1 X108.333 Y86.839 E17.87979
G1 X109.25 Y86.775 E17.91036
G1 X143.75 Y86.775 E19.05784
G1 X144.475 Y86.815 E19.08199
G1 X145.192 Y86.934 E19.10616
G1 X145.891 Y87.132 E19.13032
G1 X146.564 Y87.405 E19.15448
G1 X147.203 Y87.75 E19.17863
G1 X147.8 Y88.164 E19.2028
G1 X148.348 Y88.64 E19.22694
G1 X148.841 Y89.174 E19.25111
G1 X149.271 Y89.759 E19.27526
G1 X149.635 Y90.388 E19.29943
G1 X149.928 Y91.053 E19.3236
G1 X150.146 Y91.746 E19.34776
G1 X150.286 Y92.458 E19.3719
G1 X150.35 Y93.362 E19.40204
G1 X150.355 Y95.721 E19.4805
G1 X150.813 Y96.07 E19.49965
G1 X151.255 Y96.455 E19.51915
G1 X151.869 Y97.065 E19.54794
G1 X152.259 Y97.507 E19.56754
G1 X152.788 Y98.192 E19.59633
G1 X153.116 Y98.68 E19.61588
G1 X153.546 Y99.419 E19.64432
G1 X153.808 Y99.945 E19.66387
G1 X154.144 Y100.751 E19.69291
G1 X154.335 Y101.309 E19.71253
G1 X154.558 Y102.128 E19.74076
G1 X154.676 Y102.707 E19.76041
G1 X154.794 Y103.574 E19.78951
G1 X154.835 Y104.173 E19.80948
G1 X154.85 Y105.375 E19.84946
G1 X154.801 Y106.362 E19.88233
G1 X154.69 Y107.22 E19.91111
G1 X154.576 Y107.8 E19.93077
G1 X154.359 Y108.621 E19.95901
G1 X154.173 Y109.177 E19.97851
G1 X153.835 Y109.999 E20.00807
G1 X153.575 Y110.527 E20.02765
G1 X153.156 Y111.257 E20.05564
G1 X152.83 Y111.749 E20.07527
G1 X152.305 Y112.438 E20.10408
G1 X151.92 Y112.88 E20.12358
G1 X151.31 Y113.494 E20.15237
G1 X150.868 Y113.884 E20.17197
G1 X150.35 Y114.283 E20.19372
G1 X150.35 Y116.625 E20.27161
G1 X150.31 Y117.35 E20.29577
G1 X150.191 Y118.067 E20.31994
G1 X149.993 Y118.766 E20.3441
G1 X149.72 Y119.439 E20.36826
G1 X149.375 Y120.078 E20.39241
G1 X148.961 Y120.675 E20.41657
G1 X148.485 Y121.223 E20.44072
G1 X147.951 Y121.716 E20.46489
G1 X147.366 Y122.146 E20.48904
G1 X146.737 Y122.51 E20.51321
G1 X146.072 Y122.803 E20.53738
G1 X145.379 Y123.021 E20.56154
G1 X144.667 Y123.161 E20.58568
G1 X143.75 Y123.225 E20.61625
G1 X109.25 Y123.225 E21.76372
G1 X108.525 Y123.185 E21.78787
G1 X107.808 Y123.066 E21.81205
G1 X107.109 Y122.868 E21.83621
G1 X106.436 Y122.595 E21.86037
G1 X106.214 Y122.475 E21.86876
G1 X104 Y122.475 E21.9424
G1 X103.275 Y122.435 E21.96655
G1 X102.558 Y122.316 E21.99072
G1 X101.859 Y122.118 E22.01489
G1 X101.186 Y121.845 E22.03904
G1 X100.547 Y121.5 E22.0632
G1 X99.95 Y121.086 E22.08736
G1 X99.402 Y120.61 E22.1115
G1 X98.909 Y120.076 E22.13567
G1 X98.479 Y119.491 E22.15982
G1 X98.115 Y118.862 E22.18399
G1 X98.043 Y118.699 E22.18992
G1 X97.7 Y118.461 E22.20381
G1 X97.152 Y117.985 E22.22795
G1 X96.659 Y117.451 E22.25212
G1 X96.229 Y116.866 E22.27627
G1 X95.865 Y116.237 E22.30044
G1 X95.572 Y115.572 E22.32461
G1 X95.354 Y114.879 E22.34877
G1 X95.214 Y114.167 E22.37291
G1 X95.15 Y113.25 E22.40348
G1 X95.15 Y96.75 E22.95227
G1 X95.19 Y96.025 E22.97642
G1 X95.309 Y95.308 E23.0006
G1 X95.507 Y94.609 E23.02476
G1 X95.78 Y93.936 E23.04892
G1 X96.125 Y93.297 E23.07307
G1 X96.539 Y92.7 E23.09723
G1 X97.015 Y92.152 E23.12137
G1 X97.549 Y91.659 E23.14555
G1 X98.035 Y91.302 E23.1656
G1 X98.375 Y90.672 E23.18941
G1 X98.789 Y90.075 E23.21358
G0 F3600 X99.185 Y90.219
G1 F1800 X99.659 Y89.698 E23.23701
G1 X100.189 Y89.234 E23.26043
G1 X100.768 Y88.834 E23.28384
G1 X101.389 Y88.502 E23.30726
G1 X102.043 Y88.242 E23.33067
G1 X102.723 Y88.058 E23.3541
G1 X103.419 Y87.952 E23.37752
G1 X104 Y87.925 E23.39686
G1 X106.315 Y87.925 E23.47386
G1 X106.639 Y87.752 E23.48607
G1 X107.293 Y87.492 E23.50948
G1 X107.973 Y87.308 E23.53291
G1 X108.669 Y87.202 E23.55633
G1 X109.25 Y87.175 E23.57567
G1 X143.75 Y87.175 E24.72315
G1 X144.453 Y87.215 E24.74657
G1 X145.147 Y87.334 E24.76999
G1 X145.822 Y87.532 E24.79338
G1 X146.471 Y87.804 E24.81679
G1 X147.085 Y88.149 E24.84021
G1 X147.656 Y88.56 E24.86361
G1 X148.177 Y89.034 E24.88704
G1 X148.641 Y89.564 E24.91047
G1 X149.041 Y90.143 E24.93388
G1 X149.373 Y90.764 E24.9573
G1 X149.633 Y91.418 E24.9807
G1 X149.817 Y92.098 E25.00413
G1 X149.923 Y92.794 E25.02755
G1 X149.95 Y93.363 E25.0465
G1 X149.955 Y95.919 E25.13151
G1 X150.55 Y96.372 E25.15638
G1 X150.992 Y96.757 E25.17588
G1 X151.569 Y97.33 E25.20292
G1 X151.959 Y97.772 E25.22253
G1 X152.456 Y98.415 E25.24956
G1 X152.784 Y98.903 E25.26912
G1 X153.188 Y99.598 E25.29585
G1 X153.45 Y100.124 E25.3154
G1 X153.766 Y100.88 E25.34265
G1 X153.957 Y101.438 E25.36227
G1 X154.166 Y102.208 E25.38881
G1 X154.284 Y102.787 E25.40846
G1 X154.395 Y103.602 E25.43582
G1 X154.436 Y104.201 E25.45579
G1 X154.45 Y105.375 E25.49484
G1 X154.402 Y106.336 E25.52684
G1 X154.298 Y107.143 E25.5539
G1 X154.184 Y107.723 E25.57356
G1 X153.98 Y108.494 E25.60009
G1 X153.794 Y109.05 E25.61959
G1 X153.476 Y109.822 E25.64736
G1 X153.216 Y110.35 E25.66693
G1 X152.822 Y111.036 E25.69324
