;FLAVOR:Marlin
;TIME:16841
;Filament used: 11.5723m
;Layer height: 0.15
;MINX:57.449
;MINY:55.152
;MINZ:0.2
;MAXX:195.86
;MAXY:153.675
;MAXZ:20.15
;Generated with Cura_SteamEngine 4.5.0
M82 ;absolute extrusion mode
G21 ; set units to millimeters
G90 ; use absolute positioning
M82 ; absolute extrusion mode
M104 S200 ; set extruder temp
M140 S60 ; set bed temp
M190 S60 ; wait for bed temp
M109 S200 ; wait for extruder temp
G28 W ; home all without mesh bed level
G80 ; mesh bed leveling
G92 E0.0 ; reset extruder distance position
G1 Y-3.0 F1000.0 ; go outside print area
G1 X60.0 E9.0 F1000.0 ; intro line
G1 X100.0 E21.5 F1000.0 ; intro line
G92 E0.0 ; reset extruder distance position
G92 E0
G92 E0
G1 F2100 E-0.8
;LAYER_COUNT:134
;LAYER:0
M107
G0 F3600 X61.073 Y87.613 Z0.2
;TYPE:SKIRT
G1 F2100 E0
G1 F1800 X61.753 Y87.212 E0.02626
G1 X62.471 Y86.882 E0.05254
G1 X63.218 Y86.627 E0.07879
G1 X63.987 Y86.448 E0.10505
G1 X64.771 Y86.348 E0.13134
G1 X65.366 Y86.325 E0.15114
G1 X85.795 Y86.325 E0.83062
G1 X86.584 Y86.365 E0.85689
G1 X87.364 Y86.484 E0.88313
G1 X88.129 Y86.682 E0.90942
G1 X88.869 Y86.956 E0.93566
G1 X89.578 Y87.304 E0.96193
G1 X89.852 Y87.474 E0.97266
G1 X90.231 Y87.246 E0.98737
G1 X90.946 Y86.909 E1.01366
G1 X91.691 Y86.647 E1.03992
G1 X92.458 Y86.461 E1.06617
G1 X93.24 Y86.354 E1.09243
G1 X93.908 Y86.325 E1.11466
G1 X98.97 Y86.325 E1.28303
G1 X99.759 Y86.365 E1.3093
G1 X100.539 Y86.484 E1.33555
G1 X101.304 Y86.682 E1.36183
G1 X101.524 Y86.764 E1.36964
G1 X101.449 Y85.758 E1.40319
G1 X101.449 Y64.242 E2.11882
G1 X101.489 Y63.453 E2.14509
G1 X101.608 Y62.673 E2.17133
G1 X101.806 Y61.908 E2.19762
G1 X102.08 Y61.168 E2.22386
G1 X102.428 Y60.459 E2.25013
G1 X102.846 Y59.788 E2.27642
G1 X103.329 Y59.164 E2.30267
G1 X103.734 Y58.727 E2.32249
G1 X104.437 Y58.08 E2.35426
G1 X105.073 Y57.613 E2.38051
G1 X105.753 Y57.212 E2.40676
G1 X106.471 Y56.882 E2.43305
G1 X107.218 Y56.627 E2.4593
G1 X107.987 Y56.448 E2.48556
G1 X108.771 Y56.348 E2.51185
G1 X109.366 Y56.325 E2.53165
G1 X129.795 Y56.325 E3.21112
G1 X130.584 Y56.365 E3.2374
G1 X131.364 Y56.484 E3.26364
G1 X132.129 Y56.682 E3.28992
G1 X132.869 Y56.956 E3.31617
G1 X133.578 Y57.304 E3.34244
G1 X133.794 Y57.439 E3.35091
G1 X134.299 Y57.153 E3.37021
G1 X135.021 Y56.835 E3.39645
G1 X135.773 Y56.592 E3.42274
G1 X136.545 Y56.426 E3.449
G1 X137.301 Y56.342 E3.4743
G1 X138.002 Y55.951 E3.501
G1 X138.727 Y55.639 E3.52725
G1 X139.48 Y55.402 E3.55351
G1 X140.254 Y55.243 E3.57979
G1 X141.039 Y55.162 E3.60604
G1 X143.525 Y55.152 E3.68872
G1 X144.314 Y55.192 E3.715
G1 X145.094 Y55.311 E3.74124
G1 X145.859 Y55.509 E3.76752
G1 X146.599 Y55.783 E3.79377
G1 X147.308 Y56.131 E3.82004
G1 X147.979 Y56.549 E3.84633
G1 X148.603 Y57.032 E3.87258
G1 X149.04 Y57.437 E3.89239
G1 X149.837 Y58.234 E3.92988
G1 X150.367 Y58.82 E3.95616
G1 X150.834 Y59.456 E3.9824
G1 X151.235 Y60.136 E4.00866
G1 X151.565 Y60.854 E4.03494
G1 X151.82 Y61.601 E4.0612
G1 X151.999 Y62.37 E4.08746
G1 X152.099 Y63.154 E4.11374
G1 X152.122 Y63.749 E4.13355
G1 X152.122 Y64.802 E4.16857
G1 X152.082 Y65.591 E4.19485
G1 X151.963 Y66.371 E4.22109
G1 X151.86 Y66.77 E4.2348
G1 X151.832 Y67.317 E4.25301
G1 X151.713 Y68.097 E4.27926
G1 X151.515 Y68.862 E4.30554
G1 X151.241 Y69.602 E4.33178
G1 X150.893 Y70.311 E4.35805
G1 X150.475 Y70.982 E4.38435
G1 X150.066 Y71.51 E4.40656
G1 X149.673 Y72.341 E4.43714
G1 X149.421 Y72.745 E4.45297
G1 X148.971 Y73.73 E4.48899
G1 X148.578 Y74.361 E4.51372
G1 X148.392 Y75.079 E4.53838
G1 X147.863 Y76.512 E4.58919
G1 X147.713 Y77.093 E4.60915
G1 X147.52 Y77.614 E4.62763
G1 X147.341 Y78.306 E4.6514
G1 X147.172 Y78.763 E4.66761
G1 X146.944 Y79.722 E4.70039
G1 X146.839 Y80.01 E4.71059
G1 X146.72 Y80.79 E4.73683
G1 X146.522 Y81.555 E4.76311
G1 X146.428 Y81.809 E4.77212
G1 X146.388 Y82.703 E4.80189
G1 X146.269 Y83.483 E4.82813
G1 X146.071 Y84.248 E4.85441
G1 X145.921 Y84.654 E4.86881
G1 X145.822 Y85.5 E4.89714
G1 X146.599 Y85.783 E4.92464
G1 X147.308 Y86.131 E4.95091
G1 X147.979 Y86.549 E4.9772
G1 X148.603 Y87.032 E5.00345
G1 X149.04 Y87.437 E5.02327
G1 X149.163 Y87.56 E5.02905
G1 X149.753 Y87.212 E5.05183
G1 X150.471 Y86.882 E5.07812
G1 X151.218 Y86.627 E5.10437
G1 X151.987 Y86.448 E5.13063
G1 X152.771 Y86.348 E5.15692
G1 X153.366 Y86.325 E5.17672
G1 X173.795 Y86.325 E5.85619
G1 X174.584 Y86.365 E5.88247
G1 X175.364 Y86.484 E5.90871
G1 X176.129 Y86.682 E5.93499
G1 X176.869 Y86.956 E5.96124
G1 X177.578 Y87.304 E5.98751
G1 X177.852 Y87.474 E5.99823
G1 X178.231 Y87.246 E6.01294
G1 X178.946 Y86.909 E6.03923
G1 X179.691 Y86.647 E6.0655
G1 X180.458 Y86.461 E6.09175
G1 X181.24 Y86.354 E6.118
G1 X181.625 Y86.337 E6.13082
G1 X182.072 Y86.089 E6.14782
G1 X182.797 Y85.777 E6.17407
G1 X183.55 Y85.54 E6.20033
G1 X184.324 Y85.381 E6.22661
G1 X185.109 Y85.3 E6.25286
G1 X187.343 Y85.29 E6.32716
G1 X188.132 Y85.33 E6.35344
G1 X188.912 Y85.449 E6.37968
G1 X189.677 Y85.647 E6.40596
G1 X190.417 Y85.921 E6.43221
G1 X191.126 Y86.269 E6.45848
G1 X191.797 Y86.687 E6.48477
G1 X192.421 Y87.17 E6.51102
G1 X192.858 Y87.575 E6.53083
G1 X193.575 Y88.292 E6.56456
G1 X194.105 Y88.878 E6.59084
G1 X194.572 Y89.514 E6.61708
G1 X194.973 Y90.194 E6.64334
G1 X195.303 Y90.912 E6.66962
G1 X195.558 Y91.659 E6.69588
G1 X195.737 Y92.428 E6.72214
G1 X195.837 Y93.212 E6.74842
G1 X195.86 Y93.807 E6.76823
G1 X195.86 Y95.044 E6.80937
G1 X195.82 Y95.833 E6.83565
G1 X195.701 Y96.613 E6.86189
G1 X195.626 Y97.726 E6.89899
G1 X195.507 Y98.506 E6.92524
G1 X195.309 Y99.271 E6.95152
G1 X195.035 Y100.011 E6.97776
G1 X194.687 Y100.72 E7.00403
G1 X194.269 Y101.391 E7.03033
G1 X193.786 Y102.015 E7.05657
G1 X193.698 Y102.107 E7.06081
G1 X193.384 Y102.748 E7.08455
G1 X192.966 Y103.419 E7.11084
G1 X192.764 Y103.679 E7.12179
G1 X192.632 Y104.037 E7.13448
G1 X192.284 Y104.746 E7.16075
G1 X192.052 Y105.119 E7.17536
G1 X192.03 Y105.549 E7.18968
G1 X191.911 Y106.329 E7.21592
G1 X191.713 Y107.094 E7.24221
G1 X191.519 Y107.617 E7.26076
G1 X191.341 Y108.306 E7.28443
G1 X191.172 Y108.763 E7.30063
G1 X190.944 Y109.722 E7.33342
G1 X190.839 Y110.037 E7.34446
G1 X190.72 Y110.817 E7.37071
G1 X190.522 Y111.582 E7.39699
G1 X190.248 Y112.322 E7.42323
G1 X189.9 Y113.031 E7.4495
G1 X189.482 Y113.702 E7.4758
G1 X188.999 Y114.326 E7.50204
G1 X188.456 Y114.899 E7.5283
G1 X187.857 Y115.414 E7.55457
G1 X187.209 Y115.865 E7.58083
G1 X186.518 Y116.249 E7.60712
G1 X185.793 Y116.561 E7.63338
G1 X185.04 Y116.798 E7.65963
G1 X184.266 Y116.957 E7.68591
G1 X183.752 Y116.997 E7.70306
G1 X183.313 Y117.101 E7.71807
G1 X182.53 Y117.204 E7.74433
G1 X181.74 Y117.226 E7.77062
G1 X181.57 Y117.214 E7.77629
G1 X181.355 Y118.092 E7.80635
G1 X181.081 Y118.832 E7.8326
G1 X180.733 Y119.541 E7.85887
G1 X180.315 Y120.212 E7.88516
G1 X179.832 Y120.836 E7.91141
G1 X179.427 Y121.273 E7.93122
G1 X178.724 Y121.92 E7.963
G1 X178.088 Y122.387 E7.98924
G1 X177.408 Y122.788 E8.0155
G1 X176.69 Y123.118 E8.04178
G1 X175.943 Y123.373 E8.06803
G1 X175.174 Y123.552 E8.0943
G1 X174.39 Y123.652 E8.12058
G1 X173.795 Y123.675 E8.14039
G1 X153.366 Y123.675 E8.81986
G1 X152.577 Y123.635 E8.84613
G1 X152.115 Y123.564 E8.86168
G1 X152.122 Y124.802 E8.90286
G1 X152.082 Y125.591 E8.92913
G1 X151.963 Y126.371 E8.95538
G1 X151.86 Y126.77 E8.96908
G1 X151.832 Y127.317 E8.9873
G1 X151.713 Y128.097 E9.01354
G1 X151.515 Y128.862 E9.03983
G1 X151.241 Y129.602 E9.06607
G1 X150.893 Y130.311 E9.09234
G1 X150.475 Y130.982 E9.11863
G1 X150.066 Y131.51 E9.14085
G1 X149.673 Y132.341 E9.17142
G1 X149.421 Y132.745 E9.18726
G1 X148.971 Y133.73 E9.22328
G1 X148.578 Y134.361 E9.248
G1 X148.392 Y135.079 E9.27267
G1 X147.863 Y136.512 E9.32348
G1 X147.713 Y137.093 E9.34343
G1 X147.52 Y137.614 E9.36191
G1 X147.341 Y138.306 E9.38569
G1 X147.172 Y138.763 E9.40189
G1 X146.944 Y139.722 E9.43468
G1 X146.839 Y140.01 E9.44487
G1 X146.72 Y140.79 E9.47112
G1 X146.522 Y141.555 E9.4974
G1 X146.428 Y141.809 E9.50641
G1 X146.388 Y142.703 E9.53617
G1 X146.269 Y143.483 E9.56241
G1 X146.071 Y144.248 E9.5887
G1 X145.921 Y144.654 E9.60309
G1 X145.785 Y145.743 E9.63959
G1 X145.587 Y146.508 E9.66588
G1 X145.312 Y147.248 E9.69213
G1 X144.964 Y147.957 E9.7184
G1 X144.546 Y148.627 E9.74467
G1 X144.063 Y149.251 E9.77091
G1 X143.519 Y149.824 E9.79719
G1 X142.919 Y150.338 E9.82347
G1 X142.271 Y150.789 E9.84973
G1 X141.581 Y151.172 E9.87598
G1 X140.855 Y151.484 E9.90226
G1 X140.102 Y151.721 E9.92852
G1 X139.328 Y151.88 E9.9548
G1 X138.178 Y151.97 E9.99316
G1 X137.157 Y151.934 E10.02714
G1 X136.376 Y151.818 E10.0534
G1 X135.61 Y151.624 E10.07968
G1 X135.212 Y151.479 E10.09377
G1 X134.724 Y151.92 E10.11565
G1 X134.088 Y152.387 E10.14189
G1 X133.408 Y152.788 E10.16815
G1 X132.69 Y153.118 E10.19443
G1 X131.943 Y153.373 E10.22069
G1 X131.174 Y153.552 E10.24695
G1 X130.39 Y153.652 E10.27323
G1 X129.795 Y153.675 E10.29304
G1 X109.366 Y153.675 E10.97251
G1 X108.577 Y153.635 E10.99879
G1 X107.797 Y153.516 E11.02503
G1 X107.032 Y153.318 E11.05131
G1 X106.292 Y153.044 E11.07756
G1 X105.583 Y152.696 E11.10383
G1 X104.912 Y152.278 E11.13012
G1 X104.288 Y151.795 E11.15636
G1 X103.851 Y151.39 E11.17618
G1 X103.204 Y150.687 E11.20796
G1 X102.737 Y150.051 E11.2342
G1 X102.336 Y149.371 E11.26046
G1 X102.006 Y148.653 E11.28674
G1 X101.751 Y147.906 E11.31299
G1 X101.572 Y147.137 E11.33925
G1 X101.516 Y146.699 E11.35394
G1 X101.312 Y147.248 E11.37342
G1 X100.964 Y147.957 E11.39969
G1 X100.546 Y148.627 E11.42596
G1 X100.063 Y149.251 E11.4522
G1 X99.519 Y149.824 E11.47848
G1 X98.919 Y150.338 E11.50476
G1 X98.271 Y150.789 E11.53102
G1 X97.581 Y151.172 E11.55726
G1 X96.855 Y151.484 E11.58355
G1 X96.102 Y151.721 E11.6098
G1 X95.328 Y151.88 E11.63608
G1 X94.178 Y151.97 E11.67445
G1 X93.157 Y151.934 E11.70843
G1 X92.376 Y151.818 E11.73469
G1 X91.61 Y151.624 E11.76097
G1 X91.212 Y151.479 E11.77506
G1 X90.724 Y151.92 E11.79694
G1 X90.088 Y152.387 E11.82318
G1 X89.408 Y152.788 E11.84944
G1 X88.69 Y153.118 E11.87572
G1 X87.943 Y153.373 E11.90197
G1 X87.174 Y153.552 E11.92823
G1 X86.39 Y153.652 E11.95452
G1 X85.795 Y153.675 E11.97432
G1 X65.366 Y153.675 E12.6538
G1 X64.577 Y153.635 E12.68007
G1 X63.797 Y153.516 E12.70632
G1 X63.032 Y153.318 E12.7326
G1 X62.292 Y153.044 E12.75884
G1 X61.583 Y152.696 E12.78511
G1 X60.912 Y152.278 E12.81141
G1 X60.288 Y151.795 E12.83765
G1 X59.851 Y151.39 E12.85747
G1 X59.204 Y150.687 E12.88925
G1 X58.737 Y150.051 E12.91549
G1 X58.336 Y149.371 E12.94175
G1 X58.006 Y148.653 E12.96803
G1 X57.751 Y147.906 E12.99428
G1 X57.572 Y147.137 E13.02054
G1 X57.472 Y146.353 E13.04683
G1 X57.449 Y145.758 E13.06663
G1 X57.449 Y124.242 E13.78226
G1 X57.489 Y123.453 E13.80853
G1 X57.608 Y122.673 E13.83478
G1 X57.806 Y121.908 E13.86106
G1 X58.08 Y121.168 E13.88731
G1 X58.428 Y120.459 E13.91357
G1 X58.71 Y120.006 E13.93132
G1 X58.336 Y119.371 E13.95583
G1 X58.006 Y118.653 E13.98212
G1 X57.751 Y117.906 E14.00837
G1 X57.572 Y117.137 E14.03463
G1 X57.472 Y116.353 E14.06092
G1 X57.449 Y115.758 E14.08072
G1 X57.449 Y94.242 E14.79635
G1 X57.489 Y93.453 E14.82262
G1 X57.608 Y92.673 E14.84887
G1 X57.806 Y91.908 E14.87515
G1 X58.08 Y91.168 E14.90139
G1 X58.428 Y90.459 E14.92766
G1 X58.846 Y89.788 E14.95396
G1 X59.329 Y89.164 E14.9802
G1 X59.734 Y88.727 E15.00002
G1 X60.437 Y88.08 E15.0318
G1 X61.073 Y87.613 E15.05804
G0 F3600 X61.327 Y87.925
G1 F1800 X61.992 Y87.539 E15.08361
G1 X62.694 Y87.224 E15.1092
G1 X63.425 Y86.984 E15.13479
G1 X64.176 Y86.821 E15.16035
G1 X64.941 Y86.737 E15.18595
G1 X85.795 Y86.725 E15.87956
G1 X86.563 Y86.765 E15.90514
G1 X87.323 Y86.884 E15.93072
G1 X88.066 Y87.082 E15.9563
G1 X88.785 Y87.356 E15.98189
G1 X89.471 Y87.703 E16.00746
G1 X89.847 Y87.945 E16.02233
G1 X90.615 Y87.498 E16.05189
G1 X91.321 Y87.192 E16.07748
G1 X92.055 Y86.961 E16.10307
G1 X92.808 Y86.807 E16.12863
G1 X93.908 Y86.725 E16.16532
G1 X98.97 Y86.725 E16.33368
G1 X99.738 Y86.765 E16.35926
G1 X100.498 Y86.884 E16.38485
G1 X101.241 Y87.082 E16.41042
G1 X101.96 Y87.356 E16.43602
G1 X102.043 Y87.398 E16.43911
G1 X101.945 Y86.948 E16.45443
G1 X101.861 Y86.183 E16.48002
G1 X101.849 Y64.242 E17.20978
G1 X101.889 Y63.474 E17.23536
G1 X102.008 Y62.714 E17.26095
G1 X102.206 Y61.971 E17.28652
G1 X102.48 Y61.252 E17.31212
G1 X102.827 Y60.566 E17.33768
G1 X103.243 Y59.919 E17.36327
G1 X103.724 Y59.319 E17.38885
G1 X104.133 Y58.892 E17.40851
G1 X104.705 Y58.378 E17.43409
G1 X105.327 Y57.925 E17.45968
G1 X105.992 Y57.539 E17.48526
G1 X106.694 Y57.224 E17.51085
G1 X107.425 Y56.984 E17.53644
G1 X108.176 Y56.821 E17.562
G1 X108.941 Y56.737 E17.58759
G1 X129.795 Y56.725 E18.2812
G1 X130.563 Y56.765 E18.30678
G1 X131.323 Y56.884 E18.33237
G1 X132.066 Y57.082 E18.35794
G1 X132.785 Y57.356 E18.38353
G1 X133.471 Y57.703 E18.4091
G1 X133.794 Y57.911 E18.42188
G1 X134.676 Y57.415 E18.45553
G1 X135.389 Y57.127 E18.48111
G1 X136.129 Y56.915 E18.50671
G1 X136.886 Y56.781 E18.53228
G1 X137.426 Y56.748 E18.55028
G1 X138.377 Y56.216 E18.58652
G1 X139.092 Y55.935 E18.61207
G1 X139.834 Y55.729 E18.63768
G1 X140.592 Y55.601 E18.66325
G1 X141.441 Y55.552 E18.69154
G1 X143.525 Y55.552 E18.76085
G1 X144.293 Y55.592 E18.78643
G1 X145.053 Y55.711 E18.81202
G1 X145.796 Y55.909 E18.83759
G1 X146.515 Y56.183 E18.86318
G1 X147.201 Y56.53 E18.88875
G1 X147.848 Y56.946 E18.91433
G1 X148.448 Y57.427 E18.93991
G1 X149.555 Y58.516 E18.99156
G1 X150.069 Y59.088 E19.01714
G1 X150.522 Y59.71 E19.04273
G1 X150.908 Y60.375 E19.0683
G1 X151.223 Y61.077 E19.0939
G1 X151.463 Y61.808 E19.11949
G1 X151.626 Y62.559 E19.14505
G1 X151.71 Y63.324 E19.17064
G1 X151.722 Y64.802 E19.2198
G1 X151.682 Y65.57 E19.24538
G1 X151.563 Y66.33 E19.27097
G1 X151.463 Y66.706 E19.28391
G1 X151.432 Y67.296 E19.30356
G1 X151.313 Y68.056 E19.32914
G1 X151.115 Y68.799 E19.35472
G1 X150.841 Y69.518 E19.38031
G1 X150.494 Y70.204 E19.40588
G1 X150.078 Y70.851 E19.43146
G1 X149.713 Y71.306 E19.45086
G1 X149.274 Y72.234 E19.48501
G1 X149.06 Y72.567 E19.49817
G1 X148.919 Y72.937 E19.51134
G1 X148.572 Y73.623 E19.53691
G1 X148.202 Y74.198 E19.55965
G1 X147.992 Y75.016 E19.58774
G1 X147.718 Y75.735 E19.61334
G1 X147.492 Y76.36 E19.63544
G1 X147.313 Y77.03 E19.65851
G1 X147.139 Y77.5 E19.67518
G1 X146.941 Y78.243 E19.70075
G1 X146.782 Y78.66 E19.71559
G1 X146.544 Y79.659 E19.74975
G1 X146.439 Y79.989 E19.76127
G1 X146.32 Y80.749 E19.78685
G1 X146.122 Y81.492 E19.81243
G1 X146.028 Y81.739 E19.82122
G1 X145.988 Y82.682 E19.85261
G1 X145.869 Y83.442 E19.8782
G1 X145.671 Y84.185 E19.90377
G1 X145.524 Y84.57 E19.91748
G1 X145.505 Y84.942 E19.92987
G1 X145.385 Y85.702 E19.95546
G1 X145.361 Y85.793 E19.95859
G1 X145.796 Y85.909 E19.97356
G1 X146.515 Y86.183 E19.99915
G1 X147.201 Y86.53 E20.02472
G1 X147.848 Y86.946 E20.05031
G1 X148.448 Y87.427 E20.07588
G1 X149.117 Y88.078 E20.10693
G1 X149.992 Y87.539 E20.14111
G1 X150.694 Y87.224 E20.1667
G1 X151.425 Y86.984 E20.19229
G1 X152.176 Y86.821 E20.21785
G1 X152.941 Y86.737 E20.24345
G1 X173.795 Y86.725 E20.93706
G1 X174.563 Y86.765 E20.96264
G1 X175.323 Y86.884 E20.98822
G1 X176.066 Y87.082 E21.0138
G1 X176.785 Y87.356 E21.03939
G1 X177.471 Y87.703 E21.06496
G1 X177.847 Y87.945 E21.07983
G1 X178.615 Y87.498 E21.10938
G1 X179.321 Y87.192 E21.13498
G1 X180.055 Y86.961 E21.16057
G1 X180.808 Y86.807 E21.18613
G1 X181.718 Y86.739 E21.21649
G1 X182.447 Y86.354 E21.24391
G1 X183.162 Y86.073 E21.26946
G1 X183.904 Y85.867 E21.29507
G1 X184.662 Y85.739 E21.32064
G1 X185.511 Y85.69 E21.34892
G1 X187.343 Y85.69 E21.40986
G1 X188.111 Y85.73 E21.43543
G1 X188.871 Y85.849 E21.46102
G1 X189.614 Y86.047 E21.48659
G1 X190.333 Y86.321 E21.51219
G1 X191.019 Y86.668 E21.53775
G1 X191.666 Y87.084 E21.56334
G1 X192.266 Y87.565 E21.58892
G1 X193.293 Y88.574 E21.6368
G1 X193.807 Y89.146 E21.66238
G1 X194.26 Y89.768 E21.68797
G1 X194.646 Y90.433 E21.71355
G1 X194.961 Y91.135 E21.73914
G1 X195.201 Y91.866 E21.76473
G1 X195.364 Y92.617 E21.79029
G1 X195.448 Y93.382 E21.81588
G1 X195.46 Y95.044 E21.87116
G1 X195.42 Y95.812 E21.89674
G1 X195.301 Y96.572 E21.92233
G1 X195.226 Y97.705 E21.96009
G1 X195.107 Y98.465 E21.98568
G1 X194.909 Y99.208 E22.01125
G1 X194.635 Y99.927 E22.03685
G1 X194.288 Y100.613 E22.06242
G1 X193.872 Y101.26 E22.088
G1 X193.391 Y101.86 E22.11358
