;FLAVOR:Marlin
;TIME:6537
;Filament used: 4.54063m
;Layer height: 0.15
;MINX:93.95
;MINY:56.64
;MINZ:0.2
;MAXX:206.004
;MAXY:152.155
;MAXZ:5.15
;Generated with Cura_SteamEngine 4.5.0
M82 ;absolute extrusion mode
G21 ; set units to millimeters
G90 ; use absolute positioning
M82 ; absolute extrusion mode
M104 S210 ; set extruder temp
M140 S60 ; set bed temp
M190 S60 ; wait for bed temp
M109 S210 ; wait for extruder temp
G28 W ; home all without mesh bed level
G80 ; mesh bed leveling
G92 E0.0 ; reset extruder distance position
G1 Y-3.0 F1000.0 ; go outside print area
G1 X60.0 E9.0 F1000.0 ; intro line
G1 X100.0 E21.5 F1000.0 ; intro line
G92 E0.0 ; reset extruder distance position
G92 E0
G92 E0
G1 F2100 E-0.8
;LAYER_COUNT:34
;LAYER:0
M107
G0 F3600 X97.597 Y62.417 Z0.2
;TYPE:SKIRT
G1 F2100 E0
G1 F1800 X98.08 Y61.793 E0.02625
G1 X98.623 Y61.22 E0.0525
G1 X99.222 Y60.705 E0.07878
G1 X99.87 Y60.254 E0.10503
G1 X100.561 Y59.87 E0.13133
G1 X101.286 Y59.558 E0.15758
G1 X102.039 Y59.321 E0.18383
G1 X102.813 Y59.162 E0.21012
G1 X103.598 Y59.081 E0.23636
G1 X105.925 Y59.071 E0.31376
G1 X106.536 Y58.808 E0.33589
G1 X107.289 Y58.571 E0.36214
G1 X108.063 Y58.412 E0.38842
G1 X108.848 Y58.331 E0.41467
G1 X143.75 Y58.321 E1.57552
G1 X144.539 Y58.361 E1.60179
G1 X145.319 Y58.48 E1.62803
G1 X146.084 Y58.678 E1.65432
G1 X146.824 Y58.952 E1.68056
G1 X147.533 Y59.3 E1.70683
G1 X148.204 Y59.718 E1.73313
G1 X148.321 Y59.809 E1.73805
G1 X148.577 Y59.539 E1.75043
G1 X149.176 Y59.024 E1.7767
G1 X149.824 Y58.573 E1.80296
G1 X150.515 Y58.189 E1.82926
G1 X151.24 Y57.877 E1.85551
G1 X151.993 Y57.64 E1.88176
G1 X152.767 Y57.481 E1.90804
G1 X153.552 Y57.4 E1.93429
G1 X155.879 Y57.39 E2.01169
G1 X156.49 Y57.127 E2.03381
G1 X157.243 Y56.89 E2.06007
G1 X158.017 Y56.731 E2.08635
G1 X158.802 Y56.65 E2.1126
G1 X193.704 Y56.64 E3.27344
G1 X194.493 Y56.68 E3.29972
G1 X195.273 Y56.799 E3.32596
G1 X196.038 Y56.997 E3.35225
G1 X196.778 Y57.271 E3.37849
G1 X197.487 Y57.619 E3.40476
G1 X198.158 Y58.037 E3.43105
G1 X198.782 Y58.52 E3.4573
G1 X199.355 Y59.063 E3.48356
G1 X199.87 Y59.662 E3.50983
G1 X200.321 Y60.31 E3.53609
G1 X200.705 Y61.001 E3.56238
G1 X201.017 Y61.726 E3.58863
G1 X201.254 Y62.479 E3.61489
G1 X201.413 Y63.253 E3.64117
G1 X201.504 Y64.425 E3.68027
G1 X201.507 Y66.194 E3.73911
G1 X201.997 Y66.615 E3.76059
G1 X202.723 Y67.336 E3.79462
G1 X203.113 Y67.778 E3.81423
G1 X203.738 Y68.588 E3.84826
G1 X204.066 Y69.076 E3.86781
G1 X204.574 Y69.949 E3.90141
G1 X204.836 Y70.475 E3.92095
G1 X205.234 Y71.427 E3.95527
G1 X205.425 Y71.985 E3.97489
G1 X205.69 Y72.966 E4.00869
G1 X205.807 Y73.545 E4.02833
G1 X205.943 Y74.544 E4.06187
G1 X205.985 Y75.143 E4.08184
G1 X206.004 Y75.689 E4.10001
G1 X206.004 Y76.44 E4.12499
G1 X205.988 Y76.943 E4.14173
G1 X205.951 Y77.516 E4.16082
G1 X205.823 Y78.507 E4.19406
G1 X205.71 Y79.086 E4.21368
G1 X205.451 Y80.067 E4.24743
G1 X205.265 Y80.623 E4.26693
G1 X204.866 Y81.594 E4.30184
G1 X204.606 Y82.122 E4.32142
G1 X204.114 Y82.978 E4.35425
G1 X203.788 Y83.471 E4.37391
G1 X203.158 Y84.299 E4.40852
G1 X202.773 Y84.74 E4.42799
G1 X202.058 Y85.459 E4.46171
G1 X201.616 Y85.849 E4.48132
G1 X201.504 Y85.935 E4.48602
G1 X201.504 Y87.69 E4.54439
G1 X201.464 Y88.479 E4.57066
G1 X201.345 Y89.259 E4.59691
G1 X201.147 Y90.024 E4.62319
G1 X200.873 Y90.764 E4.64943
G1 X200.525 Y91.473 E4.6757
G1 X200.348 Y91.758 E4.68686
G1 X200.436 Y92.188 E4.70146
G1 X200.527 Y93.36 E4.74056
G1 X200.53 Y95.129 E4.7994
G1 X201.027 Y95.556 E4.82119
G1 X201.739 Y96.264 E4.85459
G1 X202.13 Y96.706 E4.87421
G1 X202.762 Y97.523 E4.90857
G1 X203.09 Y98.011 E4.92812
G1 X203.593 Y98.874 E4.96135
G1 X203.856 Y99.4 E4.98091
G1 X204.267 Y100.386 E5.01644
G1 X204.456 Y100.944 E5.03603
G1 X204.711 Y101.888 E5.06855
G1 X204.829 Y102.467 E5.08821
G1 X204.968 Y103.492 E5.12261
G1 X205.009 Y104.091 E5.14258
G1 X205.027 Y104.624 E5.16032
G1 X205.027 Y105.375 E5.1853
G1 X204.976 Y106.437 E5.22066
G1 X204.845 Y107.451 E5.25467
G1 X204.731 Y108.031 E5.27433
G1 X204.478 Y108.99 E5.30731
G1 X204.293 Y109.546 E5.3268
G1 X203.89 Y110.529 E5.36214
G1 X203.63 Y111.057 E5.38171
G1 X203.134 Y111.919 E5.41479
G1 X202.808 Y112.411 E5.43442
G1 X202.181 Y113.234 E5.46883
G1 X201.795 Y113.676 E5.48835
G1 X201.087 Y114.388 E5.52175
G1 X200.646 Y114.778 E5.54133
G1 X200.527 Y114.87 E5.54633
G1 X200.527 Y116.625 E5.6047
G1 X200.487 Y117.414 E5.63098
G1 X200.368 Y118.194 E5.65722
G1 X200.17 Y118.959 E5.6835
G1 X200.037 Y119.319 E5.69627
G1 X200.16 Y119.918 E5.71661
G1 X200.251 Y121.09 E5.75571
G1 X200.254 Y122.859 E5.81454
G1 X200.751 Y123.286 E5.83634
G1 X201.47 Y124.001 E5.87006
G1 X201.86 Y124.443 E5.88967
G1 X202.485 Y125.253 E5.9237
G1 X202.813 Y125.741 E5.94325
G1 X203.316 Y126.604 E5.97648
G1 X203.579 Y127.13 E5.99604
G1 X203.986 Y128.104 E6.03115
G1 X204.176 Y128.662 E6.05075
G1 X204.435 Y129.618 E6.08369
G1 X204.553 Y130.197 E6.10335
G1 X204.692 Y131.222 E6.13775
G1 X204.733 Y131.821 E6.15772
G1 X204.751 Y132.354 E6.17546
G1 X204.751 Y133.105 E6.20044
G1 X204.7 Y134.167 E6.2358
G1 X204.568 Y135.185 E6.26994
G1 X204.454 Y135.764 E6.28957
G1 X204.202 Y136.72 E6.32245
G1 X204.017 Y137.276 E6.34194
G1 X203.608 Y138.269 E6.37766
G1 X203.347 Y138.797 E6.39725
G1 X202.861 Y139.643 E6.4297
G1 X202.535 Y140.136 E6.44936
G1 X201.905 Y140.964 E6.48396
G1 X201.52 Y141.405 E6.50343
G1 X200.811 Y142.118 E6.53688
G1 X200.37 Y142.508 E6.55646
G1 X200.251 Y142.6 E6.56146
G1 X200.251 Y144.355 E6.61983
G1 X200.211 Y145.144 E6.64611
G1 X200.092 Y145.924 E6.67235
G1 X199.894 Y146.689 E6.69863
G1 X199.62 Y147.429 E6.72488
G1 X199.272 Y148.138 E6.75115
G1 X198.854 Y148.809 E6.77744
G1 X198.371 Y149.433 E6.80369
G1 X197.828 Y150.006 E6.82994
G1 X197.229 Y150.521 E6.85622
G1 X196.581 Y150.972 E6.88248
G1 X195.89 Y151.356 E6.90877
G1 X195.165 Y151.668 E6.93502
G1 X194.412 Y151.905 E6.96128
G1 X193.638 Y152.064 E6.98756
G1 X192.853 Y152.145 E7.01381
G1 X157.951 Y152.155 E8.17465
G1 X157.162 Y152.115 E8.20093
G1 X156.382 Y151.996 E8.22717
G1 X155.617 Y151.798 E8.25345
G1 X154.877 Y151.524 E8.2797
G1 X154.635 Y151.405 E8.28867
G1 X152.701 Y151.405 E8.35299
G1 X151.912 Y151.365 E8.37927
G1 X151.132 Y151.246 E8.40551
G1 X150.367 Y151.048 E8.43179
G1 X149.627 Y150.774 E8.45804
G1 X148.918 Y150.426 E8.48431
G1 X148.247 Y150.008 E8.5106
G1 X147.623 Y149.525 E8.53685
G1 X147.526 Y149.433 E8.54129
G1 X147.189 Y149.62 E8.55411
G1 X146.464 Y149.932 E8.58036
G1 X145.711 Y150.169 E8.60662
G1 X144.937 Y150.328 E8.6329
G1 X144.152 Y150.409 E8.65915
G1 X109.25 Y150.419 E9.81999
G1 X108.461 Y150.379 E9.84627
G1 X107.681 Y150.26 E9.87251
G1 X106.916 Y150.062 E9.8988
G1 X106.176 Y149.788 E9.92504
G1 X105.934 Y149.669 E9.93401
G1 X104 Y149.669 E9.99834
G1 X103.211 Y149.629 E10.02461
G1 X102.431 Y149.51 E10.05086
G1 X101.666 Y149.312 E10.07714
G1 X100.926 Y149.038 E10.10338
G1 X100.217 Y148.69 E10.12965
G1 X99.546 Y148.272 E10.15595
G1 X98.922 Y147.789 E10.18219
G1 X98.349 Y147.246 E10.20845
G1 X97.834 Y146.647 E10.23472
G1 X97.383 Y145.999 E10.26098
G1 X97.105 Y145.499 E10.28001
G1 X96.672 Y145.164 E10.29822
G1 X96.099 Y144.621 E10.32447
G1 X95.584 Y144.022 E10.35075
G1 X95.133 Y143.374 E10.37701
G1 X94.749 Y142.683 E10.4033
G1 X94.437 Y141.958 E10.42955
G1 X94.2 Y141.205 E10.45581
G1 X94.041 Y140.431 E10.48209
G1 X93.96 Y139.646 E10.50833
G1 X93.95 Y129.644 E10.841
G1 X93.99 Y128.855 E10.86728
G1 X94.04 Y128.525 E10.87838
G1 X93.96 Y127.746 E10.90443
G1 X93.95 Y125.044 E10.9943
G1 X93.99 Y124.255 E11.02057
G1 X94.109 Y123.475 E11.04681
G1 X94.307 Y122.71 E11.0731
G1 X94.581 Y121.97 E11.09934
G1 X94.929 Y121.261 E11.12561
G1 X95.347 Y120.59 E11.1519
G1 X95.83 Y119.966 E11.17815
G1 X96.229 Y119.545 E11.19744
G1 X96.342 Y118.659 E11.22715
G1 X96.237 Y118.352 E11.23794
G1 X95.959 Y118.028 E11.25214
G1 X95.508 Y117.38 E11.2784
G1 X95.124 Y116.689 E11.30469
G1 X94.812 Y115.964 E11.33094
G1 X94.575 Y115.211 E11.3572
G1 X94.416 Y114.437 E11.38348
G1 X94.335 Y113.652 E11.40973
G1 X94.325 Y105.95 E11.6659
G1 X94.365 Y105.161 E11.69217
G1 X94.415 Y104.831 E11.70328
G1 X94.335 Y104.052 E11.72932
G1 X94.325 Y99.05 E11.89569
G1 X94.365 Y98.261 E11.92197
G1 X94.484 Y97.481 E11.94821
G1 X94.682 Y96.716 E11.97449
G1 X94.956 Y95.976 E12.00074
G1 X95.304 Y95.267 E12.027
G1 X95.722 Y94.596 E12.0533
G1 X95.825 Y94.463 E12.05889
G1 X95.865 Y93.336 E12.0964
G1 X95.984 Y92.556 E12.12264
G1 X96.182 Y91.791 E12.14893
G1 X96.275 Y91.54 E12.15783
G1 X95.584 Y90.774 E12.19214
G1 X95.133 Y90.126 E12.2184
G1 X94.749 Y89.435 E12.24469
G1 X94.437 Y88.71 E12.27095
G1 X94.2 Y87.957 E12.2972
G1 X94.041 Y87.183 E12.32348
G1 X93.96 Y86.398 E12.34973
G1 X93.95 Y74.096 E12.7589
G1 X93.99 Y73.307 E12.78517
G1 X94.109 Y72.527 E12.81142
G1 X94.307 Y71.762 E12.8377
G1 X94.581 Y71.022 E12.86394
G1 X94.929 Y70.313 E12.89021
G1 X95.347 Y69.642 E12.91651
G1 X95.83 Y69.018 E12.94275
G1 X96.2 Y68.628 E12.96063
G1 X96.2 Y66.871 E13.01907
G1 X96.24 Y66.082 E13.04535
G1 X96.359 Y65.302 E13.07159
G1 X96.557 Y64.537 E13.09787
G1 X96.831 Y63.797 E13.12412
G1 X97.179 Y63.088 E13.15039
G1 X97.597 Y62.417 E13.17668
G0 F3600 X97.994 Y62.548
G1 F1800 X98.475 Y61.948 E13.20226
G1 X99.016 Y61.401 E13.22784
G1 X99.611 Y60.913 E13.25344
G1 X100.253 Y60.49 E13.27901
G1 X100.936 Y60.135 E13.30461
G1 X101.651 Y59.854 E13.33016
G1 X102.393 Y59.648 E13.35578
G1 X103.151 Y59.52 E13.38134
G1 X104 Y59.471 E13.40963
G1 X106.021 Y59.471 E13.47685
G1 X106.901 Y59.104 E13.50856
G1 X107.643 Y58.898 E13.53417
G1 X108.401 Y58.77 E13.55974
G1 X109.25 Y58.721 E13.58803
G1 X143.75 Y58.721 E14.7355
G1 X144.518 Y58.761 E14.76108
G1 X145.278 Y58.88 E14.78666
G1 X146.021 Y59.078 E14.81224
G1 X146.74 Y59.352 E14.83783
G1 X147.426 Y59.699 E14.8634
G1 X148.073 Y60.115 E14.88898
G1 X148.364 Y60.348 E14.90138
G1 X148.97 Y59.72 E14.93041
G1 X149.565 Y59.232 E14.956
G1 X150.207 Y58.809 E14.98157
G1 X150.89 Y58.454 E15.00718
G1 X151.605 Y58.173 E15.03273
G1 X152.347 Y57.967 E15.05834
G1 X153.105 Y57.839 E15.08391
G1 X153.954 Y57.79 E15.11219
G1 X155.975 Y57.79 E15.17941
G1 X156.855 Y57.423 E15.21112
G1 X157.597 Y57.217 E15.23674
G1 X158.355 Y57.089 E15.26231
G1 X159.204 Y57.04 E15.29059
G1 X193.704 Y57.04 E16.43807
G1 X194.472 Y57.08 E16.46364
G1 X195.232 Y57.199 E16.48923
G1 X195.975 Y57.397 E16.5148
G1 X196.694 Y57.671 E16.5404
G1 X197.38 Y58.018 E16.56596
G1 X198.027 Y58.434 E16.59155
G1 X198.627 Y58.915 E16.61713
G1 X199.174 Y59.456 E16.64271
G1 X199.662 Y60.051 E16.66831
G1 X200.085 Y60.693 E16.69388
G1 X200.44 Y61.376 E16.71948
G1 X200.721 Y62.091 E16.74503
G1 X200.927 Y62.833 E16.77065
G1 X201.055 Y63.591 E16.79621
G1 X201.104 Y64.426 E16.82403
G1 X201.108 Y66.392 E16.88942
G1 X201.734 Y66.917 E16.9166
G1 X202.423 Y67.601 E16.94889
G1 X202.813 Y68.043 E16.96849
G1 X203.406 Y68.811 E17.00077
G1 X203.734 Y69.299 E17.02032
G1 X204.216 Y70.128 E17.05222
G1 X204.478 Y70.654 E17.07176
G1 X204.855 Y71.557 E17.10431
G1 X205.046 Y72.115 E17.12392
G1 X205.298 Y73.045 E17.15597
G1 X205.415 Y73.624 E17.17562
G1 X205.544 Y74.572 E17.20744
G1 X205.586 Y75.171 E17.22741
G1 X205.604 Y75.689 E17.24465
G1 X205.604 Y76.44 E17.26963
G1 X205.552 Y77.49 E17.3046
G1 X205.43 Y78.43 E17.33612
G1 X205.317 Y79.009 E17.35574
G1 X205.072 Y79.94 E17.38776
G1 X204.886 Y80.496 E17.40726
G1 X204.507 Y81.417 E17.44039
G1 X204.247 Y81.945 E17.45996
G1 X203.781 Y82.758 E17.49113
G1 X203.455 Y83.251 E17.51079
G1 X202.857 Y84.036 E17.54361
G1 X202.472 Y84.477 E17.56308
G1 X201.793 Y85.159 E17.59509
G1 X201.351 Y85.549 E17.61469
G1 X201.104 Y85.74 E17.62508
G1 X201.104 Y87.69 E17.68994
G1 X201.064 Y88.458 E17.71552
G1 X200.945 Y89.218 E17.7411
G1 X200.747 Y89.961 E17.76668
G1 X200.473 Y90.68 E17.79227
G1 X200.126 Y91.366 E17.81784
G1 X199.925 Y91.678 E17.83018
G1 X200.078 Y92.526 E17.85884
G1 X200.127 Y93.361 E17.88666
G1 X200.131 Y95.326 E17.95202
G1 X200.764 Y95.857 E17.9795
G1 X201.44 Y96.529 E18.0112
G1 X201.831 Y96.971 E18.03083
G1 X202.43 Y97.746 E18.06341
G1 X202.758 Y98.234 E18.08296
G1 X203.235 Y99.053 E18.11449
G1 X203.498 Y99.579 E18.13405
G1 X203.888 Y100.514 E18.16774
G1 X204.077 Y101.072 E18.18734
G1 X204.319 Y101.968 E18.21821
G1 X204.437 Y102.547 E18.23786
G1 X204.569 Y103.52 E18.27052
G1 X204.61 Y104.119 E18.29049
G1 X204.627 Y104.624 E18.30729
G1 X204.627 Y105.375 E18.33227
G1 X204.576 Y106.412 E18.3668
G1 X204.452 Y107.374 E18.39906
G1 X204.338 Y107.954 E18.41872
G1 X204.099 Y108.863 E18.44999
G1 X203.914 Y109.419 E18.46947
G1 X203.531 Y110.352 E18.50302
G1 X203.271 Y110.88 E18.52259
G1 X202.801 Y111.698 E18.55397
G1 X202.475 Y112.19 E18.5736
G1 X201.88 Y112.971 E18.60626
G1 X201.494 Y113.413 E18.62578
G1 X200.822 Y114.088 E18.65746
G1 X200.381 Y114.478 E18.67704
G1 X200.127 Y114.674 E18.68771
G1 X200.127 Y116.625 E18.7526
G1 X200.087 Y117.393 E18.77818
G1 X199.968 Y118.153 E18.80376
G1 X199.77 Y118.896 E18.82934
G1 X199.618 Y119.295 E18.84354
G1 X199.802 Y120.256 E18.87608
G1 X199.851 Y121.091 E18.9039
G1 X199.855 Y123.056 E18.96926
G1 X200.488 Y123.587 E18.99674
G1 X201.17 Y124.266 E19.02875
G1 X201.56 Y124.708 E19.04835
G1 X202.153 Y125.476 E19.08062
G1 X202.481 Y125.964 E19.10018
G1 X202.958 Y126.783 E19.1317
G1 X203.221 Y127.309 E19.15126
G1 X203.607 Y128.233 E19.18457
G1 X203.797 Y128.791 E19.20418
G1 X204.043 Y129.698 E19.23543
G1 X204.161 Y130.277 E19.25509
G1 X204.293 Y131.25 E19.28774
G1 X204.334 Y131.849 E19.30771
G1 X204.351 Y132.354 E19.32452
G1 X204.351 Y133.105 E19.3495
G1 X204.3 Y134.142 E19.38403
G1 X204.176 Y135.108 E19.41642
G1 X204.062 Y135.687 E19.43605
G1 X203.823 Y136.593 E19.46722
G1 X203.638 Y137.149 E19.4867
G1 X203.25 Y138.092 E19.52062
G1 X202.989 Y138.62 E19.54021
G1 X202.528 Y139.423 E19.57101
G1 X202.202 Y139.916 E19.59066
G1 X201.604 Y140.701 E19.62349
G1 X201.219 Y141.142 E19.64296
G1 X200.546 Y141.818 E19.67468
G1 X200.105 Y142.208 E19.69426
G1 X199.851 Y142.404 E19.70494
G1 X199.851 Y144.355 E19.76983
G1 X199.811 Y145.123 E19.7954
G1 X199.692 Y145.883 E19.82099
G1 X199.494 Y146.626 E19.84656
G1 X199.22 Y147.345 E19.87216
G1 X198.873 Y148.031 E19.89773
G1 X198.457 Y148.678 E19.92331
G1 X197.976 Y149.278 E19.94889
G1 X197.435 Y149.825 E19.97447
G1 X196.84 Y150.313 E20.00007
G1 X196.198 Y150.736 E20.02564
G1 X195.515 Y151.091 E20.05124
G1 X194.8 Y151.372 E20.07679
G1 X194.058 Y151.578 E20.10241
G1 X193.3 Y151.706 E20.12797
G1 X192.451 Y151.755 E20.15626
G1 X157.951 Y151.755 E21.30373
G1 X157.183 Y151.715 E21.32931
G1 X156.423 Y151.596 E21.3549
G1 X155.68 Y151.398 E21.38047
G1 X154.961 Y151.124 E21.40606
G1 X154.726 Y151.005 E21.41483
G1 X152.701 Y151.005 E21.48218
G1 X151.933 Y150.965 E21.50776
G1 X151.173 Y150.846 E21.53334
G1 X150.43 Y150.648 E21.55892
G1 X149.711 Y150.374 E21.58451
G1 X149.025 Y150.027 E21.61008
G1 X148.378 Y149.611 E21.63566
G1 X147.778 Y149.13 E21.66124
G1 X147.587 Y148.941 E21.67018
G1 X146.814 Y149.355 E21.69934
G1 X146.099 Y149.636 E21.72489
G1 X145.357 Y149.842 E21.7505
G1 X144.599 Y149.97 E21.77607
G1 X143.75 Y150.019 E21.80436
G1 X109.25 Y150.019 E22.95183
G1 X108.482 Y149.979 E22.97741
G1 X107.722 Y149.86 E23.003
G1 X106.979 Y149.662 E23.02857
G1 X106.26 Y149.388 E23.05416
G1 X106.025 Y149.269 E23.06292
G1 X104 Y149.269 E23.13028
G1 X103.232 Y149.229 E23.15585
G1 X102.472 Y149.11 E23.18144
G1 X101.729 Y148.912 E23.20701
G1 X101.01 Y148.638 E23.23261
G1 X100.324 Y148.291 E23.25818
G1 X99.677 Y147.875 E23.28376
G1 X99.077 Y147.394 E23.30934
G1 X98.53 Y146.853 E23.33492
G1 X98.042 Y146.258 E23.36052
G1 X97.619 Y145.616 E23.38609
G1 X97.427 Y145.25 E23.39984
G1 X96.827 Y144.769 E23.42541
G1 X96.28 Y144.228 E23.451
G1 X95.792 Y143.633 E23.4766
G1 X95.369 Y142.991 E23.50217
G1 X95.014 Y142.308 E23.52777
G1 X94.733 Y141.593 E23.55332
G1 X94.527 Y140.851 E23.57893
G1 X94.399 Y140.093 E23.6045
G1 X94.35 Y139.244 E23.63279
G1 X94.35 Y129.644 E23.95208
G1 X94.39 Y128.876 E23.97766
G1 X94.45 Y128.494 E23.99052
G1 X94.35 Y127.344 E24.02892
G1 X94.35 Y125.044 E24.10542
G1 X94.39 Y124.276 E24.13099
G1 X94.509 Y123.516 E24.15658
G1 X94.707 Y122.773 E24.18215
G1 X94.981 Y122.054 E24.20775
G1 X95.328 Y121.368 E24.23332
G1 X95.744 Y120.721 E24.2589
