;FLAVOR:Marlin
;TIME:14982
;Filament used: 11.4199m
;Layer height: 0.15
;MINX:90.2
;MINY:52.95
;MINZ:0.2
;MAXX:152.543
;MAXY:157.05
;MAXZ:23.15
;Generated with Cura_SteamEngine 4.5.0
M82 ;absolute extrusion mode
G21 ; set units to millimeters
G90 ; use absolute positioning
M82 ; absolute extrusion mode
M104 S200 ; set extruder temp
M140 S60 ; set bed temp
M190 S60 ; wait for bed temp
M109 S200 ; wait for extruder temp
G28 W ; home all without mesh bed level
G80 ; mesh bed leveling
G92 E0.0 ; reset extruder distance position
G1 Y-3.0 F1000.0 ; go outside print area
G1 X60.0 E9.0 F1000.0 ; intro line
G1 X100.0 E21.5 F1000.0 ; intro line
G92 E0.0 ; reset extruder distance position
G92 E0
G92 E0
G1 F2100 E-0.8
;LAYER_COUNT:154
;LAYER:0
M107
G0 F3600 X91.179 Y57.084 Z0.2
;TYPE:SKIRT
G1 F2100 E0
G1 F1800 X91.597 Y56.413 E0.02629
G1 X92.08 Y55.789 E0.05254
G1 X92.485 Y55.352 E0.07236
G1 X93.188 Y54.705 E0.10413
G1 X93.824 Y54.238 E0.13038
G1 X94.504 Y53.837 E0.15663
G1 X95.222 Y53.507 E0.18292
G1 X95.969 Y53.252 E0.20917
G1 X96.738 Y53.073 E0.23543
G1 X97.522 Y52.973 E0.26172
G1 X98.117 Y52.95 E0.28152
G1 X135.383 Y52.95 E1.52099
G1 X136.172 Y52.99 E1.54727
G1 X136.952 Y53.109 E1.57351
G1 X137.717 Y53.307 E1.59979
G1 X138.457 Y53.581 E1.62604
G1 X139.166 Y53.929 E1.65231
G1 X139.837 Y54.347 E1.6786
G1 X140.461 Y54.83 E1.70485
G1 X140.898 Y55.235 E1.72467
G1 X141.545 Y55.938 E1.75644
G1 X142.012 Y56.574 E1.78269
G1 X142.413 Y57.254 E1.80894
G1 X142.743 Y57.972 E1.83522
G1 X142.998 Y58.719 E1.86148
G1 X143.177 Y59.488 E1.88774
G1 X143.277 Y60.272 E1.91403
G1 X143.3 Y60.867 E1.93383
G1 X143.3 Y149.133 E4.86957
G1 X143.26 Y149.922 E4.89585
G1 X143.141 Y150.702 E4.92209
G1 X142.943 Y151.467 E4.94837
G1 X142.669 Y152.207 E4.97462
G1 X142.321 Y152.916 E5.00089
G1 X141.903 Y153.587 E5.02718
G1 X141.42 Y154.211 E5.05342
G1 X141.015 Y154.648 E5.07324
G1 X140.312 Y155.295 E5.10502
G1 X139.676 Y155.762 E5.13126
G1 X138.996 Y156.163 E5.15752
G1 X138.278 Y156.493 E5.1838
G1 X137.531 Y156.748 E5.21005
G1 X136.762 Y156.927 E5.23631
G1 X135.978 Y157.027 E5.2626
G1 X135.383 Y157.05 E5.28241
G1 X98.117 Y157.05 E6.52188
G1 X97.328 Y157.01 E6.54815
G1 X96.548 Y156.891 E6.5744
G1 X95.783 Y156.693 E6.60068
G1 X95.043 Y156.419 E6.62693
G1 X94.334 Y156.071 E6.65319
G1 X93.663 Y155.653 E6.67949
G1 X93.039 Y155.17 E6.70573
G1 X92.602 Y154.765 E6.72555
G1 X91.955 Y154.062 E6.75733
G1 X91.488 Y153.426 E6.78357
G1 X91.087 Y152.746 E6.80983
G1 X90.757 Y152.028 E6.83611
G1 X90.502 Y151.281 E6.86236
G1 X90.323 Y150.512 E6.88862
G1 X90.223 Y149.728 E6.91491
G1 X90.2 Y149.133 E6.93472
G1 X90.2 Y60.867 E9.87045
G1 X90.24 Y60.078 E9.89673
G1 X90.359 Y59.298 E9.92297
G1 X90.557 Y58.533 E9.94926
G1 X90.831 Y57.793 E9.9755
G1 X91.179 Y57.084 E10.00177
G0 F3600 X91.578 Y57.191
G1 F1800 X91.994 Y56.544 E10.02735
G1 X92.475 Y55.944 E10.05293
G1 X92.884 Y55.517 E10.0726
G1 X93.456 Y55.003 E10.09817
G1 X94.078 Y54.55 E10.12377
G1 X94.743 Y54.164 E10.14934
G1 X95.445 Y53.849 E10.17493
G1 X96.176 Y53.609 E10.20052
G1 X96.927 Y53.446 E10.22608
G1 X97.692 Y53.362 E10.25168
G1 X135.383 Y53.35 E11.50529
G1 X136.151 Y53.39 E11.53087
G1 X136.911 Y53.509 E11.55645
G1 X137.654 Y53.707 E11.58203
G1 X138.373 Y53.981 E11.60762
G1 X139.059 Y54.328 E11.63319
G1 X139.706 Y54.744 E11.65877
G1 X140.306 Y55.225 E11.68435
G1 X140.733 Y55.634 E11.70401
G1 X141.247 Y56.206 E11.72959
G1 X141.7 Y56.828 E11.75518
G1 X142.086 Y57.493 E11.78076
G1 X142.401 Y58.195 E11.80635
G1 X142.641 Y58.926 E11.83194
G1 X142.804 Y59.677 E11.8575
G1 X142.888 Y60.442 E11.8831
G1 X142.9 Y149.133 E14.83297
G1 X142.86 Y149.901 E14.85855
G1 X142.741 Y150.661 E14.88414
G1 X142.543 Y151.404 E14.90971
G1 X142.269 Y152.123 E14.9353
G1 X141.922 Y152.809 E14.96087
G1 X141.506 Y153.456 E14.98646
G1 X141.025 Y154.056 E15.01203
G1 X140.616 Y154.483 E15.0317
G1 X140.044 Y154.997 E15.05728
G1 X139.422 Y155.45 E15.08287
G1 X138.757 Y155.836 E15.10844
G1 X138.055 Y156.151 E15.13403
G1 X137.324 Y156.391 E15.15962
G1 X136.573 Y156.554 E15.18518
G1 X135.808 Y156.638 E15.21078
G1 X98.117 Y156.65 E16.46439
G1 X97.349 Y156.61 E16.48997
G1 X96.589 Y156.491 E16.51555
G1 X95.846 Y156.293 E16.54113
G1 X95.127 Y156.019 E16.56672
G1 X94.441 Y155.672 E16.59229
G1 X93.794 Y155.256 E16.61787
G1 X93.194 Y154.775 E16.64345
G1 X92.767 Y154.366 E16.66312
G1 X92.253 Y153.794 E16.68869
G1 X91.8 Y153.172 E16.71429
G1 X91.414 Y152.507 E16.73986
G1 X91.099 Y151.805 E16.76545
G1 X90.859 Y151.074 E16.79104
G1 X90.696 Y150.323 E16.8166
G1 X90.612 Y149.558 E16.8422
G1 X90.6 Y60.867 E19.79207
G1 X90.64 Y60.099 E19.81765
G1 X90.759 Y59.339 E19.84324
G1 X90.957 Y58.596 E19.86881
G1 X91.231 Y57.877 E19.8944
G1 X91.578 Y57.191 E19.91997
G0 F3600 X91.977 Y57.301
G1 F1800 X92.392 Y56.678 E19.94487
G1 X93.05 Y55.917 E19.97833
G1 X93.724 Y55.3 E20.00872
G1 X94.33 Y54.863 E20.03357
G1 X94.98 Y54.492 E20.05846
G1 X95.666 Y54.193 E20.08335
G1 X96.38 Y53.969 E20.10824
G1 X97.113 Y53.822 E20.13311
G1 X98.117 Y53.75 E20.16659
G1 X135.383 Y53.75 E21.40606
G1 X136.13 Y53.79 E21.43094
G1 X136.868 Y53.909 E21.4558
G1 X137.59 Y54.107 E21.4807
G1 X138.286 Y54.38 E21.50557
G1 X138.949 Y54.727 E21.53046
G1 X139.572 Y55.142 E21.55536
G1 X140.333 Y55.8 E21.58882
G1 X140.95 Y56.474 E21.61921
G1 X141.387 Y57.08 E21.64406
G1 X141.758 Y57.73 E21.66895
G1 X142.057 Y58.416 E21.69384
G1 X142.281 Y59.13 E21.71873
G1 X142.428 Y59.863 E21.7436
G1 X142.5 Y60.867 E21.77707
G1 X142.5 Y149.133 E24.71281
G1 X142.46 Y149.88 E24.73769
G1 X142.341 Y150.618 E24.76256
G1 X142.143 Y151.34 E24.78746
G1 X141.87 Y152.036 E24.81232
G1 X141.523 Y152.699 E24.83721
G1 X141.108 Y153.322 E24.86211
G1 X140.45 Y154.083 E24.89557
G1 X139.776 Y154.7 E24.92596
G1 X139.17 Y155.137 E24.95081
G1 X138.52 Y155.508 E24.97571
G1 X137.834 Y155.807 E25.00059
G1 X137.12 Y156.031 E25.02548
G1 X136.387 Y156.178 E25.05035
G1 X135.383 Y156.25 E25.08383
G1 X98.117 Y156.25 E26.3233
G1 X97.37 Y156.21 E26.34818
G1 X96.632 Y156.091 E26.37304
G1 X95.91 Y155.893 E26.39794
G1 X95.214 Y155.62 E26.42281
G1 X94.551 Y155.273 E26.4477
G1 X93.928 Y154.858 E26.4726
G1 X93.167 Y154.2 E26.50606
G1 X92.55 Y153.526 E26.53645
G1 X92.113 Y152.92 E26.5613
G1 X91.742 Y152.27 E26.58619
G1 X91.443 Y151.584 E26.61108
G1 X91.219 Y150.87 E26.63597
G1 X91.072 Y150.137 E26.66084
G1 X91 Y149.133 E26.69431
G1 X91 Y60.867 E29.63005
G1 X91.04 Y60.12 E29.65493
G1 X91.159 Y59.382 E29.6798
G1 X91.357 Y58.66 E29.7047
G1 X91.63 Y57.964 E29.72956
G1 X91.977 Y57.301 E29.75445
G0 F3600 X92.375 Y57.414
G1 F1800 X92.789 Y56.817 E29.77862
G1 X93.333 Y56.2 E29.80598
G1 X93.991 Y55.599 E29.83562
G1 X94.582 Y55.176 E29.85979
G1 X95.216 Y54.822 E29.88394
G1 X95.885 Y54.539 E29.9081
G1 X96.581 Y54.331 E29.93226
G1 X97.296 Y54.201 E29.95643
G1 X98.117 Y54.15 E29.98379
G1 X135.383 Y54.15 E31.22326
G1 X136.108 Y54.19 E31.24741
G1 X136.825 Y54.309 E31.27159
G1 X137.524 Y54.507 E31.29575
G1 X138.197 Y54.78 E31.31991
G1 X138.836 Y55.125 E31.34406
G1 X139.433 Y55.539 E31.36822
G1 X140.05 Y56.083 E31.39558
G1 X140.651 Y56.741 E31.42522
G1 X141.074 Y57.332 E31.44939
G1 X141.428 Y57.966 E31.47355
G1 X141.711 Y58.635 E31.49771
G1 X141.919 Y59.331 E31.52187
G1 X142.049 Y60.046 E31.54604
G1 X142.1 Y60.867 E31.5734
G1 X142.1 Y149.133 E34.50914
G1 X142.06 Y149.858 E34.53329
G1 X141.941 Y150.575 E34.55746
G1 X141.743 Y151.274 E34.58162
G1 X141.47 Y151.947 E34.60578
G1 X141.125 Y152.586 E34.62993
G1 X140.711 Y153.183 E34.6541
G1 X140.167 Y153.8 E34.68145
G1 X139.509 Y154.401 E34.71109
G1 X138.918 Y154.824 E34.73527
G1 X138.284 Y155.178 E34.75942
G1 X137.615 Y155.461 E34.78358
G1 X136.919 Y155.669 E34.80774
G1 X136.204 Y155.799 E34.83191
G1 X135.383 Y155.85 E34.85927
G1 X98.117 Y155.85 E36.09874
G1 X97.392 Y155.81 E36.12289
G1 X96.675 Y155.691 E36.14707
G1 X95.976 Y155.493 E36.17123
G1 X95.303 Y155.22 E36.19538
G1 X94.664 Y154.875 E36.21954
G1 X94.067 Y154.461 E36.2437
G1 X93.45 Y153.917 E36.27106
G1 X92.849 Y153.259 E36.3007
G1 X92.426 Y152.668 E36.32487
G1 X92.072 Y152.034 E36.34902
G1 X91.789 Y151.365 E36.37318
G1 X91.581 Y150.669 E36.39734
G1 X91.451 Y149.954 E36.42152
G1 X91.4 Y149.133 E36.44887
G1 X91.4 Y60.867 E39.38461
G1 X91.44 Y60.142 E39.40876
G1 X91.559 Y59.425 E39.43294
G1 X91.757 Y58.726 E39.4571
G1 X92.03 Y58.053 E39.48126
G1 X92.375 Y57.414 E39.50541
G0 F3600 X92.429 Y58.146
G1 F1800 X92.774 Y57.532 E39.52883
G1 X93.185 Y56.961 E39.55223
G1 X93.616 Y56.483 E39.57364
G1 X94.258 Y55.897 E39.60255
G1 X94.833 Y55.491 E39.62596
G1 X95.451 Y55.153 E39.64939
G1 X96.102 Y54.886 E39.67279
G1 X96.78 Y54.696 E39.69621
G1 X97.475 Y54.583 E39.71963
G1 X98.117 Y54.55 E39.74101
G1 X135.383 Y54.55 E40.98049
G1 X136.086 Y54.59 E41.00391
G1 X136.78 Y54.709 E41.02733
G1 X137.455 Y54.907 E41.05072
G1 X138.104 Y55.179 E41.07413
G1 X138.718 Y55.524 E41.09755
G1 X139.289 Y55.935 E41.12095
G1 X139.767 Y56.366 E41.14236
G1 X140.353 Y57.008 E41.17127
G1 X140.759 Y57.583 E41.19468
G1 X141.097 Y58.201 E41.21811
G1 X141.364 Y58.852 E41.24151
G1 X141.554 Y59.53 E41.26493
G1 X141.667 Y60.225 E41.28835
G1 X141.7 Y60.867 E41.30973
G1 X141.7 Y149.133 E44.24547
G1 X141.66 Y149.836 E44.26889
G1 X141.541 Y150.53 E44.29231
G1 X141.343 Y151.205 E44.31571
G1 X141.071 Y151.854 E44.33911
G1 X140.726 Y152.468 E44.36254
G1 X140.315 Y153.039 E44.38593
G1 X139.884 Y153.517 E44.40734
G1 X139.242 Y154.103 E44.43625
G1 X138.667 Y154.509 E44.45966
G1 X138.049 Y154.847 E44.48309
G1 X137.398 Y155.114 E44.50649
G1 X136.72 Y155.304 E44.52991
G1 X136.025 Y155.417 E44.55333
G1 X135.383 Y155.45 E44.57471
G1 X98.117 Y155.45 E45.81419
G1 X97.414 Y155.41 E45.83761
G1 X96.72 Y155.291 E45.86103
G1 X96.045 Y155.093 E45.88442
G1 X95.396 Y154.821 E45.90783
G1 X94.782 Y154.476 E45.93125
G1 X94.211 Y154.065 E45.95465
G1 X93.733 Y153.634 E45.97606
G1 X93.147 Y152.992 E46.00497
G1 X92.741 Y152.417 E46.02838
G1 X92.403 Y151.799 E46.05181
G1 X92.136 Y151.148 E46.07521
G1 X91.946 Y150.47 E46.09863
G1 X91.833 Y149.775 E46.12205
G1 X91.8 Y149.133 E46.14343
G1 X91.8 Y60.867 E49.07917
G1 X91.84 Y60.164 E49.10259
G1 X91.959 Y59.47 E49.12601
G1 X92.157 Y58.795 E49.14941
G1 X92.429 Y58.146 E49.17281
G0 F3600 X92.828 Y58.241
G1 F1800 X93.172 Y57.653 E49.19547
G1 X93.582 Y57.109 E49.21813
G1 X94.016 Y56.649 E49.23916
G1 X94.525 Y56.196 E49.26182
G1 X95.083 Y55.807 E49.28445
G1 X95.683 Y55.485 E49.3071
G1 X96.317 Y55.236 E49.32975
G1 X96.976 Y55.063 E49.35241
G1 X97.65 Y54.969 E49.37505
G1 X135.383 Y54.95 E50.63005
G1 X136.063 Y54.99 E50.65271
G1 X136.733 Y55.109 E50.67534
G1 X137.385 Y55.306 E50.69799
G1 X138.009 Y55.578 E50.72063
G1 X138.597 Y55.922 E50.74329
G1 X139.141 Y56.332 E50.76595
G1 X139.601 Y56.766 E50.78698
G1 X140.054 Y57.275 E50.80965
G1 X140.443 Y57.833 E50.83227
G1 X140.765 Y58.433 E50.85492
G1 X141.014 Y59.067 E50.87757
G1 X141.187 Y59.726 E50.90023
G1 X141.281 Y60.4 E50.92287
G1 X141.3 Y149.133 E53.87414
G1 X141.26 Y149.813 E53.8968
G1 X141.141 Y150.483 E53.91943
G1 X140.944 Y151.135 E53.94208
G1 X140.672 Y151.759 E53.96472
G1 X140.328 Y152.347 E53.98738
G1 X139.918 Y152.891 E54.01004
G1 X139.484 Y153.351 E54.03107
G1 X138.975 Y153.804 E54.05374
G1 X138.417 Y154.193 E54.07636
G1 X137.817 Y154.515 E54.09901
G1 X137.183 Y154.764 E54.12166
G1 X136.524 Y154.937 E54.14432
G1 X135.85 Y155.031 E54.16696
G1 X98.117 Y155.05 E55.42196
G1 X97.437 Y155.01 E55.44462
G1 X96.767 Y154.891 E55.46725
G1 X96.115 Y154.694 E55.48991
G1 X95.491 Y154.422 E55.51255
G1 X94.903 Y154.078 E55.5352
G1 X94.359 Y153.668 E55.55786
G1 X93.899 Y153.234 E55.5789
G1 X93.446 Y152.725 E55.60156
G1 X93.057 Y152.167 E55.62418
G1 X92.735 Y151.567 E55.64683
G1 X92.486 Y150.933 E55.66949
G1 X92.313 Y150.274 E55.69215
G1 X92.219 Y149.6 E55.71478
G1 X92.2 Y60.867 E58.66605
G1 X92.24 Y60.187 E58.68871
G1 X92.359 Y59.517 E58.71134
G1 X92.556 Y58.865 E58.734
G1 X92.828 Y58.241 E58.75664
G0 F3600 X93.228 Y58.34
G1 F1800 X93.57 Y57.779 E58.77849
G1 X94.182 Y57.049 E58.81017
G1 X94.791 Y56.496 E58.83753
G1 X95.332 Y56.124 E58.85937
G1 X95.914 Y55.82 E58.88121
G1 X96.529 Y55.589 E58.90306
G1 X97.168 Y55.434 E58.92493
G1 X98.117 Y55.35 E58.95662
G1 X135.383 Y55.35 E60.19609
G1 X136.039 Y55.39 E60.21795
G1 X136.685 Y55.509 E60.23979
G1 X137.312 Y55.706 E60.26165
G1 X137.91 Y55.978 E60.2835
G1 X138.471 Y56.32 E60.30536
G1 X139.201 Y56.932 E60.33704
G1 X139.754 Y57.541 E60.3644
G1 X140.126 Y58.082 E60.38624
G1 X140.43 Y58.664 E60.40808
G1 X140.661 Y59.279 E60.42993
G1 X140.816 Y59.918 E60.4518
G1 X140.9 Y60.867 E60.48348
G1 X140.9 Y149.133 E63.41922
G1 X140.86 Y149.789 E63.44108
G1 X140.741 Y150.435 E63.46293
G1 X140.544 Y151.062 E63.48479
G1 X140.272 Y151.66 E63.50664
G1 X139.93 Y152.221 E63.52849
G1 X139.318 Y152.951 E63.56018
G1 X138.709 Y153.504 E63.58754
G1 X138.168 Y153.876 E63.60937
G1 X137.586 Y154.18 E63.63121
G1 X136.971 Y154.411 E63.65306
G1 X136.332 Y154.566 E63.67493
G1 X135.383 Y154.65 E63.70662
G1 X98.117 Y154.65 E64.94609
G1 X97.461 Y154.61 E64.96795
G1 X96.815 Y154.491 E64.9898
G1 X96.188 Y154.294 E65.01166
G1 X95.59 Y154.022 E65.03351
G1 X95.029 Y153.68 E65.05536
G1 X94.299 Y153.068 E65.08704
G1 X93.746 Y152.459 E65.1144
G1 X93.374 Y151.918 E65.13624
G1 X93.07 Y151.336 E65.15808
G1 X92.839 Y150.721 E65.17993
G1 X92.684 Y150.082 E65.2018
G1 X92.6 Y149.133 E65.23349
G1 X92.6 Y60.867 E68.16923
G1 X92.64 Y60.211 E68.19109
G1 X92.759 Y59.565 E68.21293
G1 X92.956 Y58.938 E68.23479
G1 X93.228 Y58.34 E68.25664
G0 F3600 X93.627 Y58.443
G1 F1800 X93.967 Y57.911 E68.27764
G1 X94.464 Y57.331 E68.30305
G1 X95.056 Y56.797 E68.32956
G1 X95.579 Y56.442 E68.35059
G1 X96.143 Y56.156 E68.37162
G1 X96.738 Y55.944 E68.39263
G1 X97.356 Y55.808 E68.41368
G1 X98.117 Y55.75 E68.43906
G1 X135.383 Y55.75 E69.67853
G1 X136.014 Y55.79 E69.69956
G1 X136.635 Y55.909 E69.72059
G1 X137.235 Y56.106 E69.7416
G1 X137.807 Y56.377 E69.76265
G1 X138.339 Y56.717 E69.78365
G1 X138.919 Y57.214 E69.80905
G1 X139.453 Y57.806 E69.83557
G1 X139.808 Y58.329 E69.85659
G1 X140.094 Y58.893 E69.87762
G1 X140.306 Y59.488 E69.89863
G1 X140.442 Y60.106 E69.91968
G1 X140.5 Y60.867 E69.94506
G1 X140.5 Y149.133 E72.8808
G1 X140.46 Y149.764 E72.90183
G1 X140.341 Y150.385 E72.92286
G1 X140.144 Y150.985 E72.94387
G1 X139.873 Y151.557 E72.96492
G1 X139.533 Y152.089 E72.98592
G1 X139.036 Y152.669 E73.01132
G1 X138.444 Y153.203 E73.03784
G1 X137.921 Y153.558 E73.05886
G1 X137.357 Y153.844 E73.0799
G1 X136.762 Y154.056 E73.1009
G1 X136.144 Y154.192 E73.12195
G1 X135.383 Y154.25 E73.14734
G1 X98.117 Y154.25 E74.38681
G1 X97.486 Y154.21 E74.40784
G1 X96.865 Y154.091 E74.42887
G1 X96.265 Y153.894 E74.44987
G1 X95.693 Y153.623 E74.47092
G1 X95.161 Y153.283 E74.49192
G1 X94.581 Y152.786 E74.51733
G1 X94.047 Y152.194 E74.54384
G1 X93.692 Y151.671 E74.56487
G1 X93.406 Y151.107 E74.5859
G1 X93.194 Y150.512 E74.60691
G1 X93.058 Y149.894 E74.62796
G1 X93 Y149.133 E74.65334
G1 X93 Y60.867 E77.58908
G1 X93.04 Y60.236 E77.61011
G1 X93.159 Y59.615 E77.63114
G1 X93.356 Y59.015 E77.65214
G1 X93.627 Y58.443 E77.6732
G0 F3600 X94.026 Y58.551
G1 F1800 X94.365 Y58.048 E77.69337
G1 X94.747 Y57.614 E77.7126
G1 X95.32 Y57.098 E77.73825
G1 X95.825 Y56.762 E77.75842
G1 X96.369 Y56.495 E77.77858
G1 X96.944 Y56.302 E77.79875
G1 X97.539 Y56.186 E77.81891
G1 X98.117 Y56.15 E77.83817
G1 X135.383 Y56.15 E79.07765
G1 X135.988 Y56.19 E79.09781
G1 X136.582 Y56.309 E79.11796
G1 X137.156 Y56.505 E79.13813
G1 X137.699 Y56.776 E79.15832
G1 X138.202 Y57.115 E79.17849
G1 X138.636 Y57.497 E79.19772
G1 X139.152 Y58.07 E79.22337
G1 X139.488 Y58.575 E79.24355
G1 X139.755 Y59.119 E79.2637
G1 X139.948 Y59.694 E79.28387
G1 X140.064 Y60.289 E79.30404
G1 X140.1 Y60.867 E79.3233
G1 X140.1 Y149.133 E82.25904
G1 X140.06 Y149.738 E82.2792
G1 X139.941 Y150.332 E82.29935
G1 X139.745 Y150.906 E82.31953
G1 X139.474 Y151.449 E82.33971
G1 X139.135 Y151.952 E82.35989
G1 X138.753 Y152.386 E82.37912
G1 X138.18 Y152.902 E82.40476
G1 X137.675 Y153.238 E82.42494
G1 X137.131 Y153.505 E82.44509
G1 X136.556 Y153.698 E82.46526
G1 X135.961 Y153.814 E82.48543
G1 X135.383 Y153.85 E82.50469
G1 X98.117 Y153.85 E83.74416
G1 X97.512 Y153.81 E83.76433
G1 X96.918 Y153.691 E83.78448
