;FLAVOR:Marlin
;TIME:1641
;Filament used: 1.25853m
;Layer height: 0.15
;MINX:113.45
;MINY:10.536
;MINZ:0.2
;MAXX:136.55
;MAXY:203.462
;MAXZ:5.15
;Generated with Cura_SteamEngine 4.5.0
M82 ;absolute extrusion mode
G21 ; set units to millimeters
G90 ; use absolute positioning
M82 ; absolute extrusion mode
M104 S210 ; set extruder temp
M140 S60 ; set bed temp
M190 S60 ; wait for bed temp
M109 S210 ; wait for extruder temp
G28 W ; home all without mesh bed level
G80 ; mesh bed leveling
G92 E0.0 ; reset extruder distance position
G1 Y-3.0 F1000.0 ; go outside print area
G1 X60.0 E9.0 F1000.0 ; intro line
G1 X100.0 E21.5 F1000.0 ; intro line
G92 E0.0 ; reset extruder distance position
G92 E0
G92 E0
G1 F2100 E-0.8
;LAYER_COUNT:34
;LAYER:0
M107
G0 F3600 X114.395 Y17.205 Z0.2
;TYPE:SKIRT
G1 F2100 E0
G1 F1800 X114.549 Y16.43 E0.02628
G1 X114.781 Y15.675 E0.05255
G1 X115.088 Y14.947 E0.07883
G1 X115.466 Y14.254 E0.10508
G1 X115.913 Y13.603 E0.13135
G1 X116.423 Y13.001 E0.15759
G1 X116.992 Y12.453 E0.18387
G1 X117.613 Y11.965 E0.21013
G1 X118.28 Y11.543 E0.23639
G1 X118.987 Y11.19 E0.26267
G1 X119.725 Y10.91 E0.28892
G1 X120.488 Y10.707 E0.31518
G1 X121.268 Y10.582 E0.34146
G1 X122.117 Y10.536 E0.36974
G1 X124.142 Y10.537 E0.43709
G1 X124.931 Y10.577 E0.46336
G1 X125.711 Y10.697 E0.48961
G1 X126.475 Y10.895 E0.51586
G1 X127.216 Y11.17 E0.54215
G1 X127.925 Y11.518 E0.56842
G1 X128.595 Y11.936 E0.59469
G1 X129.219 Y12.419 E0.62093
G1 X129.792 Y12.963 E0.64721
G1 X130.306 Y13.562 E0.67346
G1 X130.757 Y14.211 E0.69975
G1 X131.14 Y14.901 E0.726
G1 X131.452 Y15.627 E0.75228
G1 X131.689 Y16.38 E0.77853
G1 X131.848 Y17.154 E0.80482
G1 X131.928 Y17.939 E0.83106
G1 X131.928 Y18.729 E0.85733
G1 X131.849 Y19.514 E0.88358
G1 X131.69 Y20.288 E0.90986
G1 X131.66 Y20.382 E0.91314
G1 X131.656 Y34.016 E1.36661
G1 X131.616 Y34.804 E1.39285
G1 X132.416 Y35.192 E1.42242
G1 X133.087 Y35.61 E1.44872
G1 X133.711 Y36.093 E1.47496
G1 X134.148 Y36.498 E1.49478
G1 X134.795 Y37.201 E1.52656
G1 X135.262 Y37.837 E1.5528
G1 X135.663 Y38.517 E1.57906
G1 X135.993 Y39.235 E1.60534
G1 X136.248 Y39.982 E1.63159
G1 X136.427 Y40.751 E1.65785
G1 X136.527 Y41.535 E1.68414
G1 X136.55 Y42.13 E1.70394
G1 X136.51 Y43.335 E1.74404
G1 X136.391 Y44.115 E1.77029
G1 X136.193 Y44.88 E1.79657
G1 X135.919 Y45.62 E1.82282
G1 X135.571 Y46.329 E1.84908
G1 X135.153 Y47 E1.87538
G1 X134.67 Y47.624 E1.90162
G1 X134.265 Y48.061 E1.92144
G1 X133.562 Y48.708 E1.95322
G1 X132.926 Y49.175 E1.97946
G1 X132.8 Y49.249 E1.98432
G1 X132.8 Y60.931 E2.37287
G1 X133.711 Y61.593 E2.41032
G1 X134.148 Y61.998 E2.43014
G1 X134.795 Y62.701 E2.46192
G1 X135.262 Y63.337 E2.48816
G1 X135.663 Y64.017 E2.51442
G1 X135.993 Y64.735 E2.5407
G1 X136.248 Y65.482 E2.56695
G1 X136.427 Y66.251 E2.59321
G1 X136.527 Y67.035 E2.6195
G1 X136.55 Y67.63 E2.6393
G1 X136.51 Y68.835 E2.6794
G1 X136.391 Y69.615 E2.70565
G1 X136.193 Y70.38 E2.73193
G1 X135.919 Y71.12 E2.75817
G1 X135.571 Y71.829 E2.78444
G1 X135.153 Y72.5 E2.81074
G1 X134.67 Y73.124 E2.83698
G1 X134.265 Y73.561 E2.8568
G1 X133.562 Y74.208 E2.88858
G1 X132.926 Y74.675 E2.91482
G1 X132.8 Y74.749 E2.91968
G1 X132.8 Y86.431 E3.30823
G1 X133.711 Y87.093 E3.34568
G1 X134.148 Y87.498 E3.3655
G1 X134.795 Y88.201 E3.39727
G1 X135.262 Y88.837 E3.42352
G1 X135.663 Y89.517 E3.44977
G1 X135.993 Y90.235 E3.47606
G1 X136.248 Y90.982 E3.50231
G1 X136.427 Y91.751 E3.52857
G1 X136.527 Y92.535 E3.55486
G1 X136.55 Y93.13 E3.57466
G1 X136.51 Y94.335 E3.61476
G1 X136.391 Y95.115 E3.64101
G1 X136.193 Y95.88 E3.66729
G1 X135.919 Y96.62 E3.69353
G1 X135.571 Y97.329 E3.7198
G1 X135.153 Y98 E3.7461
G1 X134.67 Y98.624 E3.77234
G1 X134.265 Y99.061 E3.79216
G1 X133.562 Y99.708 E3.82394
G1 X132.926 Y100.175 E3.85018
G1 X132.8 Y100.249 E3.85504
G1 X132.8 Y111.931 E4.24358
G1 X133.711 Y112.593 E4.28104
G1 X134.148 Y112.998 E4.30086
G1 X134.795 Y113.701 E4.33263
G1 X135.262 Y114.337 E4.35888
G1 X135.663 Y115.017 E4.38513
G1 X135.993 Y115.735 E4.41142
G1 X136.248 Y116.482 E4.43767
G1 X136.427 Y117.251 E4.46393
G1 X136.527 Y118.035 E4.49022
G1 X136.55 Y118.63 E4.51002
G1 X136.51 Y119.835 E4.55012
G1 X136.391 Y120.615 E4.57637
G1 X136.193 Y121.38 E4.60265
G1 X135.919 Y122.12 E4.62889
G1 X135.571 Y122.829 E4.65516
G1 X135.153 Y123.5 E4.68146
G1 X134.67 Y124.124 E4.7077
G1 X134.265 Y124.561 E4.72752
G1 X133.562 Y125.208 E4.7593
G1 X132.926 Y125.675 E4.78554
G1 X132.8 Y125.749 E4.7904
G1 X132.8 Y137.431 E5.17894
G1 X133.711 Y138.093 E5.2164
G1 X134.148 Y138.498 E5.23622
G1 X134.795 Y139.201 E5.26799
G1 X135.262 Y139.837 E5.29424
G1 X135.663 Y140.517 E5.32049
G1 X135.993 Y141.235 E5.34678
G1 X136.248 Y141.982 E5.37303
G1 X136.427 Y142.751 E5.39929
G1 X136.527 Y143.535 E5.42558
G1 X136.55 Y144.13 E5.44538
G1 X136.51 Y145.335 E5.48548
G1 X136.391 Y146.115 E5.51173
G1 X136.193 Y146.88 E5.53801
G1 X135.919 Y147.62 E5.56425
G1 X135.571 Y148.329 E5.59052
G1 X135.153 Y149 E5.61682
G1 X134.67 Y149.624 E5.64306
G1 X134.265 Y150.061 E5.66288
G1 X133.562 Y150.708 E5.69466
G1 X132.926 Y151.175 E5.7209
G1 X132.8 Y151.249 E5.72576
G1 X132.8 Y162.931 E6.1143
G1 X133.711 Y163.593 E6.15176
G1 X134.148 Y163.998 E6.17158
G1 X134.795 Y164.701 E6.20335
G1 X135.262 Y165.337 E6.2296
G1 X135.663 Y166.017 E6.25585
G1 X135.993 Y166.735 E6.28214
G1 X136.248 Y167.482 E6.30839
G1 X136.427 Y168.251 E6.33465
G1 X136.527 Y169.035 E6.36094
G1 X136.55 Y169.63 E6.38074
G1 X136.51 Y170.834 E6.42081
G1 X136.391 Y171.614 E6.44705
G1 X136.193 Y172.379 E6.47333
G1 X135.919 Y173.119 E6.49958
G1 X135.571 Y173.828 E6.52585
G1 X135.153 Y174.499 E6.55214
G1 X134.67 Y175.123 E6.57839
G1 X134.265 Y175.56 E6.5982
G1 X133.562 Y176.207 E6.62998
G1 X132.926 Y176.674 E6.65623
G1 X132.8 Y176.748 E6.66109
G1 X132.8 Y188.431 E7.04966
G1 X133.711 Y189.093 E7.08712
G1 X134.148 Y189.498 E7.10694
G1 X134.795 Y190.201 E7.13871
G1 X135.262 Y190.837 E7.16496
G1 X135.663 Y191.517 E7.19121
G1 X135.993 Y192.235 E7.2175
G1 X136.248 Y192.982 E7.24375
G1 X136.427 Y193.751 E7.27001
G1 X136.527 Y194.535 E7.2963
G1 X136.55 Y195.13 E7.3161
G1 X136.51 Y196.334 E7.35617
G1 X136.391 Y197.114 E7.38241
G1 X136.193 Y197.879 E7.40869
G1 X135.919 Y198.619 E7.43494
G1 X135.571 Y199.328 E7.46121
G1 X135.153 Y199.999 E7.4875
G1 X134.67 Y200.623 E7.51375
G1 X134.265 Y201.06 E7.53356
G1 X133.562 Y201.707 E7.56534
G1 X132.926 Y202.174 E7.59158
G1 X132.246 Y202.575 E7.61784
G1 X131.528 Y202.905 E7.64412
G1 X130.781 Y203.16 E7.67038
G1 X130.012 Y203.339 E7.69664
G1 X129.228 Y203.439 E7.72292
G1 X128.633 Y203.462 E7.74273
G1 X121.367 Y203.462 E7.9844
G1 X120.578 Y203.422 E8.01067
G1 X119.798 Y203.303 E8.03692
G1 X119.033 Y203.105 E8.0632
G1 X118.293 Y202.831 E8.08944
G1 X117.584 Y202.483 E8.11571
G1 X116.913 Y202.065 E8.14201
G1 X116.289 Y201.582 E8.16825
G1 X115.852 Y201.177 E8.18807
G1 X115.205 Y200.474 E8.21985
G1 X114.738 Y199.838 E8.24609
G1 X114.337 Y199.158 E8.27235
G1 X114.007 Y198.44 E8.29863
G1 X113.752 Y197.693 E8.32488
G1 X113.573 Y196.924 E8.35114
G1 X113.473 Y196.14 E8.37743
G1 X113.45 Y195.545 E8.39723
G1 X113.45 Y42.13 E13.49984
G1 X113.49 Y41.341 E13.52611
G1 X113.609 Y40.561 E13.55236
G1 X113.807 Y39.796 E13.57864
G1 X114.081 Y39.056 E13.60488
G1 X114.429 Y38.347 E13.63115
G1 X114.847 Y37.676 E13.65745
G1 X115.258 Y37.145 E13.67978
G1 X115.078 Y36.727 E13.69492
G1 X114.841 Y35.974 E13.72117
G1 X114.682 Y35.2 E13.74745
G1 X114.601 Y34.415 E13.7737
G1 X114.593 Y20.397 E14.23994
G1 X114.411 Y19.566 E14.26824
G1 X114.326 Y18.78 E14.29453
G1 X114.321 Y17.991 E14.32078
G1 X114.395 Y17.205 E14.34703
G0 F3600 X114.82 Y17.085
G1 F1800 X114.989 Y16.335 E14.3726
G1 X115.235 Y15.606 E14.39819
G1 X115.556 Y14.907 E14.42378
G1 X115.947 Y14.245 E14.44935
G1 X116.405 Y13.627 E14.47493
G1 X116.925 Y13.06 E14.50052
G1 X117.5 Y12.55 E14.52608
G1 X118.126 Y12.102 E14.55169
G1 X118.794 Y11.722 E14.57725
G1 X119.499 Y11.413 E14.60285
G1 X120.232 Y11.179 E14.62844
G1 X120.985 Y11.023 E14.65402
G1 X122.117 Y10.936 E14.69178
G1 X124.142 Y10.937 E14.75913
G1 X124.91 Y10.977 E14.78471
G1 X125.67 Y11.097 E14.8103
G1 X126.413 Y11.295 E14.83588
G1 X127.131 Y11.569 E14.86144
G1 X127.818 Y11.917 E14.88705
G1 X128.464 Y12.333 E14.91261
G1 X129.064 Y12.815 E14.93821
G1 X129.611 Y13.356 E14.96379
G1 X130.098 Y13.951 E14.98937
G1 X130.521 Y14.593 E15.01494
G1 X130.875 Y15.276 E15.04052
G1 X131.157 Y15.992 E15.06612
G1 X131.362 Y16.733 E15.09169
G1 X131.49 Y17.492 E15.11729
G1 X131.538 Y18.259 E15.14285
G1 X131.506 Y19.028 E15.16845
G1 X131.394 Y19.789 E15.19404
G1 X131.26 Y20.313 E15.21202
G1 X131.256 Y34.015 E15.66775
G1 X131.216 Y34.784 E15.69337
G1 X131.171 Y35.072 E15.70306
G1 X131.623 Y35.244 E15.71915
G1 X132.309 Y35.591 E15.74472
G1 X132.956 Y36.007 E15.7703
G1 X133.556 Y36.488 E15.79588
G1 X133.983 Y36.897 E15.81554
G1 X134.497 Y37.469 E15.84112
G1 X134.95 Y38.091 E15.86671
G1 X135.336 Y38.756 E15.89229
G1 X135.651 Y39.458 E15.91788
G1 X135.891 Y40.189 E15.94347
G1 X136.054 Y40.94 E15.96903
G1 X136.138 Y41.705 E15.99463
G1 X136.15 Y42.546 E16.0226
G1 X136.11 Y43.314 E16.04818
G1 X135.991 Y44.074 E16.07376
G1 X135.793 Y44.817 E16.09934
G1 X135.519 Y45.536 E16.12493
G1 X135.172 Y46.222 E16.1505
G1 X134.756 Y46.869 E16.17608
G1 X134.275 Y47.469 E16.20166
G1 X133.866 Y47.896 E16.22133
G1 X133.294 Y48.41 E16.2469
G1 X132.672 Y48.863 E16.2725
G1 X132.4 Y49.021 E16.28296
G1 X132.4 Y61.15 E16.68637
G1 X132.956 Y61.507 E16.70835
G1 X133.556 Y61.988 E16.73393
G1 X133.983 Y62.397 E16.75359
G1 X134.497 Y62.969 E16.77917
G1 X134.95 Y63.591 E16.80476
G1 X135.336 Y64.256 E16.83034
G1 X135.651 Y64.958 E16.85593
G1 X135.891 Y65.689 E16.88152
G1 X136.054 Y66.44 E16.90708
G1 X136.138 Y67.205 E16.93267
G1 X136.15 Y68.046 E16.96065
G1 X136.11 Y68.814 E16.98623
G1 X135.991 Y69.574 E17.01181
G1 X135.793 Y70.317 E17.03739
G1 X135.519 Y71.036 E17.06298
G1 X135.172 Y71.722 E17.08855
G1 X134.756 Y72.369 E17.11413
G1 X134.275 Y72.969 E17.13971
G1 X133.866 Y73.396 E17.15937
G1 X133.294 Y73.91 E17.18495
G1 X132.672 Y74.363 E17.21055
G1 X132.4 Y74.521 E17.22101
G1 X132.4 Y86.65 E17.62442
G1 X132.956 Y87.007 E17.6464
G1 X133.556 Y87.488 E17.67197
G1 X133.983 Y87.897 E17.69164
G1 X134.497 Y88.469 E17.71722
G1 X134.95 Y89.091 E17.74281
G1 X135.336 Y89.756 E17.76838
G1 X135.651 Y90.458 E17.79397
G1 X135.891 Y91.189 E17.81956
G1 X136.054 Y91.94 E17.84512
G1 X136.138 Y92.705 E17.87072
G1 X136.15 Y93.546 E17.8987
G1 X136.11 Y94.314 E17.92427
G1 X135.991 Y95.074 E17.94986
G1 X135.793 Y95.817 E17.97544
G1 X135.519 Y96.536 E18.00103
G1 X135.172 Y97.222 E18.0266
G1 X134.756 Y97.869 E18.05218
G1 X134.275 Y98.469 E18.07776
G1 X133.866 Y98.896 E18.09742
G1 X133.294 Y99.41 E18.123
G1 X132.672 Y99.863 E18.14859
G1 X132.4 Y100.021 E18.15906
G1 X132.4 Y112.15 E18.56247
G1 X132.956 Y112.507 E18.58444
G1 X133.556 Y112.988 E18.61002
G1 X133.983 Y113.397 E18.62969
G1 X134.497 Y113.969 E18.65526
G1 X134.95 Y114.591 E18.68086
G1 X135.336 Y115.256 E18.70643
G1 X135.651 Y115.958 E18.73202
G1 X135.891 Y116.689 E18.75761
G1 X136.054 Y117.44 E18.78317
G1 X136.138 Y118.205 E18.80877
G1 X136.15 Y119.046 E18.83674
G1 X136.11 Y119.814 E18.86232
G1 X135.991 Y120.574 E18.88791
G1 X135.793 Y121.317 E18.91348
G1 X135.519 Y122.036 E18.93908
G1 X135.172 Y122.722 E18.96464
G1 X134.756 Y123.369 E18.99023
G1 X134.275 Y123.969 E19.01581
G1 X133.866 Y124.396 E19.03547
G1 X133.294 Y124.91 E19.06105
G1 X132.672 Y125.363 E19.08664
G1 X132.4 Y125.521 E19.0971
G1 X132.4 Y137.65 E19.50052
G1 X132.956 Y138.007 E19.52249
G1 X133.556 Y138.488 E19.54807
G1 X133.983 Y138.897 E19.56774
G1 X134.497 Y139.469 E19.59331
G1 X134.95 Y140.091 E19.61891
G1 X135.336 Y140.756 E19.64448
G1 X135.651 Y141.458 E19.67007
G1 X135.891 Y142.189 E19.69566
G1 X136.054 Y142.94 E19.72122
G1 X136.138 Y143.705 E19.74682
G1 X136.15 Y144.546 E19.77479
G1 X136.11 Y145.314 E19.80037
G1 X135.991 Y146.074 E19.82596
G1 X135.793 Y146.817 E19.85153
G1 X135.519 Y147.536 E19.87712
G1 X135.172 Y148.222 E19.90269
G1 X134.756 Y148.869 E19.92828
G1 X134.275 Y149.469 E19.95385
G1 X133.866 Y149.896 E19.97352
G1 X133.294 Y150.41 E19.9991
G1 X132.672 Y150.863 E20.02469
G1 X132.4 Y151.021 E20.03515
G1 X132.4 Y163.15 E20.43856
G1 X132.956 Y163.507 E20.46054
G1 X133.556 Y163.988 E20.48612
G1 X133.983 Y164.397 E20.50578
G1 X134.497 Y164.969 E20.53136
G1 X134.95 Y165.591 E20.55695
G1 X135.336 Y166.256 E20.58253
G1 X135.651 Y166.958 E20.60812
G1 X135.891 Y167.689 E20.63371
G1 X136.054 Y168.44 E20.65927
G1 X136.138 Y169.205 E20.68487
G1 X136.15 Y170.045 E20.71281
G1 X136.11 Y170.813 E20.73839
G1 X135.991 Y171.573 E20.76397
G1 X135.793 Y172.316 E20.78955
G1 X135.519 Y173.035 E20.81514
G1 X135.172 Y173.721 E20.84071
G1 X134.756 Y174.368 E20.86629
G1 X134.275 Y174.968 E20.89187
G1 X133.866 Y175.395 E20.91153
G1 X133.294 Y175.909 E20.93711
G1 X132.672 Y176.362 E20.9627
G1 X132.4 Y176.52 E20.97317
G1 X132.4 Y188.65 E21.37661
G1 X132.956 Y189.007 E21.39859
G1 X133.556 Y189.488 E21.42417
G1 X133.983 Y189.897 E21.44383
G1 X134.497 Y190.469 E21.46941
G1 X134.95 Y191.091 E21.495
G1 X135.336 Y191.756 E21.52058
G1 X135.651 Y192.458 E21.54617
G1 X135.891 Y193.189 E21.57176
G1 X136.054 Y193.94 E21.59732
G1 X136.138 Y194.705 E21.62291
G1 X136.15 Y195.545 E21.65086
G1 X136.11 Y196.313 E21.67643
G1 X135.991 Y197.073 E21.70202
G1 X135.793 Y197.816 E21.72759
G1 X135.519 Y198.535 E21.75319
G1 X135.172 Y199.221 E21.77876
G1 X134.756 Y199.868 E21.80434
G1 X134.275 Y200.468 E21.82992
G1 X133.866 Y200.895 E21.84958
G1 X133.294 Y201.409 E21.87516
G1 X132.672 Y201.862 E21.90075
G1 X132.007 Y202.248 E21.92633
G1 X131.305 Y202.563 E21.95192
G1 X130.574 Y202.803 E21.97751
G1 X129.823 Y202.966 E22.00307
G1 X129.058 Y203.05 E22.02866
G1 X121.367 Y203.062 E22.28447
G1 X120.599 Y203.022 E22.31005
G1 X119.839 Y202.903 E22.33563
G1 X119.096 Y202.705 E22.36121
G1 X118.377 Y202.431 E22.3868
G1 X117.691 Y202.084 E22.41237
G1 X117.044 Y201.668 E22.43795
G1 X116.444 Y201.187 E22.46353
G1 X116.017 Y200.778 E22.4832
G1 X115.503 Y200.206 E22.50877
G1 X115.05 Y199.584 E22.53437
G1 X114.664 Y198.919 E22.55994
G1 X114.349 Y198.217 E22.58553
G1 X114.109 Y197.486 E22.61112
G1 X113.946 Y196.735 E22.63668
G1 X113.862 Y195.97 E22.66228
G1 X113.85 Y42.13 E27.77902
G1 X113.89 Y41.362 E27.8046
G1 X114.009 Y40.602 E27.83018
G1 X114.207 Y39.859 E27.85576
G1 X114.481 Y39.14 E27.88135
G1 X114.828 Y38.454 E27.90692
G1 X115.244 Y37.807 E27.9325
G1 X115.724 Y37.209 E27.95801
G1 X115.374 Y36.362 E27.98849
G1 X115.168 Y35.62 E28.0141
G1 X115.04 Y34.862 E28.03967
G1 X114.991 Y34.01 E28.06805
G1 X114.993 Y20.324 E28.52325
G1 X114.788 Y19.384 E28.55525
G1 X114.718 Y18.618 E28.58083
G1 X114.729 Y17.849 E28.60641
G1 X114.82 Y17.085 E28.632
G0 F3600 X115.247 Y16.971
G1 F1800 X115.432 Y16.246 E28.65689
G1 X115.693 Y15.545 E28.68177
G1 X116.028 Y14.876 E28.70665
G1 X116.432 Y14.246 E28.73155
G1 X116.901 Y13.664 E28.75641
G1 X117.429 Y13.134 E28.78129
G1 X118.011 Y12.664 E28.80617
G1 X118.64 Y12.258 E28.83107
G1 X119.308 Y11.923 E28.85592
G1 X120.008 Y11.66 E28.8808
G1 X120.733 Y11.473 E28.9057
G1 X121.473 Y11.365 E28.93057
G1 X122.116 Y11.336 E28.95198
G1 X124.141 Y11.337 E29.01933
G1 X124.888 Y11.377 E29.04421
G1 X125.627 Y11.497 E29.06911
G1 X126.348 Y11.695 E29.09398
G1 X127.044 Y11.969 E29.11886
G1 X127.707 Y12.315 E29.14373
G1 X128.33 Y12.731 E29.16865
G1 X128.904 Y13.21 E29.19352
G1 X129.424 Y13.748 E29.2184
G1 X129.883 Y14.338 E29.24326
G1 X130.277 Y14.974 E29.26815
G1 X130.601 Y15.648 E29.29302
G1 X130.851 Y16.353 E29.3179
G1 X131.024 Y17.081 E29.34279
G1 X131.119 Y17.823 E29.36767
G1 X131.134 Y18.571 E29.39255
G1 X131.069 Y19.316 E29.41742
G1 X130.925 Y20.05 E29.4423
G1 X130.86 Y20.258 E29.44955
G1 X130.856 Y34.015 E29.90711
G1 X130.816 Y34.762 E29.93199
G1 X130.723 Y35.338 E29.9514
G1 X131.536 Y35.643 E29.98028
G1 X132.199 Y35.99 E30.00517
G1 X132.822 Y36.405 E30.03006
G1 X133.583 Y37.063 E30.06353
G1 X134.2 Y37.737 E30.09392
G1 X134.637 Y38.343 E30.11877
G1 X135.008 Y38.993 E30.14366
G1 X135.307 Y39.679 E30.16855
G1 X135.531 Y40.393 E30.19344
G1 X135.678 Y41.126 E30.2183
G1 X135.75 Y42.13 E30.25178
G1 X135.71 Y43.293 E30.29049
G1 X135.591 Y44.031 E30.31535
